Processors/avs_plugins/LUTs/ALog_to_BT2100_PQ.cube
TITLE "ALog_to_PQ"
LUT_3D_SIZE 65
# Apple Log BT2020 to PQ BT2020 by Francesco Bucciantini
0.06256172 0.06256172 0.06256172
0.06256172 0.06256172 0.06256172
0.06256172 0.06256172 0.06256172
0.06256172 0.06256172 0.06256172
0.06256172 0.06256172 0.06256172
0.06256172 0.06256172 0.06256172
0.06256172 0.06256172 0.06256172
0.06256172 0.06256172 0.06256172
0.06256172 0.06256172 0.06256172
0.06256172 0.06256172 0.06256172
0.06400662 0.06256172 0.06256172
0.07097218 0.06256172 0.06256172
0.07888659 0.06256172 0.06256172
0.08675666 0.06256172 0.06256172
0.09460301 0.06256172 0.06256172
0.10329242 0.06256172 0.06256172
0.11290623 0.06256172 0.06256172
0.12345425 0.06256172 0.06256172
0.13494736 0.06256172 0.06256172
0.14735191 0.06256172 0.06256172
0.15942704 0.06256172 0.06256172
0.17137265 0.06256172 0.06256172
0.18322376 0.06256172 0.06256172
0.19501015 0.06256172 0.06256172
0.20675690 0.06256172 0.06256172
0.21848507 0.06256172 0.06256172
0.23021236 0.06256172 0.06256172
0.24195355 0.06256172 0.06256172
0.25372099 0.06256172 0.06256172
0.26552495 0.06256172 0.06256172
0.27737391 0.06256172 0.06256172
0.28927480 0.06256172 0.06256172
0.30123322 0.06256172 0.06256172
0.31325361 0.06256172 0.06256172
0.32533937 0.06256172 0.06256172
0.33749301 0.06256172 0.06256172
0.34971623 0.06256172 0.06256172
0.36201002 0.06256172 0.06256172
0.37437473 0.06256172 0.06256172
0.38681017 0.06256172 0.06256172
0.39931560 0.06256172 0.06256172
0.41188986 0.06256172 0.06256172
0.42453136 0.06256172 0.06256172
0.43723814 0.06256172 0.06256172
0.45000792 0.06256172 0.06256172
0.46283812 0.06256172 0.06256172
0.47572588 0.06256172 0.06256172
0.48866812 0.06256172 0.06256172
0.50166153 0.06256172 0.06256172
0.51470261 0.06256172 0.06256172
0.52778772 0.06256172 0.06256172
0.54091303 0.06256172 0.06256172
0.55407463 0.06256172 0.06256172
0.56726845 0.06256172 0.06256172
0.58049037 0.06256172 0.06256172
0.59373616 0.06256172 0.06256172
0.60700155 0.06256172 0.06256172
0.62028219 0.06256172 0.06256172
0.63357374 0.06256172 0.06256172
0.64687178 0.06256172 0.06256172
0.66017192 0.06256172 0.06256172
0.67346974 0.06256172 0.06256172
0.68676085 0.06256172 0.06256172
0.70004085 0.06256172 0.06256172
0.71330539 0.06256172 0.06256172
0.06256172 0.06256172 0.06256172
0.06256172 0.06256172 0.06256172
0.06256172 0.06256172 0.06256172
0.06256172 0.06256172 0.06256172
0.06256172 0.06256172 0.06256172
0.06256172 0.06256172 0.06256172
0.06256172 0.06256172 0.06256172
0.06256172 0.06256172 0.06256172
0.06256172 0.06256172 0.06256172
0.06256172 0.06256172 0.06256172
0.06400662 0.06256172 0.06256172
0.07097218 0.06256172 0.06256172
0.07888659 0.06256172 0.06256172
0.08675666 0.06256172 0.06256172
0.09460301 0.06256172 0.06256172
0.10329242 0.06256172 0.06256172
0.11290623 0.06256172 0.06256172
0.12345425 0.06256172 0.06256172
0.13494736 0.06256172 0.06256172
0.14735191 0.06256172 0.06256172
0.15942704 0.06256172 0.06256172
0.17137265 0.06256172 0.06256172
0.18322376 0.06256172 0.06256172
0.19501015 0.06256172 0.06256172
0.20675690 0.06256172 0.06256172
0.21848507 0.06256172 0.06256172
0.23021236 0.06256172 0.06256172
0.24195355 0.06256172 0.06256172
0.25372099 0.06256172 0.06256172
0.26552495 0.06256172 0.06256172
0.27737391 0.06256172 0.06256172
0.28927480 0.06256172 0.06256172
0.30123322 0.06256172 0.06256172
0.31325361 0.06256172 0.06256172
0.32533937 0.06256172 0.06256172
0.33749301 0.06256172 0.06256172
0.34971623 0.06256172 0.06256172
0.36201002 0.06256172 0.06256172
0.37437473 0.06256172 0.06256172
0.38681017 0.06256172 0.06256172
0.39931560 0.06256172 0.06256172
0.41188986 0.06256172 0.06256172
0.42453136 0.06256172 0.06256172
0.43723814 0.06256172 0.06256172
0.45000792 0.06256172 0.06256172
0.46283812 0.06256172 0.06256172
0.47572588 0.06256172 0.06256172
0.48866812 0.06256172 0.06256172
0.50166153 0.06256172 0.06256172
0.51470261 0.06256172 0.06256172
0.52778772 0.06256172 0.06256172
0.54091303 0.06256172 0.06256172
0.55407463 0.06256172 0.06256172
0.56726845 0.06256172 0.06256172
0.58049037 0.06256172 0.06256172
0.59373616 0.06256172 0.06256172
0.60700155 0.06256172 0.06256172
0.62028219 0.06256172 0.06256172
0.63357374 0.06256172 0.06256172
0.64687178 0.06256172 0.06256172
0.66017192 0.06256172 0.06256172
0.67346974 0.06256172 0.06256172
0.68676085 0.06256172 0.06256172
0.70004085 0.06256172 0.06256172
0.71330539 0.06256172 0.06256172
0.06256172 0.06256172 0.06256172
0.06256172 0.06256172 0.06256172
0.06256172 0.06256172 0.06256172
0.06256172 0.06256172 0.06256172
0.06256172 0.06256172 0.06256172
0.06256172 0.06256172 0.06256172
0.06256172 0.06256172 0.06256172
0.06256172 0.06256172 0.06256172
0.06256172 0.06256172 0.06256172
0.06256172 0.06256172 0.06256172
0.06400662 0.06256172 0.06256172
0.07097218 0.06256172 0.06256172
0.07888659 0.06256172 0.06256172
0.08675666 0.06256172 0.06256172
0.09460301 0.06256172 0.06256172
0.10329242 0.06256172 0.06256172
0.11290623 0.06256172 0.06256172
0.12345425 0.06256172 0.06256172
0.13494736 0.06256172 0.06256172
0.14735191 0.06256172 0.06256172
0.15942704 0.06256172 0.06256172
0.17137265 0.06256172 0.06256172
0.18322376 0.06256172 0.06256172
0.19501015 0.06256172 0.06256172
0.20675690 0.06256172 0.06256172
0.21848507 0.06256172 0.06256172
0.23021236 0.06256172 0.06256172
0.24195355 0.06256172 0.06256172
0.25372099 0.06256172 0.06256172
0.26552495 0.06256172 0.06256172
0.27737391 0.06256172 0.06256172
0.28927480 0.06256172 0.06256172
0.30123322 0.06256172 0.06256172
0.31325361 0.06256172 0.06256172
0.32533937 0.06256172 0.06256172
0.33749301 0.06256172 0.06256172
0.34971623 0.06256172 0.06256172
0.36201002 0.06256172 0.06256172
0.37437473 0.06256172 0.06256172
0.38681017 0.06256172 0.06256172
0.39931560 0.06256172 0.06256172
0.41188986 0.06256172 0.06256172
0.42453136 0.06256172 0.06256172
0.43723814 0.06256172 0.06256172
0.45000792 0.06256172 0.06256172
0.46283812 0.06256172 0.06256172
0.47572588 0.06256172 0.06256172
0.48866812 0.06256172 0.06256172
0.50166153 0.06256172 0.06256172
0.51470261 0.06256172 0.06256172
0.52778772 0.06256172 0.06256172
0.54091303 0.06256172 0.06256172
0.55407463 0.06256172 0.06256172
0.56726845 0.06256172 0.06256172
0.58049037 0.06256172 0.06256172
0.59373616 0.06256172 0.06256172
0.60700155 0.06256172 0.06256172
0.62028219 0.06256172 0.06256172
0.63357374 0.06256172 0.06256172
0.64687178 0.06256172 0.06256172
0.66017192 0.06256172 0.06256172
0.67346974 0.06256172 0.06256172
0.68676085 0.06256172 0.06256172
0.70004085 0.06256172 0.06256172
0.71330539 0.06256172 0.06256172
0.06256172 0.06256172 0.06256172
0.06256172 0.06256172 0.06256172
0.06256172 0.06256172 0.06256172
0.06256172 0.06256172 0.06256172
0.06256172 0.06256172 0.06256172
0.06256172 0.06256172 0.06256172
0.06256172 0.06256172 0.06256172
0.06256172 0.06256172 0.06256172
0.06256172 0.06256172 0.06256172
0.06256172 0.06256172 0.06256172
0.06400662 0.06256172 0.06256172
0.07097218 0.06256172 0.06256172
0.07888659 0.06256172 0.06256172
0.08675666 0.06256172 0.06256172
0.09460301 0.06256172 0.06256172
0.10329242 0.06256172 0.06256172
0.11290623 0.06256172 0.06256172
0.12345425 0.06256172 0.06256172
0.13494736 0.06256172 0.06256172
0.14735191 0.06256172 0.06256172
0.15942704 0.06256172 0.06256172
0.17137265 0.06256172 0.06256172
0.18322376 0.06256172 0.06256172
0.19501015 0.06256172 0.06256172
0.20675690 0.06256172 0.06256172
0.21848507 0.06256172 0.06256172
0.23021236 0.06256172 0.06256172
0.24195355 0.06256172 0.06256172
0.25372099 0.06256172 0.06256172
0.26552495 0.06256172 0.06256172
0.27737391 0.06256172 0.06256172
0.28927480 0.06256172 0.06256172
0.30123322 0.06256172 0.06256172
0.31325361 0.06256172 0.06256172
0.32533937 0.06256172 0.06256172
0.33749301 0.06256172 0.06256172
0.34971623 0.06256172 0.06256172
0.36201002 0.06256172 0.06256172
0.37437473 0.06256172 0.06256172
0.38681017 0.06256172 0.06256172
0.39931560 0.06256172 0.06256172
0.41188986 0.06256172 0.06256172
0.42453136 0.06256172 0.06256172
0.43723814 0.06256172 0.06256172
0.45000792 0.06256172 0.06256172
0.46283812 0.06256172 0.06256172
0.47572588 0.06256172 0.06256172
0.48866812 0.06256172 0.06256172
0.50166153 0.06256172 0.06256172
0.51470261 0.06256172 0.06256172
0.52778772 0.06256172 0.06256172
0.54091303 0.06256172 0.06256172
0.55407463 0.06256172 0.06256172
0.56726845 0.06256172 0.06256172
0.58049037 0.06256172 0.06256172
0.59373616 0.06256172 0.06256172
0.60700155 0.06256172 0.06256172
0.62028219 0.06256172 0.06256172
0.63357374 0.06256172 0.06256172
0.64687178 0.06256172 0.06256172
0.66017192 0.06256172 0.06256172
0.67346974 0.06256172 0.06256172
0.68676085 0.06256172 0.06256172
0.70004085 0.06256172 0.06256172
0.71330539 0.06256172 0.06256172
0.06256172 0.06256172 0.06256172
0.06256172 0.06256172 0.06256172
0.06256172 0.06256172 0.06256172
0.06256172 0.06256172 0.06256172
0.06256172 0.06256172 0.06256172
0.06256172 0.06256172 0.06256172
0.06256172 0.06256172 0.06256172
0.06256172 0.06256172 0.06256172
0.06256172 0.06256172 0.06256172
0.06256172 0.06256172 0.06256172
0.06400662 0.06256172 0.06256172
0.07097218 0.06256172 0.06256172
0.07888659 0.06256172 0.06256172
0.08675666 0.06256172 0.06256172
0.09460301 0.06256172 0.06256172
0.10329242 0.06256172 0.06256172
0.11290623 0.06256172 0.06256172
0.12345425 0.06256172 0.06256172
0.13494736 0.06256172 0.06256172
0.14735191 0.06256172 0.06256172
0.15942704 0.06256172 0.06256172
0.17137265 0.06256172 0.06256172
0.18322376 0.06256172 0.06256172
0.19501015 0.06256172 0.06256172
0.20675690 0.06256172 0.06256172
0.21848507 0.06256172 0.06256172
0.23021236 0.06256172 0.06256172
0.24195355 0.06256172 0.06256172
0.25372099 0.06256172 0.06256172
0.26552495 0.06256172 0.06256172
0.27737391 0.06256172 0.06256172
0.28927480 0.06256172 0.06256172
0.30123322 0.06256172 0.06256172
0.31325361 0.06256172 0.06256172
0.32533937 0.06256172 0.06256172
0.33749301 0.06256172 0.06256172
0.34971623 0.06256172 0.06256172
0.36201002 0.06256172 0.06256172
0.37437473 0.06256172 0.06256172
0.38681017 0.06256172 0.06256172
0.39931560 0.06256172 0.06256172
0.41188986 0.06256172 0.06256172
0.42453136 0.06256172 0.06256172
0.43723814 0.06256172 0.06256172
0.45000792 0.06256172 0.06256172
0.46283812 0.06256172 0.06256172
0.47572588 0.06256172 0.06256172
0.48866812 0.06256172 0.06256172
0.50166153 0.06256172 0.06256172
0.51470261 0.06256172 0.06256172
0.52778772 0.06256172 0.06256172
0.54091303 0.06256172 0.06256172
0.55407463 0.06256172 0.06256172
0.56726845 0.06256172 0.06256172
0.58049037 0.06256172 0.06256172
0.59373616 0.06256172 0.06256172
0.60700155 0.06256172 0.06256172
0.62028219 0.06256172 0.06256172
0.63357374 0.06256172 0.06256172
0.64687178 0.06256172 0.06256172
0.66017192 0.06256172 0.06256172
0.67346974 0.06256172 0.06256172
0.68676085 0.06256172 0.06256172
0.70004085 0.06256172 0.06256172
0.71330539 0.06256172 0.06256172
0.06256172 0.06256172 0.06256172
0.06256172 0.06256172 0.06256172
0.06256172 0.06256172 0.06256172
0.06256172 0.06256172 0.06256172
0.06256172 0.06256172 0.06256172
0.06256172 0.06256172 0.06256172
0.06256172 0.06256172 0.06256172
0.06256172 0.06256172 0.06256172
0.06256172 0.06256172 0.06256172
0.06256172 0.06256172 0.06256172
0.06400662 0.06256172 0.06256172
0.07097218 0.06256172 0.06256172
0.07888659 0.06256172 0.06256172
0.08675666 0.06256172 0.06256172
0.09460301 0.06256172 0.06256172
0.10329242 0.06256172 0.06256172
0.11290623 0.06256172 0.06256172
0.12345425 0.06256172 0.06256172
0.13494736 0.06256172 0.06256172
0.14735191 0.06256172 0.06256172
0.15942704 0.06256172 0.06256172
0.17137265 0.06256172 0.06256172
0.18322376 0.06256172 0.06256172
0.19501015 0.06256172 0.06256172
0.20675690 0.06256172 0.06256172
0.21848507 0.06256172 0.06256172
0.23021236 0.06256172 0.06256172
0.24195355 0.06256172 0.06256172
0.25372099 0.06256172 0.06256172
0.26552495 0.06256172 0.06256172
0.27737391 0.06256172 0.06256172
0.28927480 0.06256172 0.06256172
0.30123322 0.06256172 0.06256172
0.31325361 0.06256172 0.06256172
0.32533937 0.06256172 0.06256172
0.33749301 0.06256172 0.06256172
0.34971623 0.06256172 0.06256172
0.36201002 0.06256172 0.06256172
0.37437473 0.06256172 0.06256172
0.38681017 0.06256172 0.06256172
0.39931560 0.06256172 0.06256172
0.41188986 0.06256172 0.06256172
0.42453136 0.06256172 0.06256172
0.43723814 0.06256172 0.06256172
0.45000792 0.06256172 0.06256172
0.46283812 0.06256172 0.06256172
0.47572588 0.06256172 0.06256172
0.48866812 0.06256172 0.06256172
0.50166153 0.06256172 0.06256172
0.51470261 0.06256172 0.06256172
0.52778772 0.06256172 0.06256172
0.54091303 0.06256172 0.06256172
0.55407463 0.06256172 0.06256172
0.56726845 0.06256172 0.06256172
0.58049037 0.06256172 0.06256172
0.59373616 0.06256172 0.06256172
0.60700155 0.06256172 0.06256172
0.62028219 0.06256172 0.06256172
0.63357374 0.06256172 0.06256172
0.64687178 0.06256172 0.06256172
0.66017192 0.06256172 0.06256172
0.67346974 0.06256172 0.06256172
0.68676085 0.06256172 0.06256172
0.70004085 0.06256172 0.06256172
0.71330539 0.06256172 0.06256172
0.06256172 0.06256172 0.06256172
0.06256172 0.06256172 0.06256172
0.06256172 0.06256172 0.06256172
0.06256172 0.06256172 0.06256172
0.06256172 0.06256172 0.06256172
0.06256172 0.06256172 0.06256172
0.06256172 0.06256172 0.06256172
0.06256172 0.06256172 0.06256172
0.06256172 0.06256172 0.06256172
0.06256172 0.06256172 0.06256172
0.06400662 0.06256172 0.06256172
0.07097218 0.06256172 0.06256172
0.07888659 0.06256172 0.06256172
0.08675666 0.06256172 0.06256172
0.09460301 0.06256172 0.06256172
0.10329242 0.06256172 0.06256172
0.11290623 0.06256172 0.06256172
0.12345425 0.06256172 0.06256172
0.13494736 0.06256172 0.06256172
0.14735191 0.06256172 0.06256172
0.15942704 0.06256172 0.06256172
0.17137265 0.06256172 0.06256172
0.18322376 0.06256172 0.06256172
0.19501015 0.06256172 0.06256172
0.20675690 0.06256172 0.06256172
0.21848507 0.06256172 0.06256172
0.23021236 0.06256172 0.06256172
0.24195355 0.06256172 0.06256172
0.25372099 0.06256172 0.06256172
0.26552495 0.06256172 0.06256172
0.27737391 0.06256172 0.06256172
0.28927480 0.06256172 0.06256172
0.30123322 0.06256172 0.06256172
0.31325361 0.06256172 0.06256172
0.32533937 0.06256172 0.06256172
0.33749301 0.06256172 0.06256172
0.34971623 0.06256172 0.06256172
0.36201002 0.06256172 0.06256172
0.37437473 0.06256172 0.06256172
0.38681017 0.06256172 0.06256172
0.39931560 0.06256172 0.06256172
0.41188986 0.06256172 0.06256172
0.42453136 0.06256172 0.06256172
0.43723814 0.06256172 0.06256172
0.45000792 0.06256172 0.06256172
0.46283812 0.06256172 0.06256172
0.47572588 0.06256172 0.06256172
0.48866812 0.06256172 0.06256172
0.50166153 0.06256172 0.06256172
0.51470261 0.06256172 0.06256172
0.52778772 0.06256172 0.06256172
0.54091303 0.06256172 0.06256172
0.55407463 0.06256172 0.06256172
0.56726845 0.06256172 0.06256172
0.58049037 0.06256172 0.06256172
0.59373616 0.06256172 0.06256172
0.60700155 0.06256172 0.06256172
0.62028219 0.06256172 0.06256172
0.63357374 0.06256172 0.06256172
0.64687178 0.06256172 0.06256172
0.66017192 0.06256172 0.06256172
0.67346974 0.06256172 0.06256172
0.68676085 0.06256172 0.06256172
0.70004085 0.06256172 0.06256172
0.71330539 0.06256172 0.06256172
0.06256172 0.06256172 0.06256172
0.06256172 0.06256172 0.06256172
0.06256172 0.06256172 0.06256172
0.06256172 0.06256172 0.06256172
0.06256172 0.06256172 0.06256172
0.06256172 0.06256172 0.06256172
0.06256172 0.06256172 0.06256172
0.06256172 0.06256172 0.06256172
0.06256172 0.06256172 0.06256172
0.06256172 0.06256172 0.06256172
0.06400662 0.06256172 0.06256172
0.07097218 0.06256172 0.06256172
0.07888659 0.06256172 0.06256172
0.08675666 0.06256172 0.06256172
0.09460301 0.06256172 0.06256172
0.10329242 0.06256172 0.06256172
0.11290623 0.06256172 0.06256172
0.12345425 0.06256172 0.06256172
0.13494736 0.06256172 0.06256172
0.14735191 0.06256172 0.06256172
0.15942704 0.06256172 0.06256172
0.17137265 0.06256172 0.06256172
0.18322376 0.06256172 0.06256172
0.19501015 0.06256172 0.06256172
0.20675690 0.06256172 0.06256172
0.21848507 0.06256172 0.06256172
0.23021236 0.06256172 0.06256172
0.24195355 0.06256172 0.06256172
0.25372099 0.06256172 0.06256172
0.26552495 0.06256172 0.06256172
0.27737391 0.06256172 0.06256172
0.28927480 0.06256172 0.06256172
0.30123322 0.06256172 0.06256172
0.31325361 0.06256172 0.06256172
0.32533937 0.06256172 0.06256172
0.33749301 0.06256172 0.06256172
0.34971623 0.06256172 0.06256172
0.36201002 0.06256172 0.06256172
0.37437473 0.06256172 0.06256172
0.38681017 0.06256172 0.06256172
0.39931560 0.06256172 0.06256172
0.41188986 0.06256172 0.06256172
0.42453136 0.06256172 0.06256172
0.43723814 0.06256172 0.06256172
0.45000792 0.06256172 0.06256172
0.46283812 0.06256172 0.06256172
0.47572588 0.06256172 0.06256172
0.48866812 0.06256172 0.06256172
0.50166153 0.06256172 0.06256172
0.51470261 0.06256172 0.06256172
0.52778772 0.06256172 0.06256172
0.54091303 0.06256172 0.06256172
0.55407463 0.06256172 0.06256172
0.56726845 0.06256172 0.06256172
0.58049037 0.06256172 0.06256172
0.59373616 0.06256172 0.06256172
0.60700155 0.06256172 0.06256172
0.62028219 0.06256172 0.06256172
0.63357374 0.06256172 0.06256172
0.64687178 0.06256172 0.06256172
0.66017192 0.06256172 0.06256172
0.67346974 0.06256172 0.06256172
0.68676085 0.06256172 0.06256172
0.70004085 0.06256172 0.06256172
0.71330539 0.06256172 0.06256172
0.06256172 0.06256172 0.06256172
0.06256172 0.06256172 0.06256172
0.06256172 0.06256172 0.06256172
0.06256172 0.06256172 0.06256172
0.06256172 0.06256172 0.06256172
0.06256172 0.06256172 0.06256172
0.06256172 0.06256172 0.06256172
0.06256172 0.06256172 0.06256172
0.06256172 0.06256172 0.06256172
0.06256172 0.06256172 0.06256172
0.06400662 0.06256172 0.06256172
0.07097218 0.06256172 0.06256172
0.07888659 0.06256172 0.06256172
0.08675666 0.06256172 0.06256172
0.09460301 0.06256172 0.06256172
0.10329242 0.06256172 0.06256172
0.11290623 0.06256172 0.06256172
0.12345425 0.06256172 0.06256172
0.13494736 0.06256172 0.06256172
0.14735191 0.06256172 0.06256172
0.15942704 0.06256172 0.06256172
0.17137265 0.06256172 0.06256172
0.18322376 0.06256172 0.06256172
0.19501015 0.06256172 0.06256172
0.20675690 0.06256172 0.06256172
0.21848507 0.06256172 0.06256172
0.23021236 0.06256172 0.06256172
0.24195355 0.06256172 0.06256172
0.25372099 0.06256172 0.06256172
0.26552495 0.06256172 0.06256172
0.27737391 0.06256172 0.06256172
0.28927480 0.06256172 0.06256172
0.30123322 0.06256172 0.06256172
0.31325361 0.06256172 0.06256172
0.32533937 0.06256172 0.06256172
0.33749301 0.06256172 0.06256172
0.34971623 0.06256172 0.06256172
0.36201002 0.06256172 0.06256172
0.37437473 0.06256172 0.06256172
0.38681017 0.06256172 0.06256172
0.39931560 0.06256172 0.06256172
0.41188986 0.06256172 0.06256172
0.42453136 0.06256172 0.06256172
0.43723814 0.06256172 0.06256172
0.45000792 0.06256172 0.06256172
0.46283812 0.06256172 0.06256172
0.47572588 0.06256172 0.06256172
0.48866812 0.06256172 0.06256172
0.50166153 0.06256172 0.06256172
0.51470261 0.06256172 0.06256172
0.52778772 0.06256172 0.06256172
0.54091303 0.06256172 0.06256172
0.55407463 0.06256172 0.06256172
0.56726845 0.06256172 0.06256172
0.58049037 0.06256172 0.06256172
0.59373616 0.06256172 0.06256172
0.60700155 0.06256172 0.06256172
0.62028219 0.06256172 0.06256172
0.63357374 0.06256172 0.06256172
0.64687178 0.06256172 0.06256172
0.66017192 0.06256172 0.06256172
0.67346974 0.06256172 0.06256172
0.68676085 0.06256172 0.06256172
0.70004085 0.06256172 0.06256172
0.71330539 0.06256172 0.06256172
0.06256172 0.06256172 0.06256172
0.06256172 0.06256172 0.06256172
0.06256172 0.06256172 0.06256172
0.06256172 0.06256172 0.06256172
0.06256172 0.06256172 0.06256172
0.06256172 0.06256172 0.06256172
0.06256172 0.06256172 0.06256172
0.06256172 0.06256172 0.06256172
0.06256172 0.06256172 0.06256172
0.06256172 0.06256172 0.06256172
0.06400662 0.06256172 0.06256172
0.07097218 0.06256172 0.06256172
0.07888659 0.06256172 0.06256172
0.08675666 0.06256172 0.06256172
0.09460301 0.06256172 0.06256172
0.10329242 0.06256172 0.06256172
0.11290623 0.06256172 0.06256172
0.12345425 0.06256172 0.06256172
0.13494736 0.06256172 0.06256172
0.14735191 0.06256172 0.06256172
0.15942704 0.06256172 0.06256172
0.17137265 0.06256172 0.06256172
0.18322376 0.06256172 0.06256172
0.19501015 0.06256172 0.06256172
0.20675690 0.06256172 0.06256172
0.21848507 0.06256172 0.06256172
0.23021236 0.06256172 0.06256172
0.24195355 0.06256172 0.06256172
0.25372099 0.06256172 0.06256172
0.26552495 0.06256172 0.06256172
0.27737391 0.06256172 0.06256172
0.28927480 0.06256172 0.06256172
0.30123322 0.06256172 0.06256172
0.31325361 0.06256172 0.06256172
0.32533937 0.06256172 0.06256172
0.33749301 0.06256172 0.06256172
0.34971623 0.06256172 0.06256172
0.36201002 0.06256172 0.06256172
0.37437473 0.06256172 0.06256172
0.38681017 0.06256172 0.06256172
0.39931560 0.06256172 0.06256172
0.41188986 0.06256172 0.06256172
0.42453136 0.06256172 0.06256172
0.43723814 0.06256172 0.06256172
0.45000792 0.06256172 0.06256172
0.46283812 0.06256172 0.06256172
0.47572588 0.06256172 0.06256172
0.48866812 0.06256172 0.06256172
0.50166153 0.06256172 0.06256172
0.51470261 0.06256172 0.06256172
0.52778772 0.06256172 0.06256172
0.54091303 0.06256172 0.06256172
0.55407463 0.06256172 0.06256172
0.56726845 0.06256172 0.06256172
0.58049037 0.06256172 0.06256172
0.59373616 0.06256172 0.06256172
0.60700155 0.06256172 0.06256172
0.62028219 0.06256172 0.06256172
0.63357374 0.06256172 0.06256172
0.64687178 0.06256172 0.06256172
0.66017192 0.06256172 0.06256172
0.67346974 0.06256172 0.06256172
0.68676085 0.06256172 0.06256172
0.70004085 0.06256172 0.06256172
0.71330539 0.06256172 0.06256172
0.06256172 0.06400662 0.06256172
0.06256172 0.06400662 0.06256172
0.06256172 0.06400662 0.06256172
0.06256172 0.06400662 0.06256172
0.06256172 0.06400662 0.06256172
0.06256172 0.06400662 0.06256172
0.06256172 0.06400662 0.06256172
0.06256172 0.06400662 0.06256172
0.06256172 0.06400662 0.06256172
0.06256172 0.06400662 0.06256172
0.06400662 0.06400662 0.06256172
0.07097218 0.06400662 0.06256172
0.07888659 0.06400662 0.06256172
0.08675666 0.06400662 0.06256172
0.09460301 0.06400662 0.06256172
0.10329242 0.06400662 0.06256172
0.11290623 0.06400662 0.06256172
0.12345425 0.06400662 0.06256172
0.13494736 0.06400662 0.06256172
0.14735191 0.06400662 0.06256172
0.15942704 0.06400662 0.06256172
0.17137265 0.06400662 0.06256172
0.18322376 0.06400662 0.06256172
0.19501015 0.06400662 0.06256172
0.20675690 0.06400662 0.06256172
0.21848507 0.06400662 0.06256172
0.23021236 0.06400662 0.06256172
0.24195355 0.06400662 0.06256172
0.25372099 0.06400662 0.06256172
0.26552495 0.06400662 0.06256172
0.27737391 0.06400662 0.06256172
0.28927480 0.06400662 0.06256172
0.30123322 0.06400662 0.06256172
0.31325361 0.06400662 0.06256172
0.32533937 0.06400662 0.06256172
0.33749301 0.06400662 0.06256172
0.34971623 0.06400662 0.06256172
0.36201002 0.06400662 0.06256172
0.37437473 0.06400662 0.06256172
0.38681017 0.06400662 0.06256172
0.39931560 0.06400662 0.06256172
0.41188986 0.06400662 0.06256172
0.42453136 0.06400662 0.06256172
0.43723814 0.06400662 0.06256172
0.45000792 0.06400662 0.06256172
0.46283812 0.06400662 0.06256172
0.47572588 0.06400662 0.06256172
0.48866812 0.06400662 0.06256172
0.50166153 0.06400662 0.06256172
0.51470261 0.06400662 0.06256172
0.52778772 0.06400662 0.06256172
0.54091303 0.06400662 0.06256172
0.55407463 0.06400662 0.06256172
0.56726845 0.06400662 0.06256172
0.58049037 0.06400662 0.06256172
0.59373616 0.06400662 0.06256172
0.60700155 0.06400662 0.06256172
0.62028219 0.06400662 0.06256172
0.63357374 0.06400662 0.06256172
0.64687178 0.06400662 0.06256172
0.66017192 0.06400662 0.06256172
0.67346974 0.06400662 0.06256172
0.68676085 0.06400662 0.06256172
0.70004085 0.06400662 0.06256172
0.71330539 0.06400662 0.06256172
0.06256172 0.07097218 0.06256172
0.06256172 0.07097218 0.06256172
0.06256172 0.07097218 0.06256172
0.06256172 0.07097218 0.06256172
0.06256172 0.07097218 0.06256172
0.06256172 0.07097218 0.06256172
0.06256172 0.07097218 0.06256172
0.06256172 0.07097218 0.06256172
0.06256172 0.07097218 0.06256172
