Processors/avs_plugins/LUTs/ALog_to_Linear_BT709.cube
TITLE "ALog_to_BT709"
LUT_3D_SIZE 65
# Apple Log BT2020 to BT709 SDR by Francesco Bucciantini
0.00000000 0.00000000 0.00000000
0.00000000 0.00000000 0.00000000
0.00379965 0.00000000 0.00000000
0.04487473 0.00000000 0.00000000
0.07950262 0.00000000 0.00000000
0.11001041 0.00000000 0.00000000
0.13768918 0.00000000 0.00000000
0.16007827 0.00000000 0.00000000
0.17825264 0.00000000 0.00000000
0.19365579 0.00000000 0.00000000
0.20708010 0.00000000 0.00000000
0.21901261 0.00000000 0.00000000
0.22977613 0.00000000 0.00000000
0.23959659 0.00000000 0.00000000
0.24895474 0.00000000 0.00000000
0.25902475 0.00000000 0.00000000
0.26994525 0.00000000 0.00000000
0.28176498 0.00000000 0.00000000
0.29453413 0.00000000 0.00000000
0.30830458 0.00000000 0.00000000
0.32313009 0.00000000 0.00000000
0.33906658 0.00000000 0.00000000
0.35617240 0.00000000 0.00000000
0.37450861 0.00000000 0.00000000
0.39413928 0.00000000 0.00000000
0.41513184 0.00000000 0.00000000
0.43755737 0.00000000 0.00000000
0.46149095 0.00000000 0.00000000
0.48701197 0.00000000 0.00000000
0.51420454 0.00000000 0.00000000
0.54315777 0.00000000 0.00000000
0.57396616 0.00000000 0.00000000
0.60672998 0.00000000 0.00000000
0.64155561 0.00000000 0.00000000
0.67855597 0.00000000 0.00000000
0.71785092 0.00000000 0.00000000
0.75956766 0.00000000 0.00000000
0.80384119 0.00000000 0.00000000
0.85081475 0.00000000 0.00000000
0.90064035 0.00000000 0.00000000
0.95347921 0.00000000 0.00000000
1.00950236 0.00000000 0.00000000
1.06889117 0.00000000 0.00000000
1.13183796 0.00000000 0.00000000
1.19854663 0.00000000 0.00000000
1.26923332 0.00000000 0.00000000
1.34412711 0.00000000 0.00000000
1.42347079 0.00000000 0.00000000
1.50752164 0.00000000 0.00000000
1.59655224 0.00000000 0.00000000
1.69085141 0.00000000 0.00000000
1.79072511 0.00000000 0.00000000
1.89649742 0.00000000 0.00000000
2.00851164 0.00000000 0.00000000
2.12713137 0.00000000 0.00000000
2.25274171 0.00000000 0.00000000
2.38575049 0.00000000 0.00000000
2.52658960 0.00000000 0.00000000
2.67571642 0.00000000 0.00000000
2.83361527 0.00000000 0.00000000
3.00079900 0.00000000 0.00000000
3.17781064 0.00000000 0.00000000
3.36522518 0.00000000 0.00000000
3.56365146 0.00000000 0.00000000
3.77373408 0.00000000 0.00000000
0.00000000 0.00000000 0.00000000
0.00000000 0.00000000 0.00000000
0.00000000 0.00000000 0.00000000
0.00000000 0.00000000 0.00000000
0.03376756 0.00000000 0.00000000
0.06427534 0.00000000 0.00000000
0.09185649 0.00000000 0.00000000
0.11721997 0.00000000 0.00000000
0.14075673 0.00000000 0.00000000
0.16011550 0.00000000 0.00000000
0.17635711 0.00000000 0.00000000
0.19042534 0.00000000 0.00000000
0.20287894 0.00000000 0.00000000
0.21407956 0.00000000 0.00000000
0.22463074 0.00000000 0.00000000
0.23586979 0.00000000 0.00000000
0.24794186 0.00000000 0.00000000
0.26089055 0.00000000 0.00000000
0.27476156 0.00000000 0.00000000
0.28960291 0.00000000 0.00000000
0.30546519 0.00000000 0.00000000
0.32240177 0.00000000 0.00000000
0.34046908 0.00000000 0.00000000
0.35972683 0.00000000 0.00000000
0.38023829 0.00000000 0.00000000
0.40207054 0.00000000 0.00000000
0.42529471 0.00000000 0.00000000
0.44998630 0.00000000 0.00000000
0.47622541 0.00000000 0.00000000
0.50409707 0.00000000 0.00000000
0.53369155 0.00000000 0.00000000
0.56510460 0.00000000 0.00000000
0.59843789 0.00000000 0.00000000
0.63379926 0.00000000 0.00000000
0.67130314 0.00000000 0.00000000
0.71107091 0.00000000 0.00000000
0.75323128 0.00000000 0.00000000
0.79792078 0.00000000 0.00000000
0.84528415 0.00000000 0.00000000
0.89547481 0.00000000 0.00000000
0.94865542 0.00000000 0.00000000
1.00499835 0.00000000 0.00000000
1.06468627 0.00000000 0.00000000
1.12791275 0.00000000 0.00000000
1.19488286 0.00000000 0.00000000
1.26581387 0.00000000 0.00000000
1.34093594 0.00000000 0.00000000
1.42049286 0.00000000 0.00000000
1.50474287 0.00000000 0.00000000
1.59395945 0.00000000 0.00000000
1.68843226 0.00000000 0.00000000
1.78846806 0.00000000 0.00000000
1.89439168 0.00000000 0.00000000
2.00654714 0.00000000 0.00000000
2.12529869 0.00000000 0.00000000
2.25103204 0.00000000 0.00000000
2.38415561 0.00000000 0.00000000
2.52510184 0.00000000 0.00000000
2.67432860 0.00000000 0.00000000
2.83232070 0.00000000 0.00000000
2.99959142 0.00000000 0.00000000
3.17668423 0.00000000 0.00000000
3.36417449 0.00000000 0.00000000
3.56267141 0.00000000 0.00000000
3.77281993 0.00000000 0.00000000
0.00000000 0.00000000 0.00000000
0.00000000 0.00000000 0.00000000
0.00000000 0.00000000 0.00000000
0.00000000 0.00000000 0.00000000
0.01482347 0.00000000 0.00000000
0.04533126 0.00000000 0.00000000
0.07291241 0.00000000 0.00000000
0.09827589 0.00000000 0.00000000
0.12188364 0.00000000 0.00000000
0.14374854 0.00000000 0.00000000
0.16176269 0.00000000 0.00000000
0.17709339 0.00000000 0.00000000
0.19050303 0.00000000 0.00000000
0.20245913 0.00000000 0.00000000
0.21364663 0.00000000 0.00000000
0.22549530 0.00000000 0.00000000
0.23815535 0.00000000 0.00000000
0.25166926 0.00000000 0.00000000
0.26608194 0.00000000 0.00000000
0.28144095 0.00000000 0.00000000
0.29779666 0.00000000 0.00000000
0.31520249 0.00000000 0.00000000
0.33371514 0.00000000 0.00000000
0.35339472 0.00000000 0.00000000
0.37430507 0.00000000 0.00000000
0.39651393 0.00000000 0.00000000
0.42009321 0.00000000 0.00000000
0.44511920 0.00000000 0.00000000
0.47167289 0.00000000 0.00000000
0.49984019 0.00000000 0.00000000
0.52971225 0.00000000 0.00000000
0.56138576 0.00000000 0.00000000
0.59496324 0.00000000 0.00000000
0.63055344 0.00000000 0.00000000
0.66827161 0.00000000 0.00000000
0.70823997 0.00000000 0.00000000
0.75058805 0.00000000 0.00000000
0.79545311 0.00000000 0.00000000
0.84298063 0.00000000 0.00000000
0.89332474 0.00000000 0.00000000
0.94664874 0.00000000 0.00000000
1.00312564 0.00000000 0.00000000
1.06293871 0.00000000 0.00000000
1.12628207 0.00000000 0.00000000
1.19336133 0.00000000 0.00000000
1.26439424 0.00000000 0.00000000
1.33961144 0.00000000 0.00000000
1.41925716 0.00000000 0.00000000
1.50359005 0.00000000 0.00000000
1.59288398 0.00000000 0.00000000
1.68742899 0.00000000 0.00000000
1.78753215 0.00000000 0.00000000
1.89351863 0.00000000 0.00000000
2.00573274 0.00000000 0.00000000
2.12453901 0.00000000 0.00000000
2.25032341 0.00000000 0.00000000
2.38349461 0.00000000 0.00000000
2.52448527 0.00000000 0.00000000
2.67375349 0.00000000 0.00000000
2.83178426 0.00000000 0.00000000
2.99909106 0.00000000 0.00000000
3.17621751 0.00000000 0.00000000
3.36373917 0.00000000 0.00000000
3.56226536 0.00000000 0.00000000
3.77244119 0.00000000 0.00000000
0.00000000 0.00000000 0.00000000
0.00000000 0.00000000 0.00000000
0.00000000 0.00000000 0.00000000
0.00000000 0.00000000 0.00000000
0.00028717 0.00000000 0.00000000
0.03079495 0.00000000 0.00000000
0.05837610 0.00000000 0.00000000
0.08373958 0.00000000 0.00000000
0.10734734 0.00000000 0.00000000
0.12952023 0.00000000 0.00000000
0.14952281 0.00000000 0.00000000
0.16607230 0.00000000 0.00000000
0.18037387 0.00000000 0.00000000
0.19301786 0.00000000 0.00000000
0.20477415 0.00000000 0.00000000
0.21715929 0.00000000 0.00000000
0.23032951 0.00000000 0.00000000
0.24432754 0.00000000 0.00000000
0.25919878 0.00000000 0.00000000
0.27499139 0.00000000 0.00000000
0.29175649 0.00000000 0.00000000
0.30954832 0.00000000 0.00000000
0.32842447 0.00000000 0.00000000
0.34844599 0.00000000 0.00000000
0.36967770 0.00000000 0.00000000
0.39218830 0.00000000 0.00000000
0.41605068 0.00000000 0.00000000
0.44134212 0.00000000 0.00000000
0.46814453 0.00000000 0.00000000
0.49654478 0.00000000 0.00000000
0.52663489 0.00000000 0.00000000
0.55851243 0.00000000 0.00000000
0.59228075 0.00000000 0.00000000
0.62804939 0.00000000 0.00000000
0.66593436 0.00000000 0.00000000
0.70605860 0.00000000 0.00000000
0.74855231 0.00000000 0.00000000
0.79355341 0.00000000 0.00000000
0.84120798 0.00000000 0.00000000
0.89167073 0.00000000 0.00000000
0.94510551 0.00000000 0.00000000
1.00168583 0.00000000 0.00000000
1.06159543 0.00000000 0.00000000
1.12502889 0.00000000 0.00000000
1.19219223 0.00000000 0.00000000
1.26330362 0.00000000 0.00000000
1.33859404 0.00000000 0.00000000
1.41830810 0.00000000 0.00000000
1.50270474 0.00000000 0.00000000
1.59205816 0.00000000 0.00000000
1.68665866 0.00000000 0.00000000
1.78681360 0.00000000 0.00000000
1.89284839 0.00000000 0.00000000
2.00510756 0.00000000 0.00000000
2.12395586 0.00000000 0.00000000
2.24977948 0.00000000 0.00000000
2.38298726 0.00000000 0.00000000
2.52401204 0.00000000 0.00000000
2.67331209 0.00000000 0.00000000
2.83137255 0.00000000 0.00000000
2.99870704 0.00000000 0.00000000
3.17585933 0.00000000 0.00000000
3.36340508 0.00000000 0.00000000
3.56195375 0.00000000 0.00000000
3.77215055 0.00000000 0.00000000
0.00000000 0.00000000 0.00000000
0.00000000 0.00000000 0.00000000
0.00000000 0.00000000 0.00000000
0.00000000 0.00000000 0.00000000
0.00000000 0.00000000 0.00000000
0.01854028 0.00000000 0.00000000
0.04612143 0.00000000 0.00000000
0.07148491 0.00000000 0.00000000
0.09509266 0.00000000 0.00000000
0.11726555 0.00000000 0.00000000
0.13830690 0.00000000 0.00000000
0.15612760 0.00000000 0.00000000
0.17132663 0.00000000 0.00000000
0.18464602 0.00000000 0.00000000
0.19695076 0.00000000 0.00000000
0.20984553 0.00000000 0.00000000
0.22349395 0.00000000 0.00000000
0.23794043 0.00000000 0.00000000
0.25323192 0.00000000 0.00000000
0.26941816 0.00000000 0.00000000
0.28655178 0.00000000 0.00000000
0.30468847 0.00000000 0.00000000
0.32388721 0.00000000 0.00000000
0.34421040 0.00000000 0.00000000
0.36572411 0.00000000 0.00000000
0.38849827 0.00000000 0.00000000
0.41260692 0.00000000 0.00000000
0.43812841 0.00000000 0.00000000
0.46514570 0.00000000 0.00000000
0.49374660 0.00000000 0.00000000
0.52402408 0.00000000 0.00000000
0.55607653 0.00000000 0.00000000
0.59000814 0.00000000 0.00000000
0.62592918 0.00000000 0.00000000
0.66395640 0.00000000 0.00000000
0.70421339 0.00000000 0.00000000
0.74683098 0.00000000 0.00000000
0.79194767 0.00000000 0.00000000
0.83971010 0.00000000 0.00000000
0.89027349 0.00000000 0.00000000
0.94380216 0.00000000 0.00000000
1.00047008 0.00000000 0.00000000
1.06046140 0.00000000 0.00000000
1.12397110 0.00000000 0.00000000
1.19120556 0.00000000 0.00000000
1.26238330 0.00000000 0.00000000
1.33773562 0.00000000 0.00000000
1.41750740 0.00000000 0.00000000
1.50195790 0.00000000 0.00000000
1.59136156 0.00000000 0.00000000
1.68600891 0.00000000 0.00000000
1.78620756 0.00000000 0.00000000
1.89228312 0.00000000 0.00000000
2.00458032 0.00000000 0.00000000
2.12346410 0.00000000 0.00000000
2.24932080 0.00000000 0.00000000
2.38255944 0.00000000 0.00000000
2.52361301 0.00000000 0.00000000
2.67293991 0.00000000 0.00000000
2.83102541 0.00000000 0.00000000
2.99838326 0.00000000 0.00000000
3.17555733 0.00000000 0.00000000
3.36312341 0.00000000 0.00000000
3.56169103 0.00000000 0.00000000
3.77190550 0.00000000 0.00000000
0.00000000 0.01819416 0.00000000
0.00000000 0.00850061 0.00000000
0.00000000 0.00448542 0.00000000
0.00000000 0.00140445 0.00000000
0.00000000 0.00000000 0.00000000
0.00774370 0.00000000 0.00000000
0.03532484 0.00000000 0.00000000
0.06068833 0.00000000 0.00000000
0.08429608 0.00000000 0.00000000
0.10646897 0.00000000 0.00000000
0.12744061 0.00000000 0.00000000
0.14676732 0.00000000 0.00000000
0.16290410 0.00000000 0.00000000
0.17691107 0.00000000 0.00000000
0.18976378 0.00000000 0.00000000
0.20316013 0.00000000 0.00000000
0.21727305 0.00000000 0.00000000
0.23215006 0.00000000 0.00000000
0.24784092 0.00000000 0.00000000
0.26439788 0.00000000 0.00000000
0.28187582 0.00000000 0.00000000
0.30033248 0.00000000 0.00000000
0.31982869 0.00000000 0.00000000
0.34042855 0.00000000 0.00000000
0.36219967 0.00000000 0.00000000
0.38521339 0.00000000 0.00000000
0.40954505 0.00000000 0.00000000
0.43527419 0.00000000 0.00000000
0.46248486 0.00000000 0.00000000
0.49126590 0.00000000 0.00000000
0.52171120 0.00000000 0.00000000
0.55392002 0.00000000 0.00000000
0.58799735 0.00000000 0.00000000
0.62405419 0.00000000 0.00000000
0.66220799 0.00000000 0.00000000
0.70258297 0.00000000 0.00000000
0.74531054 0.00000000 0.00000000
0.79052978 0.00000000 0.00000000
0.83838781 0.00000000 0.00000000
0.88904033 0.00000000 0.00000000
0.94265211 0.00000000 0.00000000
0.99939752 0.00000000 0.00000000
1.05946110 0.00000000 0.00000000
1.12303818 0.00000000 0.00000000
1.19033548 0.00000000 0.00000000
1.26157181 0.00000000 0.00000000
1.33697878 0.00000000 0.00000000
1.41680153 0.00000000 0.00000000
1.50129955 0.00000000 0.00000000
1.59074753 0.00000000 0.00000000
1.68543623 0.00000000 0.00000000
1.78567343 0.00000000 0.00000000
1.89178494 0.00000000 0.00000000
2.00411567 0.00000000 0.00000000
2.12303073 0.00000000 0.00000000
2.24891660 0.00000000 0.00000000
2.38218245 0.00000000 0.00000000
2.52326139 0.00000000 0.00000000
2.67261195 0.00000000 0.00000000
2.83071953 0.00000000 0.00000000
2.99809796 0.00000000 0.00000000
3.17529124 0.00000000 0.00000000
3.36287522 0.00000000 0.00000000
3.56145955 0.00000000 0.00000000
3.77168960 0.00000000 0.00000000
0.00000000 0.03701189 0.00000000
0.00000000 0.02731835 0.00000000
0.00000000 0.02330315 0.00000000
0.00000000 0.02022218 0.00000000
0.00000000 0.01762481 0.00000000
0.00000000 0.01533647 0.00000000
0.02556399 0.01326766 0.00000000
0.05092747 0.01136519 0.00000000
0.07453522 0.00959441 0.00000000
0.09670811 0.00793127 0.00000000
0.11767975 0.00635822 0.00000000
0.13772269 0.00486205 0.00000000
0.15486444 0.00343248 0.00000000
0.16958750 0.00206133 0.00000000
0.18299971 0.00069488 0.00000000
0.19690022 0.00000000 0.00000000
0.21147380 0.00000000 0.00000000
0.22677285 0.00000000 0.00000000
0.24285128 0.00000000 0.00000000
0.25976484 0.00000000 0.00000000
0.27757146 0.00000000 0.00000000
0.29633153 0.00000000 0.00000000
0.31610817 0.00000000 0.00000000
0.33696752 0.00000000 0.00000000
0.35897898 0.00000000 0.00000000
0.38221552 0.00000000 0.00000000
0.40675387 0.00000000 0.00000000
0.43267491 0.00000000 0.00000000
0.46006382 0.00000000 0.00000000
0.48901050 0.00000000 0.00000000
0.51960980 0.00000000 0.00000000
0.55196186 0.00000000 0.00000000
0.58617246 0.00000000 0.00000000
0.62235333 0.00000000 0.00000000
0.66062260 0.00000000 0.00000000
0.70110508 0.00000000 0.00000000
0.74393279 0.00000000 0.00000000
0.78924530 0.00000000 0.00000000
0.83719022 0.00000000 0.00000000
0.88792371 0.00000000 0.00000000
0.94161094 0.00000000 0.00000000
0.99842666 0.00000000 0.00000000
1.05855579 0.00000000 0.00000000
1.12219396 0.00000000 0.00000000
1.18954821 0.00000000 0.00000000
1.26083764 0.00000000 0.00000000
1.33629410 0.00000000 0.00000000
1.41616300 0.00000000 0.00000000
1.50070406 0.00000000 0.00000000
1.59019216 0.00000000 0.00000000
1.68491828 0.00000000 0.00000000
1.78519037 0.00000000 0.00000000
1.89133442 0.00000000 0.00000000
2.00369549 0.00000000 0.00000000
2.12263884 0.00000000 0.00000000
2.24855110 0.00000000 0.00000000
2.38184156 0.00000000 0.00000000
2.52294345 0.00000000 0.00000000
2.67231542 0.00000000 0.00000000
2.83044295 0.00000000 0.00000000
2.99784001 0.00000000 0.00000000
3.17505065 0.00000000 0.00000000
3.36265082 0.00000000 0.00000000
3.56125026 0.00000000 0.00000000
3.77149439 0.00000000 0.00000000
0.00000000 0.05431658 0.00000000
0.00000000 0.04462304 0.00000000
0.00000000 0.04060784 0.00000000
0.00000000 0.03752688 0.00000000
0.00000000 0.03492950 0.00000000
0.00000000 0.03264117 0.00000000
0.01658795 0.03057235 0.00000000
0.04195143 0.02866988 0.00000000
0.06555919 0.02689911 0.00000000
0.08773207 0.02523596 0.00000000
0.10870371 0.02366291 0.00000000
0.12865046 0.02216674 0.00000000
0.14705566 0.02073717 0.00000000
0.16253726 0.01936602 0.00000000
0.17652954 0.01799957 0.00000000
0.19094419 0.01646340 0.00000000
0.20598106 0.01471980 0.00000000
0.22169957 0.01274074 0.00000000
0.23815929 0.01049444 0.00000000
0.25542064 0.00794481 0.00000000
0.27354542 0.00505089 0.00000000
0.29259727 0.00176618 0.00000000
0.31264210 0.00000000 0.00000000
0.33374839 0.00000000 0.00000000
0.35598762 0.00000000 0.00000000
0.37943451 0.00000000 0.00000000
0.40416739 0.00000000 0.00000000
0.43026849 0.00000000 0.00000000
0.45782426 0.00000000 0.00000000
0.48692566 0.00000000 0.00000000
0.51766854 0.00000000 0.00000000
0.55015392 0.00000000 0.00000000
0.58448837 0.00000000 0.00000000
0.62078438 0.00000000 0.00000000
0.65916069 0.00000000 0.00000000
0.69974277 0.00000000 0.00000000
0.74266314 0.00000000 0.00000000
0.78806190 0.00000000 0.00000000
0.83608712 0.00000000 0.00000000
0.88689539 0.00000000 0.00000000
0.94065226 0.00000000 0.00000000
0.99753287 0.00000000 0.00000000
1.05772245 0.00000000 0.00000000
1.12141694 0.00000000 0.00000000
1.18882369 0.00000000 0.00000000
1.26016204 0.00000000 0.00000000
1.33566410 0.00000000 0.00000000
1.41557551 0.00000000 0.00000000
1.50015620 0.00000000 0.00000000
1.58968124 0.00000000 0.00000000
1.68444180 0.00000000 0.00000000
1.78474601 0.00000000 0.00000000
1.89092000 0.00000000 0.00000000
2.00330900 0.00000000 0.00000000
2.12227838 0.00000000 0.00000000
2.24821493 0.00000000 0.00000000
2.38152802 0.00000000 0.00000000
2.52265103 0.00000000 0.00000000
2.67204269 0.00000000 0.00000000
2.83018859 0.00000000 0.00000000
2.99760277 0.00000000 0.00000000
3.17482938 0.00000000 0.00000000
3.36244445 0.00000000 0.00000000
3.56105778 0.00000000 0.00000000
3.77131487 0.00000000 0.00000000
0.00000000 0.07042340 0.00000000
0.00000000 0.06072986 0.00000000
0.00000000 0.05671466 0.00000000
0.00000000 0.05363369 0.00000000
0.00000000 0.05103632 0.00000000
0.00000000 0.04874798 0.00000000
0.00823326 0.04667917 0.00000000
0.03359674 0.04477670 0.00000000
0.05720450 0.04300592 0.00000000
0.07937738 0.04134277 0.00000000
0.10034902 0.03976973 0.00000000
0.12029577 0.03827356 0.00000000
0.13936924 0.03684399 0.00000000
0.15566585 0.03547284 0.00000000
0.17026682 0.03410639 0.00000000
0.18521157 0.03257022 0.00000000
0.20071919 0.03082661 0.00000000
0.21685873 0.02884756 0.00000000
0.23369725 0.02660126 0.00000000
0.25130113 0.02405163 0.00000000
0.26973692 0.02115770 0.00000000
0.28907220 0.01787299 0.00000000
0.30937608 0.01414473 0.00000000
0.33071980 0.00991301 0.00000000
0.35317710 0.00510987 0.00000000
0.37682469 0.00000000 0.00000000
0.40174260 0.00000000 0.00000000
0.42801452 0.00000000 0.00000000
0.45572819 0.00000000 0.00000000
0.48497572 0.00000000 0.00000000
0.51585396 0.00000000 0.00000000
0.54846483 0.00000000 0.00000000
0.58291571 0.00000000 0.00000000
0.61931981 0.00000000 0.00000000
0.65779653 0.00000000 0.00000000
0.69847192 0.00000000 0.00000000
0.74147906 0.00000000 0.00000000
0.78695852 0.00000000 0.00000000
0.83505883 0.00000000 0.00000000
0.88593697 0.00000000 0.00000000
0.93975890 0.00000000 0.00000000
0.99670009 0.00000000 0.00000000
1.05694608 0.00000000 0.00000000
1.12069314 0.00000000 0.00000000
1.18814884 0.00000000 0.00000000
1.25953281 0.00000000 0.00000000
1.33507740 0.00000000 0.00000000
1.41502843 0.00000000 0.00000000
1.49964604 0.00000000 0.00000000
1.58920552 0.00000000 0.00000000
1.68399816 0.00000000 0.00000000
1.78433229 0.00000000 0.00000000
1.89053418 0.00000000 0.00000000
2.00294918 0.00000000 0.00000000
2.12194281 0.00000000 0.00000000
2.24790197 0.00000000 0.00000000
2.38123615 0.00000000 0.00000000
2.52237882 0.00000000 0.00000000
2.67178881 0.00000000 0.00000000
2.82995181 0.00000000 0.00000000
2.99738193 0.00000000 0.00000000
3.17462342 0.00000000 0.00000000
3.36225236 0.00000000 0.00000000
3.56087861 0.00000000 0.00000000
3.77114777 0.00000000 0.00000000
0.00000000 0.08555125 0.00000000
0.00000000 0.07585771 0.00000000
0.00000000 0.07184251 0.00000000
0.00000000 0.06876154 0.00000000
0.00000000 0.06616417 0.00000000
0.00000000 0.06387583 0.00000000
0.00038636 0.06180702 0.00000000
0.02574985 0.05990455 0.00000000
0.04935760 0.05813377 0.00000000
0.07153049 0.05647063 0.00000000
0.09250213 0.05489758 0.00000000
0.11244888 0.05340141 0.00000000
0.13150776 0.05197184 0.00000000
0.14890259 0.05060069 0.00000000
0.16414897 0.04923424 0.00000000
0.17964515 0.04769807 0.00000000
0.19563498 0.04595446 0.00000000
0.21220038 0.04397541 0.00000000
0.22941804 0.04172911 0.00000000
0.24736171 0.03917948 0.00000000
0.26610376 0.03628555 0.00000000
0.28571635 0.03300084 0.00000000
0.30627236 0.02927258 0.00000000
0.32784606 0.02504087 0.00000000
0.35051378 0.02023772 0.00000000
0.37435436 0.01478597 0.00000000
0.39944964 0.00859804 0.00000000
0.42588491 0.00157451 0.00000000
0.45374923 0.00000000 0.00000000
0.48313591 0.00000000 0.00000000
0.51414283 0.00000000 0.00000000
0.54687282 0.00000000 0.00000000
0.58143408 0.00000000 0.00000000
0.61794053 0.00000000 0.00000000
0.65651223 0.00000000 0.00000000
0.69727582 0.00000000 0.00000000
0.74036490 0.00000000 0.00000000
0.78592052 0.00000000 0.00000000
0.83409165 0.00000000 0.00000000
0.88503568 0.00000000 0.00000000
0.93891892 0.00000000 0.00000000
0.99591717 0.00000000 0.00000000
1.05621629 0.00000000 0.00000000
1.12001281 0.00000000 0.00000000
1.18751460 0.00000000 0.00000000
1.25894149 0.00000000 0.00000000
1.33452606 0.00000000 0.00000000
1.41451436 0.00000000 0.00000000
1.49916670 0.00000000 0.00000000
1.58875854 0.00000000 0.00000000
1.68358136 0.00000000 0.00000000
1.78394361 0.00000000 0.00000000
1.89017171 0.00000000 0.00000000
2.00261116 0.00000000 0.00000000
2.12162758 0.00000000 0.00000000
2.24760798 0.00000000 0.00000000
2.38096197 0.00000000 0.00000000
2.52212312 0.00000000 0.00000000
2.67155034 0.00000000 0.00000000
2.82972940 0.00000000 0.00000000
2.99717450 0.00000000 0.00000000
3.17442995 0.00000000 0.00000000
3.36207192 0.00000000 0.00000000
3.56071033 0.00000000 0.00000000
3.77099081 0.00000000 0.00000000
0.00000000 0.09985953 0.00000000
0.00000000 0.09016599 0.00000000
0.00000000 0.08615079 0.00000000
0.00000000 0.08306982 0.00000000
0.00000000 0.08047244 0.00000000
0.00000000 0.07818411 0.00000000
0.00000000 0.07611530 0.00000000
0.01832807 0.07421283 0.00000000
0.04193582 0.07244205 0.00000000
0.06410871 0.07077890 0.00000000
0.08508035 0.06920586 0.00000000
0.10502710 0.06770969 0.00000000
0.12408598 0.06628011 0.00000000
0.14219035 0.06490897 0.00000000
0.15812759 0.06354252 0.00000000
0.17420187 0.06200635 0.00000000
0.19068901 0.06026274 0.00000000
0.20768780 0.05828369 0.00000000
0.22528715 0.05603739 0.00000000
0.24356985 0.05348775 0.00000000
0.26261517 0.05059383 0.00000000
0.28250065 0.04730912 0.00000000
0.30330343 0.04358086 0.00000000
0.32510123 0.03934914 0.00000000
0.34797317 0.03454600 0.00000000
0.37200042 0.02909425 0.00000000
0.39726680 0.02290632 0.00000000
0.42385922 0.01588279 0.00000000
0.45186819 0.00791084 0.00000000
0.48138821 0.00000000 0.00000000
0.51251824 0.00000000 0.00000000
0.54536203 0.00000000 0.00000000
0.58002861 0.00000000 0.00000000
0.61663262 0.00000000 0.00000000
0.65529477 0.00000000 0.00000000
0.69614228 0.00000000 0.00000000
0.73930926 0.00000000 0.00000000
0.78493725 0.00000000 0.00000000
0.83317565 0.00000000 0.00000000
0.88418221 0.00000000 0.00000000
0.93812361 0.00000000 0.00000000
0.99517598 0.00000000 0.00000000
1.05552547 0.00000000 0.00000000
1.11936889 0.00000000 0.00000000
1.18691433 0.00000000 0.00000000
1.25838189 0.00000000 0.00000000
1.33400435 0.00000000 0.00000000
1.41402794 0.00000000 0.00000000
1.49871316 0.00000000 0.00000000
1.58833565 0.00000000 0.00000000
1.68318702 0.00000000 0.00000000
1.78357589 0.00000000 0.00000000
1.88982881 0.00000000 0.00000000
2.00229139 0.00000000 0.00000000
2.12132938 0.00000000 0.00000000
2.24732988 0.00000000 0.00000000
2.38070262 0.00000000 0.00000000
2.52188124 0.00000000 0.00000000
2.67132476 0.00000000 0.00000000
2.82951902 0.00000000 0.00000000
2.99697829 0.00000000 0.00000000
3.17424696 0.00000000 0.00000000
3.36190125 0.00000000 0.00000000
3.56055115 0.00000000 0.00000000
3.77084235 0.00000000 0.00000000
0.00000000 0.11346856 0.00000000
0.00000000 0.10377502 0.00000000
0.00000000 0.09975982 0.00000000
0.00000000 0.09667885 0.00000000
0.00000000 0.09408148 0.00000000
0.00000000 0.09179314 0.00000000
0.00000000 0.08972433 0.00000000
0.01126899 0.08782186 0.00000000
0.03487675 0.08605108 0.00000000
