Processors/avs_plugins/LUTs/ALog_to_BT2020_HLG.cube
TITLE "ALog_to_HLG"
LUT_3D_SIZE 5
# Apple Log BT2020 to HLG BT2020 by Francesco Bucciantini
0.06256109 0.06256109 0.06256109
0.16381823 0.06256109 0.06256109
0.40064981 0.06256109 0.06256109
0.77723788 0.06256109 0.06256109
1.09634283 0.06256109 0.06256109
0.06256109 0.16381823 0.06256109
0.16381823 0.16381823 0.06256109
0.40064981 0.16381823 0.06256109
0.77723788 0.16381823 0.06256109
1.09634283 0.16381823 0.06256109
0.06256109 0.40064981 0.06256109
0.16381823 0.40064981 0.06256109
0.40064981 0.40064981 0.06256109
0.77723788 0.40064981 0.06256109
1.09634283 0.40064981 0.06256109
0.06256109 0.77723788 0.06256109
0.16381823 0.77723788 0.06256109
0.40064981 0.77723788 0.06256109
0.77723788 0.77723788 0.06256109
1.09634283 0.77723788 0.06256109
0.06256109 1.09634283 0.06256109
0.16381823 1.09634283 0.06256109
0.40064981 1.09634283 0.06256109
0.77723788 1.09634283 0.06256109
1.09634283 1.09634283 0.06256109
0.06256109 0.06256109 0.16381823
0.16381823 0.06256109 0.16381823
0.40064981 0.06256109 0.16381823
0.77723788 0.06256109 0.16381823
1.09634283 0.06256109 0.16381823
0.06256109 0.16381823 0.16381823
0.16381823 0.16381823 0.16381823
0.40064981 0.16381823 0.16381823
0.77723788 0.16381823 0.16381823
1.09634283 0.16381823 0.16381823
0.06256109 0.40064981 0.16381823
0.16381823 0.40064981 0.16381823
0.40064981 0.40064981 0.16381823
0.77723788 0.40064981 0.16381823
1.09634283 0.40064981 0.16381823
0.06256109 0.77723788 0.16381823
0.16381823 0.77723788 0.16381823
0.40064981 0.77723788 0.16381823
0.77723788 0.77723788 0.16381823
1.09634283 0.77723788 0.16381823
0.06256109 1.09634283 0.16381823
0.16381823 1.09634283 0.16381823
0.40064981 1.09634283 0.16381823
0.77723788 1.09634283 0.16381823
1.09634283 1.09634283 0.16381823
0.06256109 0.06256109 0.40064981
0.16381823 0.06256109 0.40064981
0.40064981 0.06256109 0.40064981
0.77723788 0.06256109 0.40064981
1.09634283 0.06256109 0.40064981
0.06256109 0.16381823 0.40064981
0.16381823 0.16381823 0.40064981
0.40064981 0.16381823 0.40064981
0.77723788 0.16381823 0.40064981
1.09634283 0.16381823 0.40064981
0.06256109 0.40064981 0.40064981
0.16381823 0.40064981 0.40064981
0.40064981 0.40064981 0.40064981
0.77723788 0.40064981 0.40064981
1.09634283 0.40064981 0.40064981
0.06256109 0.77723788 0.40064981
0.16381823 0.77723788 0.40064981
0.40064981 0.77723788 0.40064981
0.77723788 0.77723788 0.40064981
1.09634283 0.77723788 0.40064981
0.06256109 1.09634283 0.40064981
0.16381823 1.09634283 0.40064981
0.40064981 1.09634283 0.40064981
0.77723788 1.09634283 0.40064981
1.09634283 1.09634283 0.40064981
0.06256109 0.06256109 0.77723788
0.16381823 0.06256109 0.77723788
0.40064981 0.06256109 0.77723788
0.77723788 0.06256109 0.77723788
1.09634283 0.06256109 0.77723788
0.06256109 0.16381823 0.77723788
0.16381823 0.16381823 0.77723788
0.40064981 0.16381823 0.77723788
0.77723788 0.16381823 0.77723788
1.09634283 0.16381823 0.77723788
0.06256109 0.40064981 0.77723788
0.16381823 0.40064981 0.77723788
0.40064981 0.40064981 0.77723788
0.77723788 0.40064981 0.77723788
1.09634283 0.40064981 0.77723788
0.06256109 0.77723788 0.77723788
0.16381823 0.77723788 0.77723788
0.40064981 0.77723788 0.77723788
0.77723788 0.77723788 0.77723788
1.09634283 0.77723788 0.77723788
0.06256109 1.09634283 0.77723788
0.16381823 1.09634283 0.77723788
0.40064981 1.09634283 0.77723788
0.77723788 1.09634283 0.77723788
1.09634283 1.09634283 0.77723788
0.06256109 0.06256109 1.09634283
0.16381823 0.06256109 1.09634283
0.40064981 0.06256109 1.09634283
0.77723788 0.06256109 1.09634283
1.09634283 0.06256109 1.09634283
0.06256109 0.16381823 1.09634283
0.16381823 0.16381823 1.09634283
0.40064981 0.16381823 1.09634283
0.77723788 0.16381823 1.09634283
1.09634283 0.16381823 1.09634283
0.06256109 0.40064981 1.09634283
0.16381823 0.40064981 1.09634283
0.40064981 0.40064981 1.09634283
0.77723788 0.40064981 1.09634283
1.09634283 0.40064981 1.09634283
0.06256109 0.77723788 1.09634283
0.16381823 0.77723788 1.09634283
0.40064981 0.77723788 1.09634283
0.77723788 0.77723788 1.09634283
1.09634283 0.77723788 1.09634283
0.06256109 1.09634283 1.09634283
0.16381823 1.09634283 1.09634283
0.40064981 1.09634283 1.09634283
0.77723788 1.09634283 1.09634283
1.09634283 1.09634283 1.09634283
