Processors/avs_plugins/LUTs/ALog_to_BT2020_HLG.cube
TITLE "ALog_to_HLG"
LUT_3D_SIZE 9
# Apple Log BT2020 to HLG BT2020 by Francesco Bucciantini
0.06256109 0.06256109 0.06256109
0.06256109 0.06256109 0.06256109
0.16381823 0.06256109 0.06256109
0.25740730 0.06256109 0.06256109
0.40064981 0.06256109 0.06256109
0.60267451 0.06256109 0.06256109
0.77723788 0.06256109 0.06256109
0.93888477 0.06256109 0.06256109
1.09634283 0.06256109 0.06256109
0.06256109 0.06256109 0.06256109
0.06256109 0.06256109 0.06256109
0.16381823 0.06256109 0.06256109
0.25740730 0.06256109 0.06256109
0.40064981 0.06256109 0.06256109
0.60267451 0.06256109 0.06256109
0.77723788 0.06256109 0.06256109
0.93888477 0.06256109 0.06256109
1.09634283 0.06256109 0.06256109
0.06256109 0.16381823 0.06256109
0.06256109 0.16381823 0.06256109
0.16381823 0.16381823 0.06256109
0.25740730 0.16381823 0.06256109
0.40064981 0.16381823 0.06256109
0.60267451 0.16381823 0.06256109
0.77723788 0.16381823 0.06256109
0.93888477 0.16381823 0.06256109
1.09634283 0.16381823 0.06256109
0.06256109 0.25740730 0.06256109
0.06256109 0.25740730 0.06256109
0.16381823 0.25740730 0.06256109
0.25740730 0.25740730 0.06256109
0.40064981 0.25740730 0.06256109
0.60267451 0.25740730 0.06256109
0.77723788 0.25740730 0.06256109
0.93888477 0.25740730 0.06256109
1.09634283 0.25740730 0.06256109
0.06256109 0.40064981 0.06256109
0.06256109 0.40064981 0.06256109
0.16381823 0.40064981 0.06256109
0.25740730 0.40064981 0.06256109
0.40064981 0.40064981 0.06256109
0.60267451 0.40064981 0.06256109
0.77723788 0.40064981 0.06256109
0.93888477 0.40064981 0.06256109
1.09634283 0.40064981 0.06256109
0.06256109 0.60267451 0.06256109
0.06256109 0.60267451 0.06256109
0.16381823 0.60267451 0.06256109
0.25740730 0.60267451 0.06256109
0.40064981 0.60267451 0.06256109
0.60267451 0.60267451 0.06256109
0.77723788 0.60267451 0.06256109
0.93888477 0.60267451 0.06256109
1.09634283 0.60267451 0.06256109
0.06256109 0.77723788 0.06256109
0.06256109 0.77723788 0.06256109
0.16381823 0.77723788 0.06256109
0.25740730 0.77723788 0.06256109
0.40064981 0.77723788 0.06256109
0.60267451 0.77723788 0.06256109
0.77723788 0.77723788 0.06256109
0.93888477 0.77723788 0.06256109
1.09634283 0.77723788 0.06256109
0.06256109 0.93888477 0.06256109
0.06256109 0.93888477 0.06256109
0.16381823 0.93888477 0.06256109
0.25740730 0.93888477 0.06256109
0.40064981 0.93888477 0.06256109
0.60267451 0.93888477 0.06256109
0.77723788 0.93888477 0.06256109
0.93888477 0.93888477 0.06256109
1.09634283 0.93888477 0.06256109
0.06256109 1.09634283 0.06256109
0.06256109 1.09634283 0.06256109
0.16381823 1.09634283 0.06256109
0.25740730 1.09634283 0.06256109
0.40064981 1.09634283 0.06256109
0.60267451 1.09634283 0.06256109
0.77723788 1.09634283 0.06256109
0.93888477 1.09634283 0.06256109
1.09634283 1.09634283 0.06256109
0.06256109 0.06256109 0.06256109
0.06256109 0.06256109 0.06256109
0.16381823 0.06256109 0.06256109
0.25740730 0.06256109 0.06256109
0.40064981 0.06256109 0.06256109
0.60267451 0.06256109 0.06256109
0.77723788 0.06256109 0.06256109
0.93888477 0.06256109 0.06256109
1.09634283 0.06256109 0.06256109
0.06256109 0.06256109 0.06256109
0.06256109 0.06256109 0.06256109
0.16381823 0.06256109 0.06256109
0.25740730 0.06256109 0.06256109
0.40064981 0.06256109 0.06256109
0.60267451 0.06256109 0.06256109
0.77723788 0.06256109 0.06256109
0.93888477 0.06256109 0.06256109
1.09634283 0.06256109 0.06256109
0.06256109 0.16381823 0.06256109
0.06256109 0.16381823 0.06256109
0.16381823 0.16381823 0.06256109
0.25740730 0.16381823 0.06256109
0.40064981 0.16381823 0.06256109
0.60267451 0.16381823 0.06256109
0.77723788 0.16381823 0.06256109
0.93888477 0.16381823 0.06256109
1.09634283 0.16381823 0.06256109
0.06256109 0.25740730 0.06256109
0.06256109 0.25740730 0.06256109
0.16381823 0.25740730 0.06256109
0.25740730 0.25740730 0.06256109
0.40064981 0.25740730 0.06256109
0.60267451 0.25740730 0.06256109
0.77723788 0.25740730 0.06256109
0.93888477 0.25740730 0.06256109
1.09634283 0.25740730 0.06256109
0.06256109 0.40064981 0.06256109
0.06256109 0.40064981 0.06256109
0.16381823 0.40064981 0.06256109
0.25740730 0.40064981 0.06256109
0.40064981 0.40064981 0.06256109
0.60267451 0.40064981 0.06256109
0.77723788 0.40064981 0.06256109
0.93888477 0.40064981 0.06256109
1.09634283 0.40064981 0.06256109
0.06256109 0.60267451 0.06256109
0.06256109 0.60267451 0.06256109
0.16381823 0.60267451 0.06256109
0.25740730 0.60267451 0.06256109
0.40064981 0.60267451 0.06256109
0.60267451 0.60267451 0.06256109
0.77723788 0.60267451 0.06256109
0.93888477 0.60267451 0.06256109
1.09634283 0.60267451 0.06256109
0.06256109 0.77723788 0.06256109
0.06256109 0.77723788 0.06256109
0.16381823 0.77723788 0.06256109
0.25740730 0.77723788 0.06256109
0.40064981 0.77723788 0.06256109
0.60267451 0.77723788 0.06256109
0.77723788 0.77723788 0.06256109
0.93888477 0.77723788 0.06256109
1.09634283 0.77723788 0.06256109
0.06256109 0.93888477 0.06256109
0.06256109 0.93888477 0.06256109
0.16381823 0.93888477 0.06256109
0.25740730 0.93888477 0.06256109
0.40064981 0.93888477 0.06256109
0.60267451 0.93888477 0.06256109
0.77723788 0.93888477 0.06256109
0.93888477 0.93888477 0.06256109
1.09634283 0.93888477 0.06256109
0.06256109 1.09634283 0.06256109
0.06256109 1.09634283 0.06256109
0.16381823 1.09634283 0.06256109
0.25740730 1.09634283 0.06256109
0.40064981 1.09634283 0.06256109
0.60267451 1.09634283 0.06256109
0.77723788 1.09634283 0.06256109
0.93888477 1.09634283 0.06256109
1.09634283 1.09634283 0.06256109
0.06256109 0.06256109 0.16381823
0.06256109 0.06256109 0.16381823
0.16381823 0.06256109 0.16381823
0.25740730 0.06256109 0.16381823
0.40064981 0.06256109 0.16381823
0.60267451 0.06256109 0.16381823
0.77723788 0.06256109 0.16381823
0.93888477 0.06256109 0.16381823
1.09634283 0.06256109 0.16381823
0.06256109 0.06256109 0.16381823
0.06256109 0.06256109 0.16381823
0.16381823 0.06256109 0.16381823
0.25740730 0.06256109 0.16381823
0.40064981 0.06256109 0.16381823
0.60267451 0.06256109 0.16381823
0.77723788 0.06256109 0.16381823
0.93888477 0.06256109 0.16381823
1.09634283 0.06256109 0.16381823
0.06256109 0.16381823 0.16381823
0.06256109 0.16381823 0.16381823
0.16381823 0.16381823 0.16381823
0.25740730 0.16381823 0.16381823
0.40064981 0.16381823 0.16381823
0.60267451 0.16381823 0.16381823
0.77723788 0.16381823 0.16381823
0.93888477 0.16381823 0.16381823
1.09634283 0.16381823 0.16381823
0.06256109 0.25740730 0.16381823
0.06256109 0.25740730 0.16381823
0.16381823 0.25740730 0.16381823
0.25740730 0.25740730 0.16381823
0.40064981 0.25740730 0.16381823
0.60267451 0.25740730 0.16381823
0.77723788 0.25740730 0.16381823
0.93888477 0.25740730 0.16381823
1.09634283 0.25740730 0.16381823
0.06256109 0.40064981 0.16381823
0.06256109 0.40064981 0.16381823
0.16381823 0.40064981 0.16381823
0.25740730 0.40064981 0.16381823
0.40064981 0.40064981 0.16381823
0.60267451 0.40064981 0.16381823
0.77723788 0.40064981 0.16381823
0.93888477 0.40064981 0.16381823
1.09634283 0.40064981 0.16381823
0.06256109 0.60267451 0.16381823
0.06256109 0.60267451 0.16381823
0.16381823 0.60267451 0.16381823
0.25740730 0.60267451 0.16381823
0.40064981 0.60267451 0.16381823
0.60267451 0.60267451 0.16381823
0.77723788 0.60267451 0.16381823
0.93888477 0.60267451 0.16381823
1.09634283 0.60267451 0.16381823
0.06256109 0.77723788 0.16381823
0.06256109 0.77723788 0.16381823
0.16381823 0.77723788 0.16381823
0.25740730 0.77723788 0.16381823
0.40064981 0.77723788 0.16381823
0.60267451 0.77723788 0.16381823
0.77723788 0.77723788 0.16381823
0.93888477 0.77723788 0.16381823
1.09634283 0.77723788 0.16381823
0.06256109 0.93888477 0.16381823
0.06256109 0.93888477 0.16381823
0.16381823 0.93888477 0.16381823
0.25740730 0.93888477 0.16381823
0.40064981 0.93888477 0.16381823
0.60267451 0.93888477 0.16381823
0.77723788 0.93888477 0.16381823
0.93888477 0.93888477 0.16381823
1.09634283 0.93888477 0.16381823
0.06256109 1.09634283 0.16381823
0.06256109 1.09634283 0.16381823
0.16381823 1.09634283 0.16381823
0.25740730 1.09634283 0.16381823
0.40064981 1.09634283 0.16381823
0.60267451 1.09634283 0.16381823
0.77723788 1.09634283 0.16381823
0.93888477 1.09634283 0.16381823
1.09634283 1.09634283 0.16381823
0.06256109 0.06256109 0.25740730
0.06256109 0.06256109 0.25740730
0.16381823 0.06256109 0.25740730
0.25740730 0.06256109 0.25740730
0.40064981 0.06256109 0.25740730
0.60267451 0.06256109 0.25740730
0.77723788 0.06256109 0.25740730
0.93888477 0.06256109 0.25740730
1.09634283 0.06256109 0.25740730
0.06256109 0.06256109 0.25740730
0.06256109 0.06256109 0.25740730
0.16381823 0.06256109 0.25740730
0.25740730 0.06256109 0.25740730
0.40064981 0.06256109 0.25740730
0.60267451 0.06256109 0.25740730
0.77723788 0.06256109 0.25740730
0.93888477 0.06256109 0.25740730
1.09634283 0.06256109 0.25740730
0.06256109 0.16381823 0.25740730
0.06256109 0.16381823 0.25740730
0.16381823 0.16381823 0.25740730
0.25740730 0.16381823 0.25740730
0.40064981 0.16381823 0.25740730
0.60267451 0.16381823 0.25740730
0.77723788 0.16381823 0.25740730
0.93888477 0.16381823 0.25740730
1.09634283 0.16381823 0.25740730
0.06256109 0.25740730 0.25740730
0.06256109 0.25740730 0.25740730
0.16381823 0.25740730 0.25740730
0.25740730 0.25740730 0.25740730
0.40064981 0.25740730 0.25740730
0.60267451 0.25740730 0.25740730
0.77723788 0.25740730 0.25740730
0.93888477 0.25740730 0.25740730
1.09634283 0.25740730 0.25740730
0.06256109 0.40064981 0.25740730
0.06256109 0.40064981 0.25740730
0.16381823 0.40064981 0.25740730
0.25740730 0.40064981 0.25740730
0.40064981 0.40064981 0.25740730
0.60267451 0.40064981 0.25740730
0.77723788 0.40064981 0.25740730
0.93888477 0.40064981 0.25740730
1.09634283 0.40064981 0.25740730
0.06256109 0.60267451 0.25740730
0.06256109 0.60267451 0.25740730
0.16381823 0.60267451 0.25740730
0.25740730 0.60267451 0.25740730
0.40064981 0.60267451 0.25740730
0.60267451 0.60267451 0.25740730
0.77723788 0.60267451 0.25740730
0.93888477 0.60267451 0.25740730
1.09634283 0.60267451 0.25740730
0.06256109 0.77723788 0.25740730
0.06256109 0.77723788 0.25740730
0.16381823 0.77723788 0.25740730
0.25740730 0.77723788 0.25740730
0.40064981 0.77723788 0.25740730
0.60267451 0.77723788 0.25740730
0.77723788 0.77723788 0.25740730
0.93888477 0.77723788 0.25740730
1.09634283 0.77723788 0.25740730
0.06256109 0.93888477 0.25740730
0.06256109 0.93888477 0.25740730
0.16381823 0.93888477 0.25740730
0.25740730 0.93888477 0.25740730
0.40064981 0.93888477 0.25740730
0.60267451 0.93888477 0.25740730
0.77723788 0.93888477 0.25740730
0.93888477 0.93888477 0.25740730
1.09634283 0.93888477 0.25740730
0.06256109 1.09634283 0.25740730
0.06256109 1.09634283 0.25740730
0.16381823 1.09634283 0.25740730
0.25740730 1.09634283 0.25740730
0.40064981 1.09634283 0.25740730
0.60267451 1.09634283 0.25740730
0.77723788 1.09634283 0.25740730
0.93888477 1.09634283 0.25740730
1.09634283 1.09634283 0.25740730
0.06256109 0.06256109 0.40064981
0.06256109 0.06256109 0.40064981
0.16381823 0.06256109 0.40064981
0.25740730 0.06256109 0.40064981
0.40064981 0.06256109 0.40064981
0.60267451 0.06256109 0.40064981
0.77723788 0.06256109 0.40064981
0.93888477 0.06256109 0.40064981
1.09634283 0.06256109 0.40064981
0.06256109 0.06256109 0.40064981
0.06256109 0.06256109 0.40064981
0.16381823 0.06256109 0.40064981
0.25740730 0.06256109 0.40064981
0.40064981 0.06256109 0.40064981
0.60267451 0.06256109 0.40064981
0.77723788 0.06256109 0.40064981
0.93888477 0.06256109 0.40064981
1.09634283 0.06256109 0.40064981
0.06256109 0.16381823 0.40064981
0.06256109 0.16381823 0.40064981
0.16381823 0.16381823 0.40064981
0.25740730 0.16381823 0.40064981
0.40064981 0.16381823 0.40064981
0.60267451 0.16381823 0.40064981
0.77723788 0.16381823 0.40064981
0.93888477 0.16381823 0.40064981
1.09634283 0.16381823 0.40064981
0.06256109 0.25740730 0.40064981
0.06256109 0.25740730 0.40064981
0.16381823 0.25740730 0.40064981
0.25740730 0.25740730 0.40064981
0.40064981 0.25740730 0.40064981
0.60267451 0.25740730 0.40064981
0.77723788 0.25740730 0.40064981
0.93888477 0.25740730 0.40064981
1.09634283 0.25740730 0.40064981
0.06256109 0.40064981 0.40064981
0.06256109 0.40064981 0.40064981
0.16381823 0.40064981 0.40064981
0.25740730 0.40064981 0.40064981
0.40064981 0.40064981 0.40064981
0.60267451 0.40064981 0.40064981
0.77723788 0.40064981 0.40064981
0.93888477 0.40064981 0.40064981
1.09634283 0.40064981 0.40064981
0.06256109 0.60267451 0.40064981
0.06256109 0.60267451 0.40064981
0.16381823 0.60267451 0.40064981
0.25740730 0.60267451 0.40064981
0.40064981 0.60267451 0.40064981
0.60267451 0.60267451 0.40064981
0.77723788 0.60267451 0.40064981
0.93888477 0.60267451 0.40064981
1.09634283 0.60267451 0.40064981
0.06256109 0.77723788 0.40064981
0.06256109 0.77723788 0.40064981
0.16381823 0.77723788 0.40064981
0.25740730 0.77723788 0.40064981
0.40064981 0.77723788 0.40064981
0.60267451 0.77723788 0.40064981
0.77723788 0.77723788 0.40064981
0.93888477 0.77723788 0.40064981
1.09634283 0.77723788 0.40064981
0.06256109 0.93888477 0.40064981
0.06256109 0.93888477 0.40064981
0.16381823 0.93888477 0.40064981
0.25740730 0.93888477 0.40064981
0.40064981 0.93888477 0.40064981
0.60267451 0.93888477 0.40064981
0.77723788 0.93888477 0.40064981
0.93888477 0.93888477 0.40064981
1.09634283 0.93888477 0.40064981
0.06256109 1.09634283 0.40064981
0.06256109 1.09634283 0.40064981
0.16381823 1.09634283 0.40064981
0.25740730 1.09634283 0.40064981
0.40064981 1.09634283 0.40064981
0.60267451 1.09634283 0.40064981
0.77723788 1.09634283 0.40064981
0.93888477 1.09634283 0.40064981
1.09634283 1.09634283 0.40064981
0.06256109 0.06256109 0.60267451
0.06256109 0.06256109 0.60267451
0.16381823 0.06256109 0.60267451
0.25740730 0.06256109 0.60267451
0.40064981 0.06256109 0.60267451
0.60267451 0.06256109 0.60267451
0.77723788 0.06256109 0.60267451
0.93888477 0.06256109 0.60267451
1.09634283 0.06256109 0.60267451
0.06256109 0.06256109 0.60267451
0.06256109 0.06256109 0.60267451
0.16381823 0.06256109 0.60267451
0.25740730 0.06256109 0.60267451
0.40064981 0.06256109 0.60267451
0.60267451 0.06256109 0.60267451
0.77723788 0.06256109 0.60267451
0.93888477 0.06256109 0.60267451
1.09634283 0.06256109 0.60267451
0.06256109 0.16381823 0.60267451
0.06256109 0.16381823 0.60267451
0.16381823 0.16381823 0.60267451
0.25740730 0.16381823 0.60267451
0.40064981 0.16381823 0.60267451
0.60267451 0.16381823 0.60267451
0.77723788 0.16381823 0.60267451
0.93888477 0.16381823 0.60267451
1.09634283 0.16381823 0.60267451
0.06256109 0.25740730 0.60267451
0.06256109 0.25740730 0.60267451
0.16381823 0.25740730 0.60267451
0.25740730 0.25740730 0.60267451
0.40064981 0.25740730 0.60267451
0.60267451 0.25740730 0.60267451
0.77723788 0.25740730 0.60267451
0.93888477 0.25740730 0.60267451
1.09634283 0.25740730 0.60267451
0.06256109 0.40064981 0.60267451
0.06256109 0.40064981 0.60267451
0.16381823 0.40064981 0.60267451
0.25740730 0.40064981 0.60267451
0.40064981 0.40064981 0.60267451
0.60267451 0.40064981 0.60267451
0.77723788 0.40064981 0.60267451
0.93888477 0.40064981 0.60267451
1.09634283 0.40064981 0.60267451
0.06256109 0.60267451 0.60267451
0.06256109 0.60267451 0.60267451
0.16381823 0.60267451 0.60267451
0.25740730 0.60267451 0.60267451
0.40064981 0.60267451 0.60267451
0.60267451 0.60267451 0.60267451
0.77723788 0.60267451 0.60267451
0.93888477 0.60267451 0.60267451
1.09634283 0.60267451 0.60267451
0.06256109 0.77723788 0.60267451
0.06256109 0.77723788 0.60267451
0.16381823 0.77723788 0.60267451
0.25740730 0.77723788 0.60267451
0.40064981 0.77723788 0.60267451
0.60267451 0.77723788 0.60267451
0.77723788 0.77723788 0.60267451
0.93888477 0.77723788 0.60267451
1.09634283 0.77723788 0.60267451
0.06256109 0.93888477 0.60267451
0.06256109 0.93888477 0.60267451
0.16381823 0.93888477 0.60267451
0.25740730 0.93888477 0.60267451
0.40064981 0.93888477 0.60267451
0.60267451 0.93888477 0.60267451
0.77723788 0.93888477 0.60267451
0.93888477 0.93888477 0.60267451
1.09634283 0.93888477 0.60267451
0.06256109 1.09634283 0.60267451
0.06256109 1.09634283 0.60267451
0.16381823 1.09634283 0.60267451
0.25740730 1.09634283 0.60267451
0.40064981 1.09634283 0.60267451
0.60267451 1.09634283 0.60267451
0.77723788 1.09634283 0.60267451
0.93888477 1.09634283 0.60267451
1.09634283 1.09634283 0.60267451
0.06256109 0.06256109 0.77723788
0.06256109 0.06256109 0.77723788
0.16381823 0.06256109 0.77723788
0.25740730 0.06256109 0.77723788
0.40064981 0.06256109 0.77723788
0.60267451 0.06256109 0.77723788
0.77723788 0.06256109 0.77723788
0.93888477 0.06256109 0.77723788
1.09634283 0.06256109 0.77723788
0.06256109 0.06256109 0.77723788
0.06256109 0.06256109 0.77723788
0.16381823 0.06256109 0.77723788
0.25740730 0.06256109 0.77723788
0.40064981 0.06256109 0.77723788
0.60267451 0.06256109 0.77723788
0.77723788 0.06256109 0.77723788
0.93888477 0.06256109 0.77723788
1.09634283 0.06256109 0.77723788
0.06256109 0.16381823 0.77723788
0.06256109 0.16381823 0.77723788
0.16381823 0.16381823 0.77723788
0.25740730 0.16381823 0.77723788
0.40064981 0.16381823 0.77723788
0.60267451 0.16381823 0.77723788
0.77723788 0.16381823 0.77723788
0.93888477 0.16381823 0.77723788
1.09634283 0.16381823 0.77723788
0.06256109 0.25740730 0.77723788
0.06256109 0.25740730 0.77723788
0.16381823 0.25740730 0.77723788
0.25740730 0.25740730 0.77723788
0.40064981 0.25740730 0.77723788
0.60267451 0.25740730 0.77723788
0.77723788 0.25740730 0.77723788
0.93888477 0.25740730 0.77723788
1.09634283 0.25740730 0.77723788
0.06256109 0.40064981 0.77723788
0.06256109 0.40064981 0.77723788
0.16381823 0.40064981 0.77723788
0.25740730 0.40064981 0.77723788
0.40064981 0.40064981 0.77723788
0.60267451 0.40064981 0.77723788
0.77723788 0.40064981 0.77723788
0.93888477 0.40064981 0.77723788
1.09634283 0.40064981 0.77723788
0.06256109 0.60267451 0.77723788
0.06256109 0.60267451 0.77723788
0.16381823 0.60267451 0.77723788
0.25740730 0.60267451 0.77723788
0.40064981 0.60267451 0.77723788
0.60267451 0.60267451 0.77723788
0.77723788 0.60267451 0.77723788
0.93888477 0.60267451 0.77723788
1.09634283 0.60267451 0.77723788
0.06256109 0.77723788 0.77723788
0.06256109 0.77723788 0.77723788
0.16381823 0.77723788 0.77723788
0.25740730 0.77723788 0.77723788
0.40064981 0.77723788 0.77723788
0.60267451 0.77723788 0.77723788
0.77723788 0.77723788 0.77723788
0.93888477 0.77723788 0.77723788
1.09634283 0.77723788 0.77723788
0.06256109 0.93888477 0.77723788
0.06256109 0.93888477 0.77723788
0.16381823 0.93888477 0.77723788
0.25740730 0.93888477 0.77723788
0.40064981 0.93888477 0.77723788
0.60267451 0.93888477 0.77723788
0.77723788 0.93888477 0.77723788
0.93888477 0.93888477 0.77723788
1.09634283 0.93888477 0.77723788
0.06256109 1.09634283 0.77723788
0.06256109 1.09634283 0.77723788
0.16381823 1.09634283 0.77723788
0.25740730 1.09634283 0.77723788
0.40064981 1.09634283 0.77723788
0.60267451 1.09634283 0.77723788
0.77723788 1.09634283 0.77723788
0.93888477 1.09634283 0.77723788
1.09634283 1.09634283 0.77723788
0.06256109 0.06256109 0.93888477
0.06256109 0.06256109 0.93888477
0.16381823 0.06256109 0.93888477
0.25740730 0.06256109 0.93888477
0.40064981 0.06256109 0.93888477
0.60267451 0.06256109 0.93888477
0.77723788 0.06256109 0.93888477
0.93888477 0.06256109 0.93888477
1.09634283 0.06256109 0.93888477
0.06256109 0.06256109 0.93888477
0.06256109 0.06256109 0.93888477
0.16381823 0.06256109 0.93888477
0.25740730 0.06256109 0.93888477
0.40064981 0.06256109 0.93888477
0.60267451 0.06256109 0.93888477
0.77723788 0.06256109 0.93888477
0.93888477 0.06256109 0.93888477
1.09634283 0.06256109 0.93888477
0.06256109 0.16381823 0.93888477
0.06256109 0.16381823 0.93888477
0.16381823 0.16381823 0.93888477
0.25740730 0.16381823 0.93888477
0.40064981 0.16381823 0.93888477
0.60267451 0.16381823 0.93888477
0.77723788 0.16381823 0.93888477
0.93888477 0.16381823 0.93888477
1.09634283 0.16381823 0.93888477
0.06256109 0.25740730 0.93888477
0.06256109 0.25740730 0.93888477
0.16381823 0.25740730 0.93888477
0.25740730 0.25740730 0.93888477
0.40064981 0.25740730 0.93888477
0.60267451 0.25740730 0.93888477
0.77723788 0.25740730 0.93888477
0.93888477 0.25740730 0.93888477
1.09634283 0.25740730 0.93888477
0.06256109 0.40064981 0.93888477
0.06256109 0.40064981 0.93888477
0.16381823 0.40064981 0.93888477
0.25740730 0.40064981 0.93888477
0.40064981 0.40064981 0.93888477
0.60267451 0.40064981 0.93888477
0.77723788 0.40064981 0.93888477
0.93888477 0.40064981 0.93888477
1.09634283 0.40064981 0.93888477
0.06256109 0.60267451 0.93888477
0.06256109 0.60267451 0.93888477
0.16381823 0.60267451 0.93888477
0.25740730 0.60267451 0.93888477
0.40064981 0.60267451 0.93888477
0.60267451 0.60267451 0.93888477
0.77723788 0.60267451 0.93888477
0.93888477 0.60267451 0.93888477
1.09634283 0.60267451 0.93888477
0.06256109 0.77723788 0.93888477
0.06256109 0.77723788 0.93888477
0.16381823 0.77723788 0.93888477
0.25740730 0.77723788 0.93888477
0.40064981 0.77723788 0.93888477
0.60267451 0.77723788 0.93888477
0.77723788 0.77723788 0.93888477
0.93888477 0.77723788 0.93888477
1.09634283 0.77723788 0.93888477
0.06256109 0.93888477 0.93888477
0.06256109 0.93888477 0.93888477
0.16381823 0.93888477 0.93888477
0.25740730 0.93888477 0.93888477
0.40064981 0.93888477 0.93888477
0.60267451 0.93888477 0.93888477
0.77723788 0.93888477 0.93888477
0.93888477 0.93888477 0.93888477
1.09634283 0.93888477 0.93888477
0.06256109 1.09634283 0.93888477
0.06256109 1.09634283 0.93888477
0.16381823 1.09634283 0.93888477
0.25740730 1.09634283 0.93888477
0.40064981 1.09634283 0.93888477
0.60267451 1.09634283 0.93888477
0.77723788 1.09634283 0.93888477
0.93888477 1.09634283 0.93888477
1.09634283 1.09634283 0.93888477
0.06256109 0.06256109 1.09634283
0.06256109 0.06256109 1.09634283
0.16381823 0.06256109 1.09634283
0.25740730 0.06256109 1.09634283
0.40064981 0.06256109 1.09634283
0.60267451 0.06256109 1.09634283
0.77723788 0.06256109 1.09634283
0.93888477 0.06256109 1.09634283
1.09634283 0.06256109 1.09634283
0.06256109 0.06256109 1.09634283
0.06256109 0.06256109 1.09634283
0.16381823 0.06256109 1.09634283
0.25740730 0.06256109 1.09634283
0.40064981 0.06256109 1.09634283
0.60267451 0.06256109 1.09634283
0.77723788 0.06256109 1.09634283
0.93888477 0.06256109 1.09634283
1.09634283 0.06256109 1.09634283
0.06256109 0.16381823 1.09634283
0.06256109 0.16381823 1.09634283
0.16381823 0.16381823 1.09634283
0.25740730 0.16381823 1.09634283
0.40064981 0.16381823 1.09634283
0.60267451 0.16381823 1.09634283
0.77723788 0.16381823 1.09634283
0.93888477 0.16381823 1.09634283
1.09634283 0.16381823 1.09634283
0.06256109 0.25740730 1.09634283
0.06256109 0.25740730 1.09634283
0.16381823 0.25740730 1.09634283
0.25740730 0.25740730 1.09634283
0.40064981 0.25740730 1.09634283
0.60267451 0.25740730 1.09634283
0.77723788 0.25740730 1.09634283
0.93888477 0.25740730 1.09634283
1.09634283 0.25740730 1.09634283
0.06256109 0.40064981 1.09634283
0.06256109 0.40064981 1.09634283
0.16381823 0.40064981 1.09634283
0.25740730 0.40064981 1.09634283
0.40064981 0.40064981 1.09634283
0.60267451 0.40064981 1.09634283
0.77723788 0.40064981 1.09634283
0.93888477 0.40064981 1.09634283
1.09634283 0.40064981 1.09634283
0.06256109 0.60267451 1.09634283
0.06256109 0.60267451 1.09634283
0.16381823 0.60267451 1.09634283
0.25740730 0.60267451 1.09634283
0.40064981 0.60267451 1.09634283
0.60267451 0.60267451 1.09634283
0.77723788 0.60267451 1.09634283
0.93888477 0.60267451 1.09634283
1.09634283 0.60267451 1.09634283
0.06256109 0.77723788 1.09634283
0.06256109 0.77723788 1.09634283
0.16381823 0.77723788 1.09634283
0.25740730 0.77723788 1.09634283
0.40064981 0.77723788 1.09634283
0.60267451 0.77723788 1.09634283
0.77723788 0.77723788 1.09634283
0.93888477 0.77723788 1.09634283
1.09634283 0.77723788 1.09634283
0.06256109 0.93888477 1.09634283
0.06256109 0.93888477 1.09634283
0.16381823 0.93888477 1.09634283
0.25740730 0.93888477 1.09634283
0.40064981 0.93888477 1.09634283
0.60267451 0.93888477 1.09634283
0.77723788 0.93888477 1.09634283
0.93888477 0.93888477 1.09634283
1.09634283 0.93888477 1.09634283
0.06256109 1.09634283 1.09634283
0.06256109 1.09634283 1.09634283
0.16381823 1.09634283 1.09634283
0.25740730 1.09634283 1.09634283
0.40064981 1.09634283 1.09634283
0.60267451 1.09634283 1.09634283
0.77723788 1.09634283 1.09634283
0.93888477 1.09634283 1.09634283
1.09634283 1.09634283 1.09634283
