Processors/avs_plugins/LUTs/ALog_to_BT2100_PQ.cube
TITLE "ALog_to_PQ"
LUT_3D_SIZE 5
# Apple Log BT2020 to PQ BT2020 by Francesco Bucciantini
0.06256172 0.06256172 0.06256172
0.11290623 0.06256172 0.06256172
0.30123322 0.06256172 0.06256172
0.50166153 0.06256172 0.06256172
0.71330539 0.06256172 0.06256172
0.06256172 0.11290623 0.06256172
0.11290623 0.11290623 0.06256172
0.30123322 0.11290623 0.06256172
0.50166153 0.11290623 0.06256172
0.71330539 0.11290623 0.06256172
0.06256172 0.30123322 0.06256172
0.11290623 0.30123322 0.06256172
0.30123322 0.30123322 0.06256172
0.50166153 0.30123322 0.06256172
0.71330539 0.30123322 0.06256172
0.06256172 0.50166153 0.06256172
0.11290623 0.50166153 0.06256172
0.30123322 0.50166153 0.06256172
0.50166153 0.50166153 0.06256172
0.71330539 0.50166153 0.06256172
0.06256172 0.71330539 0.06256172
0.11290623 0.71330539 0.06256172
0.30123322 0.71330539 0.06256172
0.50166153 0.71330539 0.06256172
0.71330539 0.71330539 0.06256172
0.06256172 0.06256172 0.11290623
0.11290623 0.06256172 0.11290623
0.30123322 0.06256172 0.11290623
0.50166153 0.06256172 0.11290623
0.71330539 0.06256172 0.11290623
0.06256172 0.11290623 0.11290623
0.11290623 0.11290623 0.11290623
0.30123322 0.11290623 0.11290623
0.50166153 0.11290623 0.11290623
0.71330539 0.11290623 0.11290623
0.06256172 0.30123322 0.11290623
0.11290623 0.30123322 0.11290623
0.30123322 0.30123322 0.11290623
0.50166153 0.30123322 0.11290623
0.71330539 0.30123322 0.11290623
0.06256172 0.50166153 0.11290623
0.11290623 0.50166153 0.11290623
0.30123322 0.50166153 0.11290623
0.50166153 0.50166153 0.11290623
0.71330539 0.50166153 0.11290623
0.06256172 0.71330539 0.11290623
0.11290623 0.71330539 0.11290623
0.30123322 0.71330539 0.11290623
0.50166153 0.71330539 0.11290623
0.71330539 0.71330539 0.11290623
0.06256172 0.06256172 0.30123322
0.11290623 0.06256172 0.30123322
0.30123322 0.06256172 0.30123322
0.50166153 0.06256172 0.30123322
0.71330539 0.06256172 0.30123322
0.06256172 0.11290623 0.30123322
0.11290623 0.11290623 0.30123322
0.30123322 0.11290623 0.30123322
0.50166153 0.11290623 0.30123322
0.71330539 0.11290623 0.30123322
0.06256172 0.30123322 0.30123322
0.11290623 0.30123322 0.30123322
0.30123322 0.30123322 0.30123322
0.50166153 0.30123322 0.30123322
0.71330539 0.30123322 0.30123322
0.06256172 0.50166153 0.30123322
0.11290623 0.50166153 0.30123322
0.30123322 0.50166153 0.30123322
0.50166153 0.50166153 0.30123322
0.71330539 0.50166153 0.30123322
0.06256172 0.71330539 0.30123322
0.11290623 0.71330539 0.30123322
0.30123322 0.71330539 0.30123322
0.50166153 0.71330539 0.30123322
0.71330539 0.71330539 0.30123322
0.06256172 0.06256172 0.50166153
0.11290623 0.06256172 0.50166153
0.30123322 0.06256172 0.50166153
0.50166153 0.06256172 0.50166153
0.71330539 0.06256172 0.50166153
0.06256172 0.11290623 0.50166153
0.11290623 0.11290623 0.50166153
0.30123322 0.11290623 0.50166153
0.50166153 0.11290623 0.50166153
0.71330539 0.11290623 0.50166153
0.06256172 0.30123322 0.50166153
0.11290623 0.30123322 0.50166153
0.30123322 0.30123322 0.50166153
0.50166153 0.30123322 0.50166153
0.71330539 0.30123322 0.50166153
0.06256172 0.50166153 0.50166153
0.11290623 0.50166153 0.50166153
0.30123322 0.50166153 0.50166153
0.50166153 0.50166153 0.50166153
0.71330539 0.50166153 0.50166153
0.06256172 0.71330539 0.50166153
0.11290623 0.71330539 0.50166153
0.30123322 0.71330539 0.50166153
0.50166153 0.71330539 0.50166153
0.71330539 0.71330539 0.50166153
0.06256172 0.06256172 0.71330539
0.11290623 0.06256172 0.71330539
0.30123322 0.06256172 0.71330539
0.50166153 0.06256172 0.71330539
0.71330539 0.06256172 0.71330539
0.06256172 0.11290623 0.71330539
0.11290623 0.11290623 0.71330539
0.30123322 0.11290623 0.71330539
0.50166153 0.11290623 0.71330539
0.71330539 0.11290623 0.71330539
0.06256172 0.30123322 0.71330539
0.11290623 0.30123322 0.71330539
0.30123322 0.30123322 0.71330539
0.50166153 0.30123322 0.71330539
0.71330539 0.30123322 0.71330539
0.06256172 0.50166153 0.71330539
0.11290623 0.50166153 0.71330539
0.30123322 0.50166153 0.71330539
0.50166153 0.50166153 0.71330539
0.71330539 0.50166153 0.71330539
0.06256172 0.71330539 0.71330539
0.11290623 0.71330539 0.71330539
0.30123322 0.71330539 0.71330539
0.50166153 0.71330539 0.71330539
0.71330539 0.71330539 0.71330539
