Processors/avs_plugins/LUTs/ALog_to_BT2100_PQ.cube
TITLE "ALog_to_PQ"
LUT_3D_SIZE 9
# Apple Log BT2020 to PQ BT2020 by Francesco Bucciantini
0.06256172 0.06256172 0.06256172
0.06256172 0.06256172 0.06256172
0.11290623 0.06256172 0.06256172
0.20675690 0.06256172 0.06256172
0.30123322 0.06256172 0.06256172
0.39931560 0.06256172 0.06256172
0.50166153 0.06256172 0.06256172
0.60700155 0.06256172 0.06256172
0.71330539 0.06256172 0.06256172
0.06256172 0.06256172 0.06256172
0.06256172 0.06256172 0.06256172
0.11290623 0.06256172 0.06256172
0.20675690 0.06256172 0.06256172
0.30123322 0.06256172 0.06256172
0.39931560 0.06256172 0.06256172
0.50166153 0.06256172 0.06256172
0.60700155 0.06256172 0.06256172
0.71330539 0.06256172 0.06256172
0.06256172 0.11290623 0.06256172
0.06256172 0.11290623 0.06256172
0.11290623 0.11290623 0.06256172
0.20675690 0.11290623 0.06256172
0.30123322 0.11290623 0.06256172
0.39931560 0.11290623 0.06256172
0.50166153 0.11290623 0.06256172
0.60700155 0.11290623 0.06256172
0.71330539 0.11290623 0.06256172
0.06256172 0.20675690 0.06256172
0.06256172 0.20675690 0.06256172
0.11290623 0.20675690 0.06256172
0.20675690 0.20675690 0.06256172
0.30123322 0.20675690 0.06256172
0.39931560 0.20675690 0.06256172
0.50166153 0.20675690 0.06256172
0.60700155 0.20675690 0.06256172
0.71330539 0.20675690 0.06256172
0.06256172 0.30123322 0.06256172
0.06256172 0.30123322 0.06256172
0.11290623 0.30123322 0.06256172
0.20675690 0.30123322 0.06256172
0.30123322 0.30123322 0.06256172
0.39931560 0.30123322 0.06256172
0.50166153 0.30123322 0.06256172
0.60700155 0.30123322 0.06256172
0.71330539 0.30123322 0.06256172
0.06256172 0.39931560 0.06256172
0.06256172 0.39931560 0.06256172
0.11290623 0.39931560 0.06256172
0.20675690 0.39931560 0.06256172
0.30123322 0.39931560 0.06256172
0.39931560 0.39931560 0.06256172
0.50166153 0.39931560 0.06256172
0.60700155 0.39931560 0.06256172
0.71330539 0.39931560 0.06256172
0.06256172 0.50166153 0.06256172
0.06256172 0.50166153 0.06256172
0.11290623 0.50166153 0.06256172
0.20675690 0.50166153 0.06256172
0.30123322 0.50166153 0.06256172
0.39931560 0.50166153 0.06256172
0.50166153 0.50166153 0.06256172
0.60700155 0.50166153 0.06256172
0.71330539 0.50166153 0.06256172
0.06256172 0.60700155 0.06256172
0.06256172 0.60700155 0.06256172
0.11290623 0.60700155 0.06256172
0.20675690 0.60700155 0.06256172
0.30123322 0.60700155 0.06256172
0.39931560 0.60700155 0.06256172
0.50166153 0.60700155 0.06256172
0.60700155 0.60700155 0.06256172
0.71330539 0.60700155 0.06256172
0.06256172 0.71330539 0.06256172
0.06256172 0.71330539 0.06256172
0.11290623 0.71330539 0.06256172
0.20675690 0.71330539 0.06256172
0.30123322 0.71330539 0.06256172
0.39931560 0.71330539 0.06256172
0.50166153 0.71330539 0.06256172
0.60700155 0.71330539 0.06256172
0.71330539 0.71330539 0.06256172
0.06256172 0.06256172 0.06256172
0.06256172 0.06256172 0.06256172
0.11290623 0.06256172 0.06256172
0.20675690 0.06256172 0.06256172
0.30123322 0.06256172 0.06256172
0.39931560 0.06256172 0.06256172
0.50166153 0.06256172 0.06256172
0.60700155 0.06256172 0.06256172
0.71330539 0.06256172 0.06256172
0.06256172 0.06256172 0.06256172
0.06256172 0.06256172 0.06256172
0.11290623 0.06256172 0.06256172
0.20675690 0.06256172 0.06256172
0.30123322 0.06256172 0.06256172
0.39931560 0.06256172 0.06256172
0.50166153 0.06256172 0.06256172
0.60700155 0.06256172 0.06256172
0.71330539 0.06256172 0.06256172
0.06256172 0.11290623 0.06256172
0.06256172 0.11290623 0.06256172
0.11290623 0.11290623 0.06256172
0.20675690 0.11290623 0.06256172
0.30123322 0.11290623 0.06256172
0.39931560 0.11290623 0.06256172
0.50166153 0.11290623 0.06256172
0.60700155 0.11290623 0.06256172
0.71330539 0.11290623 0.06256172
0.06256172 0.20675690 0.06256172
0.06256172 0.20675690 0.06256172
0.11290623 0.20675690 0.06256172
0.20675690 0.20675690 0.06256172
0.30123322 0.20675690 0.06256172
0.39931560 0.20675690 0.06256172
0.50166153 0.20675690 0.06256172
0.60700155 0.20675690 0.06256172
0.71330539 0.20675690 0.06256172
0.06256172 0.30123322 0.06256172
0.06256172 0.30123322 0.06256172
0.11290623 0.30123322 0.06256172
0.20675690 0.30123322 0.06256172
0.30123322 0.30123322 0.06256172
0.39931560 0.30123322 0.06256172
0.50166153 0.30123322 0.06256172
0.60700155 0.30123322 0.06256172
0.71330539 0.30123322 0.06256172
0.06256172 0.39931560 0.06256172
0.06256172 0.39931560 0.06256172
0.11290623 0.39931560 0.06256172
0.20675690 0.39931560 0.06256172
0.30123322 0.39931560 0.06256172
0.39931560 0.39931560 0.06256172
0.50166153 0.39931560 0.06256172
0.60700155 0.39931560 0.06256172
0.71330539 0.39931560 0.06256172
0.06256172 0.50166153 0.06256172
0.06256172 0.50166153 0.06256172
0.11290623 0.50166153 0.06256172
0.20675690 0.50166153 0.06256172
0.30123322 0.50166153 0.06256172
0.39931560 0.50166153 0.06256172
0.50166153 0.50166153 0.06256172
0.60700155 0.50166153 0.06256172
0.71330539 0.50166153 0.06256172
0.06256172 0.60700155 0.06256172
0.06256172 0.60700155 0.06256172
0.11290623 0.60700155 0.06256172
0.20675690 0.60700155 0.06256172
0.30123322 0.60700155 0.06256172
0.39931560 0.60700155 0.06256172
0.50166153 0.60700155 0.06256172
0.60700155 0.60700155 0.06256172
0.71330539 0.60700155 0.06256172
0.06256172 0.71330539 0.06256172
0.06256172 0.71330539 0.06256172
0.11290623 0.71330539 0.06256172
0.20675690 0.71330539 0.06256172
0.30123322 0.71330539 0.06256172
0.39931560 0.71330539 0.06256172
0.50166153 0.71330539 0.06256172
0.60700155 0.71330539 0.06256172
0.71330539 0.71330539 0.06256172
0.06256172 0.06256172 0.11290623
0.06256172 0.06256172 0.11290623
0.11290623 0.06256172 0.11290623
0.20675690 0.06256172 0.11290623
0.30123322 0.06256172 0.11290623
0.39931560 0.06256172 0.11290623
0.50166153 0.06256172 0.11290623
0.60700155 0.06256172 0.11290623
0.71330539 0.06256172 0.11290623
0.06256172 0.06256172 0.11290623
0.06256172 0.06256172 0.11290623
0.11290623 0.06256172 0.11290623
0.20675690 0.06256172 0.11290623
0.30123322 0.06256172 0.11290623
0.39931560 0.06256172 0.11290623
0.50166153 0.06256172 0.11290623
0.60700155 0.06256172 0.11290623
0.71330539 0.06256172 0.11290623
0.06256172 0.11290623 0.11290623
0.06256172 0.11290623 0.11290623
0.11290623 0.11290623 0.11290623
0.20675690 0.11290623 0.11290623
0.30123322 0.11290623 0.11290623
0.39931560 0.11290623 0.11290623
0.50166153 0.11290623 0.11290623
0.60700155 0.11290623 0.11290623
0.71330539 0.11290623 0.11290623
0.06256172 0.20675690 0.11290623
0.06256172 0.20675690 0.11290623
0.11290623 0.20675690 0.11290623
0.20675690 0.20675690 0.11290623
0.30123322 0.20675690 0.11290623
0.39931560 0.20675690 0.11290623
0.50166153 0.20675690 0.11290623
0.60700155 0.20675690 0.11290623
0.71330539 0.20675690 0.11290623
0.06256172 0.30123322 0.11290623
0.06256172 0.30123322 0.11290623
0.11290623 0.30123322 0.11290623
0.20675690 0.30123322 0.11290623
0.30123322 0.30123322 0.11290623
0.39931560 0.30123322 0.11290623
0.50166153 0.30123322 0.11290623
0.60700155 0.30123322 0.11290623
0.71330539 0.30123322 0.11290623
0.06256172 0.39931560 0.11290623
0.06256172 0.39931560 0.11290623
0.11290623 0.39931560 0.11290623
0.20675690 0.39931560 0.11290623
0.30123322 0.39931560 0.11290623
0.39931560 0.39931560 0.11290623
0.50166153 0.39931560 0.11290623
0.60700155 0.39931560 0.11290623
0.71330539 0.39931560 0.11290623
0.06256172 0.50166153 0.11290623
0.06256172 0.50166153 0.11290623
0.11290623 0.50166153 0.11290623
0.20675690 0.50166153 0.11290623
0.30123322 0.50166153 0.11290623
0.39931560 0.50166153 0.11290623
0.50166153 0.50166153 0.11290623
0.60700155 0.50166153 0.11290623
0.71330539 0.50166153 0.11290623
0.06256172 0.60700155 0.11290623
0.06256172 0.60700155 0.11290623
0.11290623 0.60700155 0.11290623
0.20675690 0.60700155 0.11290623
0.30123322 0.60700155 0.11290623
0.39931560 0.60700155 0.11290623
0.50166153 0.60700155 0.11290623
0.60700155 0.60700155 0.11290623
0.71330539 0.60700155 0.11290623
0.06256172 0.71330539 0.11290623
0.06256172 0.71330539 0.11290623
0.11290623 0.71330539 0.11290623
0.20675690 0.71330539 0.11290623
0.30123322 0.71330539 0.11290623
0.39931560 0.71330539 0.11290623
0.50166153 0.71330539 0.11290623
0.60700155 0.71330539 0.11290623
0.71330539 0.71330539 0.11290623
0.06256172 0.06256172 0.20675690
0.06256172 0.06256172 0.20675690
0.11290623 0.06256172 0.20675690
0.20675690 0.06256172 0.20675690
0.30123322 0.06256172 0.20675690
0.39931560 0.06256172 0.20675690
0.50166153 0.06256172 0.20675690
0.60700155 0.06256172 0.20675690
0.71330539 0.06256172 0.20675690
0.06256172 0.06256172 0.20675690
0.06256172 0.06256172 0.20675690
0.11290623 0.06256172 0.20675690
0.20675690 0.06256172 0.20675690
0.30123322 0.06256172 0.20675690
0.39931560 0.06256172 0.20675690
0.50166153 0.06256172 0.20675690
0.60700155 0.06256172 0.20675690
0.71330539 0.06256172 0.20675690
0.06256172 0.11290623 0.20675690
0.06256172 0.11290623 0.20675690
0.11290623 0.11290623 0.20675690
0.20675690 0.11290623 0.20675690
0.30123322 0.11290623 0.20675690
0.39931560 0.11290623 0.20675690
0.50166153 0.11290623 0.20675690
0.60700155 0.11290623 0.20675690
0.71330539 0.11290623 0.20675690
0.06256172 0.20675690 0.20675690
0.06256172 0.20675690 0.20675690
0.11290623 0.20675690 0.20675690
0.20675690 0.20675690 0.20675690
0.30123322 0.20675690 0.20675690
0.39931560 0.20675690 0.20675690
0.50166153 0.20675690 0.20675690
0.60700155 0.20675690 0.20675690
0.71330539 0.20675690 0.20675690
0.06256172 0.30123322 0.20675690
0.06256172 0.30123322 0.20675690
0.11290623 0.30123322 0.20675690
0.20675690 0.30123322 0.20675690
0.30123322 0.30123322 0.20675690
0.39931560 0.30123322 0.20675690
0.50166153 0.30123322 0.20675690
0.60700155 0.30123322 0.20675690
0.71330539 0.30123322 0.20675690
0.06256172 0.39931560 0.20675690
0.06256172 0.39931560 0.20675690
0.11290623 0.39931560 0.20675690
0.20675690 0.39931560 0.20675690
0.30123322 0.39931560 0.20675690
0.39931560 0.39931560 0.20675690
0.50166153 0.39931560 0.20675690
0.60700155 0.39931560 0.20675690
0.71330539 0.39931560 0.20675690
0.06256172 0.50166153 0.20675690
0.06256172 0.50166153 0.20675690
0.11290623 0.50166153 0.20675690
0.20675690 0.50166153 0.20675690
0.30123322 0.50166153 0.20675690
0.39931560 0.50166153 0.20675690
0.50166153 0.50166153 0.20675690
0.60700155 0.50166153 0.20675690
0.71330539 0.50166153 0.20675690
0.06256172 0.60700155 0.20675690
0.06256172 0.60700155 0.20675690
0.11290623 0.60700155 0.20675690
0.20675690 0.60700155 0.20675690
0.30123322 0.60700155 0.20675690
0.39931560 0.60700155 0.20675690
0.50166153 0.60700155 0.20675690
0.60700155 0.60700155 0.20675690
0.71330539 0.60700155 0.20675690
0.06256172 0.71330539 0.20675690
0.06256172 0.71330539 0.20675690
0.11290623 0.71330539 0.20675690
0.20675690 0.71330539 0.20675690
0.30123322 0.71330539 0.20675690
0.39931560 0.71330539 0.20675690
0.50166153 0.71330539 0.20675690
0.60700155 0.71330539 0.20675690
0.71330539 0.71330539 0.20675690
0.06256172 0.06256172 0.30123322
0.06256172 0.06256172 0.30123322
0.11290623 0.06256172 0.30123322
0.20675690 0.06256172 0.30123322
0.30123322 0.06256172 0.30123322
0.39931560 0.06256172 0.30123322
0.50166153 0.06256172 0.30123322
0.60700155 0.06256172 0.30123322
0.71330539 0.06256172 0.30123322
0.06256172 0.06256172 0.30123322
0.06256172 0.06256172 0.30123322
0.11290623 0.06256172 0.30123322
0.20675690 0.06256172 0.30123322
0.30123322 0.06256172 0.30123322
0.39931560 0.06256172 0.30123322
0.50166153 0.06256172 0.30123322
0.60700155 0.06256172 0.30123322
0.71330539 0.06256172 0.30123322
0.06256172 0.11290623 0.30123322
0.06256172 0.11290623 0.30123322
0.11290623 0.11290623 0.30123322
0.20675690 0.11290623 0.30123322
0.30123322 0.11290623 0.30123322
0.39931560 0.11290623 0.30123322
0.50166153 0.11290623 0.30123322
0.60700155 0.11290623 0.30123322
0.71330539 0.11290623 0.30123322
0.06256172 0.20675690 0.30123322
0.06256172 0.20675690 0.30123322
0.11290623 0.20675690 0.30123322
0.20675690 0.20675690 0.30123322
0.30123322 0.20675690 0.30123322
0.39931560 0.20675690 0.30123322
0.50166153 0.20675690 0.30123322
0.60700155 0.20675690 0.30123322
0.71330539 0.20675690 0.30123322
0.06256172 0.30123322 0.30123322
0.06256172 0.30123322 0.30123322
0.11290623 0.30123322 0.30123322
0.20675690 0.30123322 0.30123322
0.30123322 0.30123322 0.30123322
0.39931560 0.30123322 0.30123322
0.50166153 0.30123322 0.30123322
0.60700155 0.30123322 0.30123322
0.71330539 0.30123322 0.30123322
0.06256172 0.39931560 0.30123322
0.06256172 0.39931560 0.30123322
0.11290623 0.39931560 0.30123322
0.20675690 0.39931560 0.30123322
0.30123322 0.39931560 0.30123322
0.39931560 0.39931560 0.30123322
0.50166153 0.39931560 0.30123322
0.60700155 0.39931560 0.30123322
0.71330539 0.39931560 0.30123322
0.06256172 0.50166153 0.30123322
0.06256172 0.50166153 0.30123322
0.11290623 0.50166153 0.30123322
0.20675690 0.50166153 0.30123322
0.30123322 0.50166153 0.30123322
0.39931560 0.50166153 0.30123322
0.50166153 0.50166153 0.30123322
0.60700155 0.50166153 0.30123322
0.71330539 0.50166153 0.30123322
0.06256172 0.60700155 0.30123322
0.06256172 0.60700155 0.30123322
0.11290623 0.60700155 0.30123322
0.20675690 0.60700155 0.30123322
0.30123322 0.60700155 0.30123322
0.39931560 0.60700155 0.30123322
0.50166153 0.60700155 0.30123322
0.60700155 0.60700155 0.30123322
0.71330539 0.60700155 0.30123322
0.06256172 0.71330539 0.30123322
0.06256172 0.71330539 0.30123322
0.11290623 0.71330539 0.30123322
0.20675690 0.71330539 0.30123322
0.30123322 0.71330539 0.30123322
0.39931560 0.71330539 0.30123322
0.50166153 0.71330539 0.30123322
0.60700155 0.71330539 0.30123322
0.71330539 0.71330539 0.30123322
0.06256172 0.06256172 0.39931560
0.06256172 0.06256172 0.39931560
0.11290623 0.06256172 0.39931560
0.20675690 0.06256172 0.39931560
0.30123322 0.06256172 0.39931560
0.39931560 0.06256172 0.39931560
0.50166153 0.06256172 0.39931560
0.60700155 0.06256172 0.39931560
0.71330539 0.06256172 0.39931560
0.06256172 0.06256172 0.39931560
0.06256172 0.06256172 0.39931560
0.11290623 0.06256172 0.39931560
0.20675690 0.06256172 0.39931560
0.30123322 0.06256172 0.39931560
0.39931560 0.06256172 0.39931560
0.50166153 0.06256172 0.39931560
0.60700155 0.06256172 0.39931560
0.71330539 0.06256172 0.39931560
0.06256172 0.11290623 0.39931560
0.06256172 0.11290623 0.39931560
0.11290623 0.11290623 0.39931560
0.20675690 0.11290623 0.39931560
0.30123322 0.11290623 0.39931560
0.39931560 0.11290623 0.39931560
0.50166153 0.11290623 0.39931560
0.60700155 0.11290623 0.39931560
0.71330539 0.11290623 0.39931560
0.06256172 0.20675690 0.39931560
0.06256172 0.20675690 0.39931560
0.11290623 0.20675690 0.39931560
0.20675690 0.20675690 0.39931560
0.30123322 0.20675690 0.39931560
0.39931560 0.20675690 0.39931560
0.50166153 0.20675690 0.39931560
0.60700155 0.20675690 0.39931560
0.71330539 0.20675690 0.39931560
0.06256172 0.30123322 0.39931560
0.06256172 0.30123322 0.39931560
0.11290623 0.30123322 0.39931560
0.20675690 0.30123322 0.39931560
0.30123322 0.30123322 0.39931560
0.39931560 0.30123322 0.39931560
0.50166153 0.30123322 0.39931560
0.60700155 0.30123322 0.39931560
0.71330539 0.30123322 0.39931560
0.06256172 0.39931560 0.39931560
0.06256172 0.39931560 0.39931560
0.11290623 0.39931560 0.39931560
0.20675690 0.39931560 0.39931560
0.30123322 0.39931560 0.39931560
0.39931560 0.39931560 0.39931560
0.50166153 0.39931560 0.39931560
0.60700155 0.39931560 0.39931560
0.71330539 0.39931560 0.39931560
0.06256172 0.50166153 0.39931560
0.06256172 0.50166153 0.39931560
0.11290623 0.50166153 0.39931560
0.20675690 0.50166153 0.39931560
0.30123322 0.50166153 0.39931560
0.39931560 0.50166153 0.39931560
0.50166153 0.50166153 0.39931560
0.60700155 0.50166153 0.39931560
0.71330539 0.50166153 0.39931560
0.06256172 0.60700155 0.39931560
0.06256172 0.60700155 0.39931560
0.11290623 0.60700155 0.39931560
0.20675690 0.60700155 0.39931560
0.30123322 0.60700155 0.39931560
0.39931560 0.60700155 0.39931560
0.50166153 0.60700155 0.39931560
0.60700155 0.60700155 0.39931560
0.71330539 0.60700155 0.39931560
0.06256172 0.71330539 0.39931560
0.06256172 0.71330539 0.39931560
0.11290623 0.71330539 0.39931560
0.20675690 0.71330539 0.39931560
0.30123322 0.71330539 0.39931560
0.39931560 0.71330539 0.39931560
0.50166153 0.71330539 0.39931560
0.60700155 0.71330539 0.39931560
0.71330539 0.71330539 0.39931560
0.06256172 0.06256172 0.50166153
0.06256172 0.06256172 0.50166153
0.11290623 0.06256172 0.50166153
0.20675690 0.06256172 0.50166153
0.30123322 0.06256172 0.50166153
0.39931560 0.06256172 0.50166153
0.50166153 0.06256172 0.50166153
0.60700155 0.06256172 0.50166153
0.71330539 0.06256172 0.50166153
0.06256172 0.06256172 0.50166153
0.06256172 0.06256172 0.50166153
0.11290623 0.06256172 0.50166153
0.20675690 0.06256172 0.50166153
0.30123322 0.06256172 0.50166153
0.39931560 0.06256172 0.50166153
0.50166153 0.06256172 0.50166153
0.60700155 0.06256172 0.50166153
0.71330539 0.06256172 0.50166153
0.06256172 0.11290623 0.50166153
0.06256172 0.11290623 0.50166153
0.11290623 0.11290623 0.50166153
0.20675690 0.11290623 0.50166153
0.30123322 0.11290623 0.50166153
0.39931560 0.11290623 0.50166153
0.50166153 0.11290623 0.50166153
0.60700155 0.11290623 0.50166153
0.71330539 0.11290623 0.50166153
0.06256172 0.20675690 0.50166153
0.06256172 0.20675690 0.50166153
0.11290623 0.20675690 0.50166153
0.20675690 0.20675690 0.50166153
0.30123322 0.20675690 0.50166153
0.39931560 0.20675690 0.50166153
0.50166153 0.20675690 0.50166153
0.60700155 0.20675690 0.50166153
0.71330539 0.20675690 0.50166153
0.06256172 0.30123322 0.50166153
0.06256172 0.30123322 0.50166153
0.11290623 0.30123322 0.50166153
0.20675690 0.30123322 0.50166153
0.30123322 0.30123322 0.50166153
0.39931560 0.30123322 0.50166153
0.50166153 0.30123322 0.50166153
0.60700155 0.30123322 0.50166153
0.71330539 0.30123322 0.50166153
0.06256172 0.39931560 0.50166153
0.06256172 0.39931560 0.50166153
0.11290623 0.39931560 0.50166153
0.20675690 0.39931560 0.50166153
0.30123322 0.39931560 0.50166153
0.39931560 0.39931560 0.50166153
0.50166153 0.39931560 0.50166153
0.60700155 0.39931560 0.50166153
0.71330539 0.39931560 0.50166153
0.06256172 0.50166153 0.50166153
0.06256172 0.50166153 0.50166153
0.11290623 0.50166153 0.50166153
0.20675690 0.50166153 0.50166153
0.30123322 0.50166153 0.50166153
0.39931560 0.50166153 0.50166153
0.50166153 0.50166153 0.50166153
0.60700155 0.50166153 0.50166153
0.71330539 0.50166153 0.50166153
0.06256172 0.60700155 0.50166153
0.06256172 0.60700155 0.50166153
0.11290623 0.60700155 0.50166153
0.20675690 0.60700155 0.50166153
0.30123322 0.60700155 0.50166153
0.39931560 0.60700155 0.50166153
0.50166153 0.60700155 0.50166153
0.60700155 0.60700155 0.50166153
0.71330539 0.60700155 0.50166153
0.06256172 0.71330539 0.50166153
0.06256172 0.71330539 0.50166153
0.11290623 0.71330539 0.50166153
0.20675690 0.71330539 0.50166153
0.30123322 0.71330539 0.50166153
0.39931560 0.71330539 0.50166153
0.50166153 0.71330539 0.50166153
0.60700155 0.71330539 0.50166153
0.71330539 0.71330539 0.50166153
0.06256172 0.06256172 0.60700155
0.06256172 0.06256172 0.60700155
0.11290623 0.06256172 0.60700155
0.20675690 0.06256172 0.60700155
0.30123322 0.06256172 0.60700155
0.39931560 0.06256172 0.60700155
0.50166153 0.06256172 0.60700155
0.60700155 0.06256172 0.60700155
0.71330539 0.06256172 0.60700155
0.06256172 0.06256172 0.60700155
0.06256172 0.06256172 0.60700155
0.11290623 0.06256172 0.60700155
0.20675690 0.06256172 0.60700155
0.30123322 0.06256172 0.60700155
0.39931560 0.06256172 0.60700155
0.50166153 0.06256172 0.60700155
0.60700155 0.06256172 0.60700155
0.71330539 0.06256172 0.60700155
0.06256172 0.11290623 0.60700155
0.06256172 0.11290623 0.60700155
0.11290623 0.11290623 0.60700155
0.20675690 0.11290623 0.60700155
0.30123322 0.11290623 0.60700155
0.39931560 0.11290623 0.60700155
0.50166153 0.11290623 0.60700155
0.60700155 0.11290623 0.60700155
0.71330539 0.11290623 0.60700155
0.06256172 0.20675690 0.60700155
0.06256172 0.20675690 0.60700155
0.11290623 0.20675690 0.60700155
0.20675690 0.20675690 0.60700155
0.30123322 0.20675690 0.60700155
0.39931560 0.20675690 0.60700155
0.50166153 0.20675690 0.60700155
0.60700155 0.20675690 0.60700155
0.71330539 0.20675690 0.60700155
0.06256172 0.30123322 0.60700155
0.06256172 0.30123322 0.60700155
0.11290623 0.30123322 0.60700155
0.20675690 0.30123322 0.60700155
0.30123322 0.30123322 0.60700155
0.39931560 0.30123322 0.60700155
0.50166153 0.30123322 0.60700155
0.60700155 0.30123322 0.60700155
0.71330539 0.30123322 0.60700155
0.06256172 0.39931560 0.60700155
0.06256172 0.39931560 0.60700155
0.11290623 0.39931560 0.60700155
0.20675690 0.39931560 0.60700155
0.30123322 0.39931560 0.60700155
0.39931560 0.39931560 0.60700155
0.50166153 0.39931560 0.60700155
0.60700155 0.39931560 0.60700155
0.71330539 0.39931560 0.60700155
0.06256172 0.50166153 0.60700155
0.06256172 0.50166153 0.60700155
0.11290623 0.50166153 0.60700155
0.20675690 0.50166153 0.60700155
0.30123322 0.50166153 0.60700155
0.39931560 0.50166153 0.60700155
0.50166153 0.50166153 0.60700155
0.60700155 0.50166153 0.60700155
0.71330539 0.50166153 0.60700155
0.06256172 0.60700155 0.60700155
0.06256172 0.60700155 0.60700155
0.11290623 0.60700155 0.60700155
0.20675690 0.60700155 0.60700155
0.30123322 0.60700155 0.60700155
0.39931560 0.60700155 0.60700155
0.50166153 0.60700155 0.60700155
0.60700155 0.60700155 0.60700155
0.71330539 0.60700155 0.60700155
0.06256172 0.71330539 0.60700155
0.06256172 0.71330539 0.60700155
0.11290623 0.71330539 0.60700155
0.20675690 0.71330539 0.60700155
0.30123322 0.71330539 0.60700155
0.39931560 0.71330539 0.60700155
0.50166153 0.71330539 0.60700155
0.60700155 0.71330539 0.60700155
0.71330539 0.71330539 0.60700155
0.06256172 0.06256172 0.71330539
0.06256172 0.06256172 0.71330539
0.11290623 0.06256172 0.71330539
0.20675690 0.06256172 0.71330539
0.30123322 0.06256172 0.71330539
0.39931560 0.06256172 0.71330539
0.50166153 0.06256172 0.71330539
0.60700155 0.06256172 0.71330539
0.71330539 0.06256172 0.71330539
0.06256172 0.06256172 0.71330539
0.06256172 0.06256172 0.71330539
0.11290623 0.06256172 0.71330539
0.20675690 0.06256172 0.71330539
0.30123322 0.06256172 0.71330539
0.39931560 0.06256172 0.71330539
0.50166153 0.06256172 0.71330539
0.60700155 0.06256172 0.71330539
0.71330539 0.06256172 0.71330539
0.06256172 0.11290623 0.71330539
0.06256172 0.11290623 0.71330539
0.11290623 0.11290623 0.71330539
0.20675690 0.11290623 0.71330539
0.30123322 0.11290623 0.71330539
0.39931560 0.11290623 0.71330539
0.50166153 0.11290623 0.71330539
0.60700155 0.11290623 0.71330539
0.71330539 0.11290623 0.71330539
0.06256172 0.20675690 0.71330539
0.06256172 0.20675690 0.71330539
0.11290623 0.20675690 0.71330539
0.20675690 0.20675690 0.71330539
0.30123322 0.20675690 0.71330539
0.39931560 0.20675690 0.71330539
0.50166153 0.20675690 0.71330539
0.60700155 0.20675690 0.71330539
0.71330539 0.20675690 0.71330539
0.06256172 0.30123322 0.71330539
0.06256172 0.30123322 0.71330539
0.11290623 0.30123322 0.71330539
0.20675690 0.30123322 0.71330539
0.30123322 0.30123322 0.71330539
0.39931560 0.30123322 0.71330539
0.50166153 0.30123322 0.71330539
0.60700155 0.30123322 0.71330539
0.71330539 0.30123322 0.71330539
0.06256172 0.39931560 0.71330539
0.06256172 0.39931560 0.71330539
0.11290623 0.39931560 0.71330539
0.20675690 0.39931560 0.71330539
0.30123322 0.39931560 0.71330539
0.39931560 0.39931560 0.71330539
0.50166153 0.39931560 0.71330539
0.60700155 0.39931560 0.71330539
0.71330539 0.39931560 0.71330539
0.06256172 0.50166153 0.71330539
0.06256172 0.50166153 0.71330539
0.11290623 0.50166153 0.71330539
0.20675690 0.50166153 0.71330539
0.30123322 0.50166153 0.71330539
0.39931560 0.50166153 0.71330539
0.50166153 0.50166153 0.71330539
0.60700155 0.50166153 0.71330539
0.71330539 0.50166153 0.71330539
0.06256172 0.60700155 0.71330539
0.06256172 0.60700155 0.71330539
0.11290623 0.60700155 0.71330539
0.20675690 0.60700155 0.71330539
0.30123322 0.60700155 0.71330539
0.39931560 0.60700155 0.71330539
0.50166153 0.60700155 0.71330539
0.60700155 0.60700155 0.71330539
0.71330539 0.60700155 0.71330539
0.06256172 0.71330539 0.71330539
0.06256172 0.71330539 0.71330539
0.11290623 0.71330539 0.71330539
0.20675690 0.71330539 0.71330539
0.30123322 0.71330539 0.71330539
0.39931560 0.71330539 0.71330539
0.50166153 0.71330539 0.71330539
0.60700155 0.71330539 0.71330539
0.71330539 0.71330539 0.71330539
