Processors/avs_plugins/LUTs/ALog_to_BT2020_HLG.cube
TITLE "ALog_to_HLG"
LUT_3D_SIZE 65
# Apple Log BT2020 to HLG BT2020 by Francesco Bucciantini
0.06256109 0.06256109 0.06256109
0.06256109 0.06256109 0.06256109
0.06256109 0.06256109 0.06256109
0.06256109 0.06256109 0.06256109
0.06256109 0.06256109 0.06256109
0.06256109 0.06256109 0.06256109
0.06256109 0.06256109 0.06256109
0.06256109 0.06256109 0.06256109
0.06256109 0.06256109 0.06256109
0.06256109 0.06256109 0.06256109
0.08738089 0.06256109 0.06256109
0.10976571 0.06256109 0.06256109
0.12395136 0.06256109 0.06256109
0.13499242 0.06256109 0.06256109
0.14452917 0.06256109 0.06256109
0.15407131 0.06256109 0.06256109
0.16381823 0.06256109 0.06256109
0.17385176 0.06256109 0.06256109
0.18424181 0.06256109 0.06256109
0.19505127 0.06256109 0.06256109
0.20633906 0.06256109 0.06256109
0.21816207 0.06256109 0.06256109
0.23057654 0.06256109 0.06256109
0.24363907 0.06256109 0.06256109
0.25740730 0.06256109 0.06256109
0.27194060 0.06256109 0.06256109
0.28730052 0.06256109 0.06256109
0.30355128 0.06256109 0.06256109
0.32076014 0.06256109 0.06256109
0.33899779 0.06256109 0.06256109
0.35833875 0.06256109 0.06256109
0.37886168 0.06256109 0.06256109
0.40064981 0.06256109 0.06256109
0.42379126 0.06256109 0.06256109
0.44837946 0.06256109 0.06256109
0.47451353 0.06256109 0.06256109
0.50202706 0.06256109 0.06256109
0.52869711 0.06256109 0.06256109
0.55422758 0.06256109 0.06256109
0.57883197 0.06256109 0.06256109
0.60267451 0.06256109 0.06256109
0.62588398 0.06256109 0.06256109
0.64856296 0.06256109 0.06256109
0.67079429 0.06256109 0.06256109
0.69264565 0.06256109 0.06256109
0.71417287 0.06256109 0.06256109
0.73542238 0.06256109 0.06256109
0.75643311 0.06256109 0.06256109
0.77723788 0.06256109 0.06256109
0.79786450 0.06256109 0.06256109
0.81833669 0.06256109 0.06256109
0.83867472 0.06256109 0.06256109
0.85889602 0.06256109 0.06256109
0.87901556 0.06256109 0.06256109
0.89904631 0.06256109 0.06256109
0.91899947 0.06256109 0.06256109
0.93888477 0.06256109 0.06256109
0.95871068 0.06256109 0.06256109
0.97848454 0.06256109 0.06256109
0.99821278 0.06256109 0.06256109
1.01790099 0.06256109 0.06256109
1.03755408 0.06256109 0.06256109
1.05717633 0.06256109 0.06256109
1.07677148 0.06256109 0.06256109
1.09634283 0.06256109 0.06256109
0.06256109 0.06256109 0.06256109
0.06256109 0.06256109 0.06256109
0.06256109 0.06256109 0.06256109
0.06256109 0.06256109 0.06256109
0.06256109 0.06256109 0.06256109
0.06256109 0.06256109 0.06256109
0.06256109 0.06256109 0.06256109
0.06256109 0.06256109 0.06256109
0.06256109 0.06256109 0.06256109
0.06256109 0.06256109 0.06256109
0.08738089 0.06256109 0.06256109
0.10976571 0.06256109 0.06256109
0.12395136 0.06256109 0.06256109
0.13499242 0.06256109 0.06256109
0.14452917 0.06256109 0.06256109
0.15407131 0.06256109 0.06256109
0.16381823 0.06256109 0.06256109
0.17385176 0.06256109 0.06256109
0.18424181 0.06256109 0.06256109
0.19505127 0.06256109 0.06256109
0.20633906 0.06256109 0.06256109
0.21816207 0.06256109 0.06256109
0.23057654 0.06256109 0.06256109
0.24363907 0.06256109 0.06256109
0.25740730 0.06256109 0.06256109
0.27194060 0.06256109 0.06256109
0.28730052 0.06256109 0.06256109
0.30355128 0.06256109 0.06256109
0.32076014 0.06256109 0.06256109
0.33899779 0.06256109 0.06256109
0.35833875 0.06256109 0.06256109
0.37886168 0.06256109 0.06256109
0.40064981 0.06256109 0.06256109
0.42379126 0.06256109 0.06256109
0.44837946 0.06256109 0.06256109
0.47451353 0.06256109 0.06256109
0.50202706 0.06256109 0.06256109
0.52869711 0.06256109 0.06256109
0.55422758 0.06256109 0.06256109
0.57883197 0.06256109 0.06256109
0.60267451 0.06256109 0.06256109
0.62588398 0.06256109 0.06256109
0.64856296 0.06256109 0.06256109
0.67079429 0.06256109 0.06256109
0.69264565 0.06256109 0.06256109
0.71417287 0.06256109 0.06256109
0.73542238 0.06256109 0.06256109
0.75643311 0.06256109 0.06256109
0.77723788 0.06256109 0.06256109
0.79786450 0.06256109 0.06256109
0.81833669 0.06256109 0.06256109
0.83867472 0.06256109 0.06256109
0.85889602 0.06256109 0.06256109
0.87901556 0.06256109 0.06256109
0.89904631 0.06256109 0.06256109
0.91899947 0.06256109 0.06256109
0.93888477 0.06256109 0.06256109
0.95871068 0.06256109 0.06256109
0.97848454 0.06256109 0.06256109
0.99821278 0.06256109 0.06256109
1.01790099 0.06256109 0.06256109
1.03755408 0.06256109 0.06256109
1.05717633 0.06256109 0.06256109
1.07677148 0.06256109 0.06256109
1.09634283 0.06256109 0.06256109
0.06256109 0.06256109 0.06256109
0.06256109 0.06256109 0.06256109
0.06256109 0.06256109 0.06256109
0.06256109 0.06256109 0.06256109
0.06256109 0.06256109 0.06256109
0.06256109 0.06256109 0.06256109
0.06256109 0.06256109 0.06256109
0.06256109 0.06256109 0.06256109
0.06256109 0.06256109 0.06256109
0.06256109 0.06256109 0.06256109
0.08738089 0.06256109 0.06256109
0.10976571 0.06256109 0.06256109
0.12395136 0.06256109 0.06256109
0.13499242 0.06256109 0.06256109
0.14452917 0.06256109 0.06256109
0.15407131 0.06256109 0.06256109
0.16381823 0.06256109 0.06256109
0.17385176 0.06256109 0.06256109
0.18424181 0.06256109 0.06256109
0.19505127 0.06256109 0.06256109
0.20633906 0.06256109 0.06256109
0.21816207 0.06256109 0.06256109
0.23057654 0.06256109 0.06256109
0.24363907 0.06256109 0.06256109
0.25740730 0.06256109 0.06256109
0.27194060 0.06256109 0.06256109
0.28730052 0.06256109 0.06256109
0.30355128 0.06256109 0.06256109
0.32076014 0.06256109 0.06256109
0.33899779 0.06256109 0.06256109
0.35833875 0.06256109 0.06256109
0.37886168 0.06256109 0.06256109
0.40064981 0.06256109 0.06256109
0.42379126 0.06256109 0.06256109
0.44837946 0.06256109 0.06256109
0.47451353 0.06256109 0.06256109
0.50202706 0.06256109 0.06256109
0.52869711 0.06256109 0.06256109
0.55422758 0.06256109 0.06256109
0.57883197 0.06256109 0.06256109
0.60267451 0.06256109 0.06256109
0.62588398 0.06256109 0.06256109
0.64856296 0.06256109 0.06256109
0.67079429 0.06256109 0.06256109
0.69264565 0.06256109 0.06256109
0.71417287 0.06256109 0.06256109
0.73542238 0.06256109 0.06256109
0.75643311 0.06256109 0.06256109
0.77723788 0.06256109 0.06256109
0.79786450 0.06256109 0.06256109
0.81833669 0.06256109 0.06256109
0.83867472 0.06256109 0.06256109
0.85889602 0.06256109 0.06256109
0.87901556 0.06256109 0.06256109
0.89904631 0.06256109 0.06256109
0.91899947 0.06256109 0.06256109
0.93888477 0.06256109 0.06256109
0.95871068 0.06256109 0.06256109
0.97848454 0.06256109 0.06256109
0.99821278 0.06256109 0.06256109
1.01790099 0.06256109 0.06256109
1.03755408 0.06256109 0.06256109
1.05717633 0.06256109 0.06256109
1.07677148 0.06256109 0.06256109
1.09634283 0.06256109 0.06256109
0.06256109 0.06256109 0.06256109
0.06256109 0.06256109 0.06256109
0.06256109 0.06256109 0.06256109
0.06256109 0.06256109 0.06256109
0.06256109 0.06256109 0.06256109
0.06256109 0.06256109 0.06256109
0.06256109 0.06256109 0.06256109
0.06256109 0.06256109 0.06256109
0.06256109 0.06256109 0.06256109
0.06256109 0.06256109 0.06256109
0.08738089 0.06256109 0.06256109
0.10976571 0.06256109 0.06256109
0.12395136 0.06256109 0.06256109
0.13499242 0.06256109 0.06256109
0.14452917 0.06256109 0.06256109
0.15407131 0.06256109 0.06256109
0.16381823 0.06256109 0.06256109
0.17385176 0.06256109 0.06256109
0.18424181 0.06256109 0.06256109
0.19505127 0.06256109 0.06256109
0.20633906 0.06256109 0.06256109
0.21816207 0.06256109 0.06256109
0.23057654 0.06256109 0.06256109
0.24363907 0.06256109 0.06256109
0.25740730 0.06256109 0.06256109
0.27194060 0.06256109 0.06256109
0.28730052 0.06256109 0.06256109
0.30355128 0.06256109 0.06256109
0.32076014 0.06256109 0.06256109
0.33899779 0.06256109 0.06256109
0.35833875 0.06256109 0.06256109
0.37886168 0.06256109 0.06256109
0.40064981 0.06256109 0.06256109
0.42379126 0.06256109 0.06256109
0.44837946 0.06256109 0.06256109
0.47451353 0.06256109 0.06256109
0.50202706 0.06256109 0.06256109
0.52869711 0.06256109 0.06256109
0.55422758 0.06256109 0.06256109
0.57883197 0.06256109 0.06256109
0.60267451 0.06256109 0.06256109
0.62588398 0.06256109 0.06256109
0.64856296 0.06256109 0.06256109
0.67079429 0.06256109 0.06256109
0.69264565 0.06256109 0.06256109
0.71417287 0.06256109 0.06256109
0.73542238 0.06256109 0.06256109
0.75643311 0.06256109 0.06256109
0.77723788 0.06256109 0.06256109
0.79786450 0.06256109 0.06256109
0.81833669 0.06256109 0.06256109
0.83867472 0.06256109 0.06256109
0.85889602 0.06256109 0.06256109
0.87901556 0.06256109 0.06256109
0.89904631 0.06256109 0.06256109
0.91899947 0.06256109 0.06256109
0.93888477 0.06256109 0.06256109
0.95871068 0.06256109 0.06256109
0.97848454 0.06256109 0.06256109
0.99821278 0.06256109 0.06256109
1.01790099 0.06256109 0.06256109
1.03755408 0.06256109 0.06256109
1.05717633 0.06256109 0.06256109
1.07677148 0.06256109 0.06256109
1.09634283 0.06256109 0.06256109
0.06256109 0.06256109 0.06256109
0.06256109 0.06256109 0.06256109
0.06256109 0.06256109 0.06256109
0.06256109 0.06256109 0.06256109
0.06256109 0.06256109 0.06256109
0.06256109 0.06256109 0.06256109
0.06256109 0.06256109 0.06256109
0.06256109 0.06256109 0.06256109
0.06256109 0.06256109 0.06256109
0.06256109 0.06256109 0.06256109
0.08738089 0.06256109 0.06256109
0.10976571 0.06256109 0.06256109
0.12395136 0.06256109 0.06256109
0.13499242 0.06256109 0.06256109
0.14452917 0.06256109 0.06256109
0.15407131 0.06256109 0.06256109
0.16381823 0.06256109 0.06256109
0.17385176 0.06256109 0.06256109
0.18424181 0.06256109 0.06256109
0.19505127 0.06256109 0.06256109
0.20633906 0.06256109 0.06256109
0.21816207 0.06256109 0.06256109
0.23057654 0.06256109 0.06256109
0.24363907 0.06256109 0.06256109
0.25740730 0.06256109 0.06256109
0.27194060 0.06256109 0.06256109
0.28730052 0.06256109 0.06256109
0.30355128 0.06256109 0.06256109
0.32076014 0.06256109 0.06256109
0.33899779 0.06256109 0.06256109
0.35833875 0.06256109 0.06256109
0.37886168 0.06256109 0.06256109
0.40064981 0.06256109 0.06256109
0.42379126 0.06256109 0.06256109
0.44837946 0.06256109 0.06256109
0.47451353 0.06256109 0.06256109
0.50202706 0.06256109 0.06256109
0.52869711 0.06256109 0.06256109
0.55422758 0.06256109 0.06256109
0.57883197 0.06256109 0.06256109
0.60267451 0.06256109 0.06256109
0.62588398 0.06256109 0.06256109
0.64856296 0.06256109 0.06256109
0.67079429 0.06256109 0.06256109
0.69264565 0.06256109 0.06256109
0.71417287 0.06256109 0.06256109
0.73542238 0.06256109 0.06256109
0.75643311 0.06256109 0.06256109
0.77723788 0.06256109 0.06256109
0.79786450 0.06256109 0.06256109
0.81833669 0.06256109 0.06256109
0.83867472 0.06256109 0.06256109
0.85889602 0.06256109 0.06256109
0.87901556 0.06256109 0.06256109
0.89904631 0.06256109 0.06256109
0.91899947 0.06256109 0.06256109
0.93888477 0.06256109 0.06256109
0.95871068 0.06256109 0.06256109
0.97848454 0.06256109 0.06256109
0.99821278 0.06256109 0.06256109
1.01790099 0.06256109 0.06256109
1.03755408 0.06256109 0.06256109
1.05717633 0.06256109 0.06256109
1.07677148 0.06256109 0.06256109
1.09634283 0.06256109 0.06256109
0.06256109 0.06256109 0.06256109
0.06256109 0.06256109 0.06256109
0.06256109 0.06256109 0.06256109
0.06256109 0.06256109 0.06256109
0.06256109 0.06256109 0.06256109
0.06256109 0.06256109 0.06256109
0.06256109 0.06256109 0.06256109
0.06256109 0.06256109 0.06256109
0.06256109 0.06256109 0.06256109
0.06256109 0.06256109 0.06256109
0.08738089 0.06256109 0.06256109
0.10976571 0.06256109 0.06256109
0.12395136 0.06256109 0.06256109
0.13499242 0.06256109 0.06256109
0.14452917 0.06256109 0.06256109
0.15407131 0.06256109 0.06256109
0.16381823 0.06256109 0.06256109
0.17385176 0.06256109 0.06256109
0.18424181 0.06256109 0.06256109
0.19505127 0.06256109 0.06256109
0.20633906 0.06256109 0.06256109
0.21816207 0.06256109 0.06256109
0.23057654 0.06256109 0.06256109
0.24363907 0.06256109 0.06256109
0.25740730 0.06256109 0.06256109
0.27194060 0.06256109 0.06256109
0.28730052 0.06256109 0.06256109
0.30355128 0.06256109 0.06256109
0.32076014 0.06256109 0.06256109
0.33899779 0.06256109 0.06256109
0.35833875 0.06256109 0.06256109
0.37886168 0.06256109 0.06256109
0.40064981 0.06256109 0.06256109
0.42379126 0.06256109 0.06256109
0.44837946 0.06256109 0.06256109
0.47451353 0.06256109 0.06256109
0.50202706 0.06256109 0.06256109
0.52869711 0.06256109 0.06256109
0.55422758 0.06256109 0.06256109
0.57883197 0.06256109 0.06256109
0.60267451 0.06256109 0.06256109
0.62588398 0.06256109 0.06256109
0.64856296 0.06256109 0.06256109
0.67079429 0.06256109 0.06256109
0.69264565 0.06256109 0.06256109
0.71417287 0.06256109 0.06256109
0.73542238 0.06256109 0.06256109
0.75643311 0.06256109 0.06256109
0.77723788 0.06256109 0.06256109
0.79786450 0.06256109 0.06256109
0.81833669 0.06256109 0.06256109
0.83867472 0.06256109 0.06256109
0.85889602 0.06256109 0.06256109
0.87901556 0.06256109 0.06256109
0.89904631 0.06256109 0.06256109
0.91899947 0.06256109 0.06256109
0.93888477 0.06256109 0.06256109
0.95871068 0.06256109 0.06256109
0.97848454 0.06256109 0.06256109
0.99821278 0.06256109 0.06256109
1.01790099 0.06256109 0.06256109
1.03755408 0.06256109 0.06256109
1.05717633 0.06256109 0.06256109
1.07677148 0.06256109 0.06256109
1.09634283 0.06256109 0.06256109
0.06256109 0.06256109 0.06256109
0.06256109 0.06256109 0.06256109
0.06256109 0.06256109 0.06256109
0.06256109 0.06256109 0.06256109
0.06256109 0.06256109 0.06256109
0.06256109 0.06256109 0.06256109
0.06256109 0.06256109 0.06256109
0.06256109 0.06256109 0.06256109
0.06256109 0.06256109 0.06256109
0.06256109 0.06256109 0.06256109
0.08738089 0.06256109 0.06256109
0.10976571 0.06256109 0.06256109
0.12395136 0.06256109 0.06256109
0.13499242 0.06256109 0.06256109
0.14452917 0.06256109 0.06256109
0.15407131 0.06256109 0.06256109
0.16381823 0.06256109 0.06256109
0.17385176 0.06256109 0.06256109
0.18424181 0.06256109 0.06256109
0.19505127 0.06256109 0.06256109
0.20633906 0.06256109 0.06256109
0.21816207 0.06256109 0.06256109
0.23057654 0.06256109 0.06256109
0.24363907 0.06256109 0.06256109
0.25740730 0.06256109 0.06256109
0.27194060 0.06256109 0.06256109
0.28730052 0.06256109 0.06256109
0.30355128 0.06256109 0.06256109
0.32076014 0.06256109 0.06256109
0.33899779 0.06256109 0.06256109
0.35833875 0.06256109 0.06256109
0.37886168 0.06256109 0.06256109
0.40064981 0.06256109 0.06256109
0.42379126 0.06256109 0.06256109
0.44837946 0.06256109 0.06256109
0.47451353 0.06256109 0.06256109
0.50202706 0.06256109 0.06256109
0.52869711 0.06256109 0.06256109
0.55422758 0.06256109 0.06256109
0.57883197 0.06256109 0.06256109
0.60267451 0.06256109 0.06256109
0.62588398 0.06256109 0.06256109
0.64856296 0.06256109 0.06256109
0.67079429 0.06256109 0.06256109
0.69264565 0.06256109 0.06256109
0.71417287 0.06256109 0.06256109
0.73542238 0.06256109 0.06256109
0.75643311 0.06256109 0.06256109
0.77723788 0.06256109 0.06256109
0.79786450 0.06256109 0.06256109
0.81833669 0.06256109 0.06256109
0.83867472 0.06256109 0.06256109
0.85889602 0.06256109 0.06256109
0.87901556 0.06256109 0.06256109
0.89904631 0.06256109 0.06256109
0.91899947 0.06256109 0.06256109
0.93888477 0.06256109 0.06256109
0.95871068 0.06256109 0.06256109
0.97848454 0.06256109 0.06256109
0.99821278 0.06256109 0.06256109
1.01790099 0.06256109 0.06256109
1.03755408 0.06256109 0.06256109
1.05717633 0.06256109 0.06256109
1.07677148 0.06256109 0.06256109
1.09634283 0.06256109 0.06256109
0.06256109 0.06256109 0.06256109
0.06256109 0.06256109 0.06256109
0.06256109 0.06256109 0.06256109
0.06256109 0.06256109 0.06256109
0.06256109 0.06256109 0.06256109
0.06256109 0.06256109 0.06256109
0.06256109 0.06256109 0.06256109
0.06256109 0.06256109 0.06256109
0.06256109 0.06256109 0.06256109
0.06256109 0.06256109 0.06256109
0.08738089 0.06256109 0.06256109
0.10976571 0.06256109 0.06256109
0.12395136 0.06256109 0.06256109
0.13499242 0.06256109 0.06256109
0.14452917 0.06256109 0.06256109
0.15407131 0.06256109 0.06256109
0.16381823 0.06256109 0.06256109
0.17385176 0.06256109 0.06256109
0.18424181 0.06256109 0.06256109
0.19505127 0.06256109 0.06256109
0.20633906 0.06256109 0.06256109
0.21816207 0.06256109 0.06256109
0.23057654 0.06256109 0.06256109
0.24363907 0.06256109 0.06256109
0.25740730 0.06256109 0.06256109
0.27194060 0.06256109 0.06256109
0.28730052 0.06256109 0.06256109
0.30355128 0.06256109 0.06256109
0.32076014 0.06256109 0.06256109
0.33899779 0.06256109 0.06256109
0.35833875 0.06256109 0.06256109
0.37886168 0.06256109 0.06256109
0.40064981 0.06256109 0.06256109
0.42379126 0.06256109 0.06256109
0.44837946 0.06256109 0.06256109
0.47451353 0.06256109 0.06256109
0.50202706 0.06256109 0.06256109
0.52869711 0.06256109 0.06256109
0.55422758 0.06256109 0.06256109
0.57883197 0.06256109 0.06256109
0.60267451 0.06256109 0.06256109
0.62588398 0.06256109 0.06256109
0.64856296 0.06256109 0.06256109
0.67079429 0.06256109 0.06256109
0.69264565 0.06256109 0.06256109
0.71417287 0.06256109 0.06256109
0.73542238 0.06256109 0.06256109
0.75643311 0.06256109 0.06256109
0.77723788 0.06256109 0.06256109
0.79786450 0.06256109 0.06256109
0.81833669 0.06256109 0.06256109
0.83867472 0.06256109 0.06256109
0.85889602 0.06256109 0.06256109
0.87901556 0.06256109 0.06256109
0.89904631 0.06256109 0.06256109
0.91899947 0.06256109 0.06256109
0.93888477 0.06256109 0.06256109
0.95871068 0.06256109 0.06256109
0.97848454 0.06256109 0.06256109
0.99821278 0.06256109 0.06256109
1.01790099 0.06256109 0.06256109
1.03755408 0.06256109 0.06256109
1.05717633 0.06256109 0.06256109
1.07677148 0.06256109 0.06256109
1.09634283 0.06256109 0.06256109
0.06256109 0.06256109 0.06256109
0.06256109 0.06256109 0.06256109
0.06256109 0.06256109 0.06256109
0.06256109 0.06256109 0.06256109
0.06256109 0.06256109 0.06256109
0.06256109 0.06256109 0.06256109
0.06256109 0.06256109 0.06256109
0.06256109 0.06256109 0.06256109
0.06256109 0.06256109 0.06256109
0.06256109 0.06256109 0.06256109
0.08738089 0.06256109 0.06256109
0.10976571 0.06256109 0.06256109
0.12395136 0.06256109 0.06256109
0.13499242 0.06256109 0.06256109
0.14452917 0.06256109 0.06256109
0.15407131 0.06256109 0.06256109
0.16381823 0.06256109 0.06256109
0.17385176 0.06256109 0.06256109
0.18424181 0.06256109 0.06256109
0.19505127 0.06256109 0.06256109
0.20633906 0.06256109 0.06256109
0.21816207 0.06256109 0.06256109
0.23057654 0.06256109 0.06256109
0.24363907 0.06256109 0.06256109
0.25740730 0.06256109 0.06256109
0.27194060 0.06256109 0.06256109
0.28730052 0.06256109 0.06256109
0.30355128 0.06256109 0.06256109
0.32076014 0.06256109 0.06256109
0.33899779 0.06256109 0.06256109
0.35833875 0.06256109 0.06256109
0.37886168 0.06256109 0.06256109
0.40064981 0.06256109 0.06256109
0.42379126 0.06256109 0.06256109
0.44837946 0.06256109 0.06256109
0.47451353 0.06256109 0.06256109
0.50202706 0.06256109 0.06256109
0.52869711 0.06256109 0.06256109
0.55422758 0.06256109 0.06256109
0.57883197 0.06256109 0.06256109
0.60267451 0.06256109 0.06256109
0.62588398 0.06256109 0.06256109
0.64856296 0.06256109 0.06256109
0.67079429 0.06256109 0.06256109
0.69264565 0.06256109 0.06256109
0.71417287 0.06256109 0.06256109
0.73542238 0.06256109 0.06256109
0.75643311 0.06256109 0.06256109
0.77723788 0.06256109 0.06256109
0.79786450 0.06256109 0.06256109
0.81833669 0.06256109 0.06256109
0.83867472 0.06256109 0.06256109
0.85889602 0.06256109 0.06256109
0.87901556 0.06256109 0.06256109
0.89904631 0.06256109 0.06256109
0.91899947 0.06256109 0.06256109
0.93888477 0.06256109 0.06256109
0.95871068 0.06256109 0.06256109
0.97848454 0.06256109 0.06256109
0.99821278 0.06256109 0.06256109
1.01790099 0.06256109 0.06256109
1.03755408 0.06256109 0.06256109
1.05717633 0.06256109 0.06256109
1.07677148 0.06256109 0.06256109
1.09634283 0.06256109 0.06256109
0.06256109 0.06256109 0.06256109
0.06256109 0.06256109 0.06256109
0.06256109 0.06256109 0.06256109
0.06256109 0.06256109 0.06256109
0.06256109 0.06256109 0.06256109
0.06256109 0.06256109 0.06256109
0.06256109 0.06256109 0.06256109
0.06256109 0.06256109 0.06256109
0.06256109 0.06256109 0.06256109
0.06256109 0.06256109 0.06256109
0.08738089 0.06256109 0.06256109
0.10976571 0.06256109 0.06256109
0.12395136 0.06256109 0.06256109
0.13499242 0.06256109 0.06256109
0.14452917 0.06256109 0.06256109
0.15407131 0.06256109 0.06256109
0.16381823 0.06256109 0.06256109
0.17385176 0.06256109 0.06256109
0.18424181 0.06256109 0.06256109
0.19505127 0.06256109 0.06256109
0.20633906 0.06256109 0.06256109
0.21816207 0.06256109 0.06256109
0.23057654 0.06256109 0.06256109
0.24363907 0.06256109 0.06256109
0.25740730 0.06256109 0.06256109
0.27194060 0.06256109 0.06256109
0.28730052 0.06256109 0.06256109
0.30355128 0.06256109 0.06256109
0.32076014 0.06256109 0.06256109
0.33899779 0.06256109 0.06256109
0.35833875 0.06256109 0.06256109
0.37886168 0.06256109 0.06256109
0.40064981 0.06256109 0.06256109
0.42379126 0.06256109 0.06256109
0.44837946 0.06256109 0.06256109
0.47451353 0.06256109 0.06256109
0.50202706 0.06256109 0.06256109
0.52869711 0.06256109 0.06256109
0.55422758 0.06256109 0.06256109
0.57883197 0.06256109 0.06256109
0.60267451 0.06256109 0.06256109
0.62588398 0.06256109 0.06256109
0.64856296 0.06256109 0.06256109
0.67079429 0.06256109 0.06256109
0.69264565 0.06256109 0.06256109
0.71417287 0.06256109 0.06256109
0.73542238 0.06256109 0.06256109
0.75643311 0.06256109 0.06256109
0.77723788 0.06256109 0.06256109
0.79786450 0.06256109 0.06256109
0.81833669 0.06256109 0.06256109
0.83867472 0.06256109 0.06256109
0.85889602 0.06256109 0.06256109
0.87901556 0.06256109 0.06256109
0.89904631 0.06256109 0.06256109
0.91899947 0.06256109 0.06256109
0.93888477 0.06256109 0.06256109
0.95871068 0.06256109 0.06256109
0.97848454 0.06256109 0.06256109
0.99821278 0.06256109 0.06256109
1.01790099 0.06256109 0.06256109
1.03755408 0.06256109 0.06256109
1.05717633 0.06256109 0.06256109
1.07677148 0.06256109 0.06256109
1.09634283 0.06256109 0.06256109
0.06256109 0.08738089 0.06256109
0.06256109 0.08738089 0.06256109
0.06256109 0.08738089 0.06256109
0.06256109 0.08738089 0.06256109
0.06256109 0.08738089 0.06256109
0.06256109 0.08738089 0.06256109
0.06256109 0.08738089 0.06256109
0.06256109 0.08738089 0.06256109
0.06256109 0.08738089 0.06256109
0.06256109 0.08738089 0.06256109
0.08738089 0.08738089 0.06256109
0.10976571 0.08738089 0.06256109
0.12395136 0.08738089 0.06256109
0.13499242 0.08738089 0.06256109
0.14452917 0.08738089 0.06256109
0.15407131 0.08738089 0.06256109
0.16381823 0.08738089 0.06256109
0.17385176 0.08738089 0.06256109
0.18424181 0.08738089 0.06256109
0.19505127 0.08738089 0.06256109
0.20633906 0.08738089 0.06256109
0.21816207 0.08738089 0.06256109
0.23057654 0.08738089 0.06256109
0.24363907 0.08738089 0.06256109
0.25740730 0.08738089 0.06256109
0.27194060 0.08738089 0.06256109
0.28730052 0.08738089 0.06256109
0.30355128 0.08738089 0.06256109
0.32076014 0.08738089 0.06256109
0.33899779 0.08738089 0.06256109
0.35833875 0.08738089 0.06256109
0.37886168 0.08738089 0.06256109
0.40064981 0.08738089 0.06256109
0.42379126 0.08738089 0.06256109
0.44837946 0.08738089 0.06256109
0.47451353 0.08738089 0.06256109
0.50202706 0.08738089 0.06256109
0.52869711 0.08738089 0.06256109
0.55422758 0.08738089 0.06256109
0.57883197 0.08738089 0.06256109
0.60267451 0.08738089 0.06256109
0.62588398 0.08738089 0.06256109
0.64856296 0.08738089 0.06256109
0.67079429 0.08738089 0.06256109
0.69264565 0.08738089 0.06256109
0.71417287 0.08738089 0.06256109
0.73542238 0.08738089 0.06256109
0.75643311 0.08738089 0.06256109
0.77723788 0.08738089 0.06256109
0.79786450 0.08738089 0.06256109
0.81833669 0.08738089 0.06256109
0.83867472 0.08738089 0.06256109
0.85889602 0.08738089 0.06256109
0.87901556 0.08738089 0.06256109
0.89904631 0.08738089 0.06256109
0.91899947 0.08738089 0.06256109
0.93888477 0.08738089 0.06256109
0.95871068 0.08738089 0.06256109
0.97848454 0.08738089 0.06256109
0.99821278 0.08738089 0.06256109
1.01790099 0.08738089 0.06256109
1.03755408 0.08738089 0.06256109
1.05717633 0.08738089 0.06256109
1.07677148 0.08738089 0.06256109
1.09634283 0.08738089 0.06256109
0.06256109 0.10976571 0.06256109
0.06256109 0.10976571 0.06256109
0.06256109 0.10976571 0.06256109
0.06256109 0.10976571 0.06256109
0.06256109 0.10976571 0.06256109
0.06256109 0.10976571 0.06256109
0.06256109 0.10976571 0.06256109
0.06256109 0.10976571 0.06256109
0.06256109 0.10976571 0.06256109
