Processors/avs_plugins/LUTs/ALog_to_Linear_BT709.cube
TITLE "ALog_to_BT709"
LUT_3D_SIZE 9
# Apple Log BT2020 to BT709 SDR by Francesco Bucciantini
0.00000000 0.00000000 0.00000000
0.17825264 0.00000000 0.00000000
0.26994525 0.00000000 0.00000000
0.39413928 0.00000000 0.00000000
0.60672998 0.00000000 0.00000000
0.95347921 0.00000000 0.00000000
1.50752164 0.00000000 0.00000000
2.38575049 0.00000000 0.00000000
3.77373408 0.00000000 0.00000000
0.00000000 0.07042340 0.00000000
0.05720450 0.04300592 0.00000000
0.20071919 0.03082661 0.00000000
0.35317710 0.00510987 0.00000000
0.58291571 0.00000000 0.00000000
0.93975890 0.00000000 0.00000000
1.49964604 0.00000000 0.00000000
2.38123615 0.00000000 0.00000000
3.77114777 0.00000000 0.00000000
0.00000000 0.17430776 0.00000000
0.00000000 0.15239029 0.00000000
0.15938975 0.14148634 0.00000000
0.33310474 0.11589176 0.00000000
0.57196083 0.04504929 0.00000000
0.93358675 0.00000000 0.00000000
1.49613154 0.00000000 0.00000000
2.37922747 0.00000000 0.00000000
3.76999820 0.00000000 0.00000000
0.00000000 0.29860095 0.00000000
0.00000000 0.28712383 0.00000000
0.04078024 0.28185481 0.00000000
0.28537430 0.27034579 0.00000000
0.54797874 0.23534095 0.00000000
0.92039150 0.08381523 0.00000000
1.48867778 0.00000000 0.00000000
2.37497938 0.00000000 0.00000000
3.76756946 0.00000000 0.00000000
0.00000000 0.48993837 0.00000000
0.00000000 0.48355148 0.00000000
0.00000000 0.48068246 0.00000000
0.04939102 0.47455781 0.00000000
0.47447816 0.45718874 0.00000000
0.88281845 0.40481139 0.00000000
1.46790853 0.18116708 0.00000000
2.36322920 0.00000000 0.00000000
3.76086911 0.00000000 0.00000000
0.00000000 0.78922584 0.00000000
0.00000000 0.78560437 0.00000000
0.00000000 0.78398926 0.00000000
0.00000000 0.78056590 0.00000000
0.07311129 0.77104191 0.00000000
0.76784086 0.74405360 0.00000000
1.40877752 0.66289279 0.00000000
2.33048892 0.32571497 0.00000000
3.74233605 0.00000000 0.00000000
0.00000000 1.25996454 0.00000000
0.00000000 1.25789782 0.00000000
0.00000000 1.25697843 0.00000000
0.00000000 1.25503449 0.00000000
0.00000000 1.24966068 0.00000000
0.13851373 1.23471180 0.00000000
1.22792907 1.19236247 0.00000000
2.23728083 1.06512910 0.00000000
3.69069657 0.54125051 0.00000000
0.00000000 2.00183696 0.00000000
0.00000000 2.00065481 0.00000000
0.00000000 2.00012940 0.00000000
0.00000000 1.99901945 0.00000000
0.00000000 1.99595800 0.00000000
0.00000000 1.98749505 0.00000000
0.25551819 1.96395358 0.00000000
1.95226592 1.89726843 0.00000000
3.54368729 1.69698975 0.00000000
0.00000000 3.17184319 0.00000000
0.00000000 3.17116645 0.00000000
0.00000000 3.17086577 0.00000000
0.00000000 3.17023076 0.00000000
0.00000000 3.16848071 0.00000000
0.00000000 3.16365372 0.00000000
0.00000000 3.15031025 0.00000000
0.42884238 3.11319305 0.00000000
3.09418931 3.00805610 0.00000000
0.00000000 0.00000000 0.06730408
0.16614111 0.00000000 0.06330853
0.26246629 0.00000000 0.06153364
0.38933033 0.00000000 0.05778593
0.60383772 0.00000000 0.04746204
0.95179112 0.00000000 0.01902261
1.50654799 0.00000000 0.00000000
2.38519141 0.00000000 0.00000000
3.77341357 0.00000000 0.00000000
0.00000000 0.06858543 0.04516351
0.04116795 0.04116795 0.04116795
0.19016924 0.02898864 0.03939306
0.34770909 0.00327190 0.03564535
0.57988297 0.00000000 0.02532147
0.93804128 0.00000000 0.00000000
1.49866623 0.00000000 0.00000000
2.38067578 0.00000000 0.00000000
3.77082699 0.00000000 0.00000000
0.00000000 0.17293190 0.03532828
0.00000000 0.15079842 0.03133273
0.14558835 0.13976244 0.02955784
0.32724997 0.11405379 0.02581013
0.56885921 0.04321132 0.01548624
0.93185553 0.00000000 0.00000000
1.49514895 0.00000000 0.00000000
2.37866654 0.00000000 0.00000000
3.76967730 0.00000000 0.00000000
0.00000000 0.29784726 0.01456110
0.00000000 0.28633573 0.01056555
0.02474370 0.28104994 0.00879066
0.27836343 0.26950193 0.00504295
0.54471593 0.23435428 0.00000000
0.91863056 0.08197726 0.00000000
1.48768926 0.00000000 0.00000000
2.37441722 0.00000000 0.00000000
3.76724831 0.00000000 0.00000000
0.00000000 0.48951326 0.00000000
0.00000000 0.48311980 0.00000000
0.00000000 0.48024776 0.00000000
0.03335447 0.47411655 0.00000000
0.47061099 0.45672783 0.00000000
0.88096755 0.40428039 0.00000000
1.46690313 0.17984814 0.00000000
2.36266366 0.00000000 0.00000000
3.76054726 0.00000000 0.00000000
0.00000000 0.78898369 0.00000000
0.00000000 0.78536088 0.00000000
0.00000000 0.78374518 0.00000000
0.00000000 0.78032055 0.00000000
0.05707475 0.77079295 0.00000000
0.76565464 0.74379388 0.00000000
1.40772108 0.66259497 0.00000000
2.32991374 0.32503260 0.00000000
3.74201228 0.00000000 0.00000000
0.00000000 1.25982612 0.00000000
0.00000000 1.25775912 0.00000000
0.00000000 1.25683962 0.00000000
0.00000000 1.25489542 0.00000000
0.00000000 1.24952089 0.00000000
0.12241751 1.23456998 0.00000000
1.22668274 1.19221458 0.00000000
2.23667651 1.06495978 0.00000000
3.69036728 0.54087226 0.00000000
0.00000000 2.00175774 0.00000000
0.00000000 2.00057553 0.00000000
0.00000000 2.00005010 0.00000000
0.00000000 1.99894010 0.00000000
0.00000000 1.99587850 0.00000000
0.00000000 1.98741513 0.00000000
0.24754638 1.96387251 0.00000000
1.95155329 1.89718390 0.00000000
3.54334133 1.69689303 0.00000000
0.00000000 3.17179783 0.00000000
0.00000000 3.17112107 0.00000000
0.00000000 3.17082039 0.00000000
0.00000000 3.17018537 0.00000000
0.00000000 3.16843529 0.00000000
0.00000000 3.16360821 0.00000000
0.00000000 3.15026451 0.00000000
0.42448676 3.11314665 0.00000000
3.09378141 3.00800773 0.00000000
0.00000000 0.00000000 0.17091411
0.16044347 0.00000000 0.16784201
0.25906576 0.00000000 0.16645767
0.38717193 0.00000000 0.16349309
0.60254767 0.00000000 0.15501075
0.95104009 0.00000000 0.12841886
1.50611524 0.00000000 0.05007615
2.38494300 0.00000000 0.00000000
3.77327118 0.00000000 0.00000000
0.00000000 0.06776897 0.15305359
0.03404425 0.04035149 0.14958637
0.18527107 0.02817218 0.14801841
0.34524814 0.00245544 0.14464827
0.57852976 0.00000000 0.13490347
0.93727708 0.00000000 0.10627828
1.49823073 0.00000000 0.02793557
2.38042681 0.00000000 0.00000000
3.77068449 0.00000000 0.00000000
0.00000000 0.17231690 0.14435932
0.00000000 0.15008552 0.14066417
0.13898941 0.13898941 0.13898941
0.32461035 0.11323734 0.13538140
0.56747501 0.04239486 0.12488249
0.93108526 0.00000000 0.09644306
1.49471222 0.00000000 0.01810035
2.37841731 0.00000000 0.00000000
3.76953475 0.00000000 0.00000000
0.00000000 0.29751176 0.12395735
0.00000000 0.28598485 0.11996180
0.01761999 0.28069156 0.11818690
0.27518409 0.26912611 0.11443920
0.54325915 0.23391450 0.10411531
0.91784702 0.08116080 0.07567588
1.48724989 0.00000000 0.00000000
2.37416745 0.00000000 0.00000000
3.76710565 0.00000000 0.00000000
0.00000000 0.48932428 0.06674956
0.00000000 0.48292789 0.06275400
0.00000000 0.48005451 0.06097911
0.02623076 0.47392037 0.05723140
0.46888117 0.45652291 0.04690752
0.88014386 0.40404425 0.01846808
1.46645625 0.17925885 0.00000000
2.36241238 0.00000000 0.00000000
3.76040429 0.00000000 0.00000000
0.00000000 0.78887609 0.00000000
0.00000000 0.78525270 0.00000000
0.00000000 0.78363673 0.00000000
0.00000000 0.78021153 0.00000000
0.04995104 0.77068233 0.00000000
0.76468109 0.74367847 0.00000000
1.40725148 0.66246262 0.00000000
2.32965818 0.32472895 0.00000000
3.74186844 0.00000000 0.00000000
0.00000000 1.25976462 0.00000000
0.00000000 1.25769751 0.00000000
0.00000000 1.25677795 0.00000000
0.00000000 1.25483364 0.00000000
0.00000000 1.24945878 0.00000000
0.11529380 1.23450697 0.00000000
1.22612861 1.19214887 0.00000000
2.23640800 1.06488456 0.00000000
3.69022099 0.54070414 0.00000000
0.00000000 2.00172255 0.00000000
0.00000000 2.00054031 0.00000000
0.00000000 2.00001487 0.00000000
0.00000000 1.99890485 0.00000000
0.00000000 1.99584318 0.00000000
0.00000000 1.98737963 0.00000000
0.24391117 1.96383649 0.00000000
1.95123663 1.89714635 0.00000000
3.54318764 1.69685007 0.00000000
0.00000000 3.17177768 0.00000000
0.00000000 3.17110092 0.00000000
0.00000000 3.17080023 0.00000000
0.00000000 3.17016521 0.00000000
0.00000000 3.16841511 0.00000000
0.00000000 3.16358800 0.00000000
0.00000000 3.15024419 0.00000000
0.42253517 3.11312604 0.00000000
3.09360019 3.00798624 0.00000000
0.00000000 0.00000000 0.29554037
0.14763716 0.00000000 0.29387969
0.25171525 0.00000000 0.29313856
0.38256813 0.00000000 0.29156662
0.59981298 0.00000000 0.28718575
0.94945196 0.00000000 0.27470649
1.50520098 0.00000000 0.23646320
2.38441839 0.00000000 0.06525521
3.77297051 0.00000000 0.00000000
0.00000000 0.06604501 0.28620002
0.01900246 0.03862753 0.28447729
0.17443454 0.02644823 0.28370821
0.33998452 0.00073148 0.28207650
0.57566015 0.00000000 0.27752528
0.93566101 0.00000000 0.26452819
1.49731068 0.00000000 0.22432125
2.37990099 0.00000000 0.04311464
3.77038357 0.00000000 0.00000000
0.00000000 0.17101046 0.28193796
0.00000000 0.14856824 0.28018548
0.12391230 0.13734210 0.27940301
0.31895452 0.11151338 0.27774261
0.56453915 0.04067090 0.27310950
0.92945633 0.00000000 0.25986213
1.49378956 0.00000000 0.21868608
2.37789095 0.00000000 0.03327941
3.76923371 0.00000000 0.00000000
0.00000000 0.29680193 0.27268997
0.00000000 0.28524235 0.27086964
0.00257821 0.27993313 0.27005656
0.26833061 0.26833061 0.26833061
0.54016798 0.23298285 0.26351001
0.91618996 0.07943684 0.24968625
1.48632164 0.00000000 0.20622456
2.37363996 0.00000000 0.01251223
3.76680438 0.00000000 0.00000000
0.00000000 0.48892497 0.24516620
0.00000000 0.48252238 0.24311239
0.00000000 0.47964616 0.24219380
0.01118898 0.47350584 0.24024124
0.46520396 0.45608988 0.23476840
0.87840160 0.40354510 0.21889968
1.46551212 0.17800760 0.16660402
2.36188170 0.00000000 0.00000000
3.76010237 0.00000000 0.00000000
0.00000000 0.78864884 0.14011963
0.00000000 0.78502420 0.13630306
0.00000000 0.78340767 0.13457113
0.00000000 0.77998127 0.13063127
0.03490926 0.77044869 0.12030738
0.76262060 0.74343472 0.09186795
1.40625930 0.66218306 0.01352524
2.32911846 0.32408672 0.00000000
3.74156470 0.00000000 0.00000000
0.00000000 1.25963477 0.00000000
0.00000000 1.25756740 0.00000000
0.00000000 1.25664772 0.00000000
0.00000000 1.25470317 0.00000000
0.00000000 1.24932764 0.00000000
0.10025202 1.23437392 0.00000000
1.22495757 1.19201012 0.00000000
2.23584091 1.06472571 0.00000000
3.68991208 0.54034894 0.00000000
0.00000000 2.00164824 0.00000000
0.00000000 2.00046595 0.00000000
0.00000000 1.99994048 0.00000000
0.00000000 1.99883041 0.00000000
0.00000000 1.99576860 0.00000000
0.00000000 1.98730467 0.00000000
0.23602888 1.96376044 0.00000000
1.95056779 1.89706706 0.00000000
3.54286308 1.69675935 0.00000000
0.00000000 3.17173513 0.00000000
0.00000000 3.17105836 0.00000000
0.00000000 3.17075766 0.00000000
0.00000000 3.17012264 0.00000000
0.00000000 3.16837251 0.00000000
0.00000000 3.16354532 0.00000000
0.00000000 3.15020129 0.00000000
0.41837961 3.11308251 0.00000000
3.09321751 3.00794086 0.00000000
0.00000000 0.00000000 0.48634189
0.10692482 0.00000000 0.48540918
0.23009759 0.00000000 0.48499418
0.36954220 0.00000000 0.48411654
0.59220257 0.00000000 0.48168921
0.94506061 0.00000000 0.47492752
1.50267900 0.00000000 0.45569248
2.38297251 0.00000000 0.39704020
3.77214210 0.00000000 0.10706931
0.00000000 0.06129598 0.48114684
0.00000000 0.03387851 0.48020232
0.13992187 0.02169920 0.47978206
0.32497696 0.00000000 0.47889325
0.56766673 0.00000000 0.47643479
0.93119186 0.00000000 0.46958457
1.49477265 0.00000000 0.45008211
2.37845179 0.00000000 0.39043991
3.76955447 0.00000000 0.08492873
0.00000000 0.16735447 0.47881796
0.00000000 0.14430080 0.47786807
0.08247637 0.13269295 0.47744540
0.30274740 0.10676435 0.47655149
0.55635728 0.03592187 0.47407884
0.92495136 0.00000000 0.46718824
1.49124431 0.00000000 0.44756358
2.37644026 0.00000000 0.38746617
3.76840430 0.00000000 0.07509351
0.00000000 0.29483650 0.47385653
0.00000000 0.28318556 0.47289499
0.00000000 0.27783174 0.47246712
0.24834259 0.26612535 0.47156218
0.53154330 0.23039465 0.46905879
0.91160659 0.07468782 0.46208066
1.48376096 0.00000000 0.44219072
2.37218612 0.00000000 0.38109880
3.76597432 0.00000000 0.05432633
0.00000000 0.48782300 0.45986492
0.00000000 0.48140326 0.45886908
0.00000000 0.47851917 0.45842590
0.00000000 0.47236173 0.45748848
0.45489450 0.45489450 0.45489450
0.87358073 0.40216639 0.44765804
1.46290750 0.17451029 0.42698161
2.36041909 0.00000000 0.36288826
3.75927051 0.00000000 0.00000000
0.00000000 0.78802243 0.41847973
0.00000000 0.78439435 0.41736812
0.00000000 0.78277627 0.41687321
0.00000000 0.77934657 0.41582598
0.00000000 0.76980463 0.41292518
0.75691003 0.74276276 0.40480934
1.40352176 0.66141223 0.38141225
2.32763088 0.32230998 0.30623197
3.74072783 0.00000000 0.00000000
0.00000000 1.25927697 0.26690040
0.00000000 1.25720889 0.26503509
0.00000000 1.25628890 0.26420173
0.00000000 1.25434368 0.26243226
0.00000000 1.24896629 0.25748690
0.05881609 1.23400730 0.24327694
1.22172472 1.19162781 0.19823865
2.23427783 1.06428796 0.00000000
3.68906095 0.53936905 0.00000000
0.00000000 2.00144351 0.00000000
0.00000000 2.00026107 0.00000000
0.00000000 1.99973554 0.00000000
0.00000000 1.99862533 0.00000000
0.00000000 1.99556315 0.00000000
0.00000000 1.98709816 0.00000000
0.21262177 1.96355093 0.00000000
1.94872390 1.89684862 0.00000000
3.54196884 1.69650939 0.00000000
0.00000000 3.17161792 0.00000000
0.00000000 3.17094111 0.00000000
0.00000000 3.17064041 0.00000000
0.00000000 3.17000535 0.00000000
0.00000000 3.16825514 0.00000000
0.00000000 3.16342774 0.00000000
0.00000000 3.15008310 0.00000000
0.40667656 3.11296262 0.00000000
3.09216302 3.00781586 0.00000000
0.00000000 0.00000000 0.78424196
0.00000000 0.00000000 0.78371145
0.15356161 0.00000000 0.78347565
0.33057796 0.00000000 0.78297748
0.57061695 0.00000000 0.78160321
0.93283575 0.00000000 0.77780255
1.49570513 0.00000000 0.76721685
2.37898401 0.00000000 0.73711770
3.76985891 0.00000000 0.64549420
0.00000000 0.04821373 0.78129685
0.00000000 0.02079626 0.78076396
0.02579509 0.00861695 0.78052710
0.27882920 0.00000000 0.78002669
0.54493055 0.00000000 0.77864623
0.91874613 0.00000000 0.77482832
1.48775410 0.00000000 0.76419360
2.37445409 0.00000000 0.73394666
3.76726937 0.00000000 0.64178035
0.00000000 0.15680725 0.77998434
0.00000000 0.13157816 0.77945038
0.00000000 0.11939885 0.77921305
0.25193894 0.09368210 0.77871164
0.53305154 0.02283962 0.77732840
0.91240384 0.00000000 0.77350275
1.48420565 0.00000000 0.76284605
2.37243846 0.00000000 0.73253280
3.76611836 0.00000000 0.64012242
0.00000000 0.28934368 0.77720430
0.00000000 0.27743016 0.77666807
0.00000000 0.27194780 0.77642973
0.18062700 0.25994112 0.77592618
0.50688981 0.22309145 0.77453703
0.89883621 0.06160557 0.77069490
1.47667930 0.00000000 0.75999136
2.36817561 0.00000000 0.72953675
3.76368658 0.00000000 0.63660492
0.00000000 0.48477221 0.76948427
0.00000000 0.47830455 0.76894164
0.00000000 0.47539848 0.76870044
0.00000000 0.46919314 0.76819087
0.42497822 0.45158248 0.76678505
0.86013364 0.39833982 0.76289648
1.45570347 0.16445873 0.75206084
2.35638431 0.00000000 0.72120699
3.75697781 0.00000000 0.62679438
0.00000000 0.78629377 0.74772622
0.00000000 0.78265616 0.74716478
0.00000000 0.78103380 0.74691521
0.00000000 0.77759496 0.74638793
0.00000000 0.76802713 0.74493311
0.74090796 0.74090796 0.74090796
1.39594715 0.65928330 0.72968323
2.32352705 0.31735667 0.69764842
3.73842130 0.00000000 0.59878269
0.00000000 1.25829069 0.68349791
0.00000000 1.25622066 0.68287333
0.00000000 1.25529981 0.68259567
0.00000000 1.25335274 0.68200893
0.00000000 1.24797022 0.68038955
0.00000000 1.23299670 0.67590483
1.21276556 1.19057388 0.66336469
2.22996511 1.06308097 0.62727713
3.68671509 0.53665886 0.51218231
0.00000000 2.00087942 0.45112611
0.00000000 1.99969658 0.45010770
0.00000000 1.99917087 0.44965444
0.00000000 1.99806027 0.44869563
0.00000000 1.99499704 0.44604196
0.00000000 1.98652914 0.43863498
0.12467274 1.96297365 0.41743630
1.94363354 1.89624671 0.35130370
3.53950403 1.69582062 0.00000000
0.00000000 3.17129500 0.00000000
0.00000000 3.17061811 0.00000000
0.00000000 3.17031737 0.00000000
0.00000000 3.16968223 0.00000000
0.00000000 3.16793181 0.00000000
0.00000000 3.16310380 0.00000000
0.00000000 3.14975750 0.00000000
0.37221757 3.11263230 0.00000000
3.08925595 3.00747148 0.00000000
0.00000000 0.00000000 1.25249362
0.00000000 0.00000000 1.25219054
0.00000000 0.00000000 1.25205587
0.17606053 0.00000000 1.25177147
0.50549228 0.00000000 1.25098761
0.89812725 0.00000000 1.24882525
1.47628846 0.00000000 1.24284518
2.36795470 0.00000000 1.22619027
3.76356065 0.00000000 1.17884189
0.00000000 0.01217578 1.25081301
0.00000000 0.00000000 1.25050944
0.00000000 0.00000000 1.25037455
0.05421135 0.00000000 1.25008969
0.47563340 0.00000000 1.24930457
0.88337390 0.00000000 1.24713870
1.46821058 0.00000000 1.24114887
2.36339916 0.00000000 1.22446621
3.76096584 0.00000000 1.17703427
0.00000000 0.12295768 1.25006559
0.00000000 0.09554020 1.24976179
0.00000000 0.08336089 1.24962681
0.00000000 0.05764414 1.24934174
0.46164149 0.00000000 1.24855606
0.87672507 0.00000000 1.24638863
1.46460502 0.00000000 1.24039444
2.36137209 0.00000000 1.22369942
3.75981248 0.00000000 1.17623022
0.00000000 0.27356261 1.24848562
0.00000000 0.26082956 1.24818136
0.00000000 0.25494259 1.24804618
0.00000000 0.24198149 1.24776068
0.43034296 0.20144699 1.24697379
0.86248481 0.02556761 1.24480306
1.45695654 0.00000000 1.23879965
2.35708499 0.00000000 1.22207844
3.75737574 0.00000000 1.17453030
0.00000000 0.47624978 1.24412079
0.00000000 0.46964471 1.24381525
0.00000000 0.46667557 1.24367950
0.00000000 0.46033268 1.24339279
0.32603212 0.44230903 1.24260258
0.82172698 0.38757184 1.24042266
1.43563284 0.13256915 1.23439365
2.34522611 0.00000000 1.21759967
3.75065325 0.00000000 1.16983216
0.00000000 0.78150827 1.23200072
0.00000000 0.77784403 1.23169157
0.00000000 0.77620972 1.23155421
0.00000000 0.77274534 1.23126411
0.00000000 0.76310516 1.23046454
0.69454764 0.73576977 1.22825872
1.37482098 0.65337622 1.22215757
2.31217650 0.30323197 1.20515844
3.73205851 0.00000000 1.15677152
0.00000000 1.25556897 1.19784887
0.00000000 1.25349354 1.19752910
0.00000000 1.25257027 1.19738702
0.00000000 1.25061810 1.19708696
0.00000000 1.24522138 1.19625989
0.00000000 1.23020763 1.19397800
1.18766479 1.18766479 1.18766479
2.21803225 1.05974753 1.17006185
3.68024350 0.52910862 1.11984415
0.00000000 1.99932450 1.09710536
0.00000000 1.99814054 1.09675006
0.00000000 1.99761434 1.09659219
0.00000000 1.99650270 1.09625874
0.00000000 1.99343657 1.09533958
0.00000000 1.98496062 1.09280274
0.00000000 1.96138233 1.08577771
1.92952701 1.89458742 1.06613823
3.53270335 1.69392148 1.00965512
0.00000000 3.17040525 0.73414706
0.00000000 3.16972813 0.73357326
0.00000000 3.16942728 0.73331819
0.00000000 3.16879193 0.73277928
0.00000000 3.16704091 0.73129228
0.00000000 3.16221125 0.72717735
0.00000000 3.14886036 0.71569643
0.24939645 3.11172215 0.68287973
3.08123054 3.00652255 0.58100239
0.00000000 0.00000000 1.99027390
0.00000000 0.00000000 1.99010046
0.00000000 0.00000000 1.99002341
0.00000000 0.00000000 1.98986072
0.22596514 0.00000000 1.98941244
0.79303533 0.00000000 1.98817693
1.42114012 0.00000000 1.98476865
2.33724542 0.00000000 1.97534299
3.74614411 0.00000000 1.94909242
0.00000000 0.00000000 1.98931262
0.00000000 0.00000000 1.98913908
0.00000000 0.00000000 1.98906199
0.00000000 0.00000000 1.98889919
0.13270208 0.00000000 1.98845066
0.77587224 0.00000000 1.98721443
1.41268098 0.00000000 1.98380415
2.33261715 0.00000000 1.97437292
3.74353462 0.00000000 1.94810652
0.00000000 0.02368315 1.98888542
0.00000000 0.00000000 1.98871184
0.00000000 0.00000000 1.98863473
0.00000000 0.00000000 1.98847189
0.07502710 0.00000000 1.98802324
0.76810154 0.00000000 1.98678669
1.40890367 0.00000000 1.98337551
2.33055762 0.00000000 1.97394181
3.74237473 0.00000000 1.94766838
0.00000000 0.22357036 1.98798303
0.00000000 0.20737345 1.98780935
0.00000000 0.19971082 1.98773220
0.00000000 0.18236517 1.98756927
0.00000000 0.12144437 1.98712037
0.75137908 0.00000000 1.98588314
1.40088753 0.00000000 1.98247009
2.32620165 0.00000000 1.97303115
3.73992418 0.00000000 1.94674284
0.00000000 0.45179689 1.98549462
0.00000000 0.44476616 1.98532068
0.00000000 0.44160112 1.98524340
0.00000000 0.43482987 1.98508023
0.00000000 0.41551043 1.98463065
0.70285234 0.35594920 1.98339154
1.37851458 0.03308246 1.97997330
2.31415080 0.00000000 1.97051989
3.73316348 0.00000000 1.94419049
0.00000000 0.76814189 1.97862016
0.00000000 0.76440137 1.97844549
0.00000000 0.76273278 1.97836790
0.00000000 0.75919520 1.97820404
0.00000000 0.74934743 1.97775257
0.54233768 0.72139037 1.97650825
1.31449930 0.63676781 1.97307558
2.28055445 0.25977727 1.96358200
3.71446225 0.00000000 1.93713844
0.00000000 1.24803447 1.95953198
0.00000000 1.24594396 1.95935526
0.00000000 1.24501397 1.95927674
0.00000000 1.24304753 1.95911095
0.00000000 1.23761113 1.95865416
0.00000000 1.22248497 1.95739515
1.11498507 1.17960651 1.95392185
2.18475171 1.05049928 1.94431508
3.66234418 0.50762550 1.91754968
0.00000000 1.99503355 1.90574946
0.00000000 1.99384651 1.90556669
0.00000000 1.99331894 1.90548549
0.00000000 1.99220440 1.90531403
0.00000000 1.98913026 1.90484160
0.00000000 1.98063202 1.90353945
0.00000000 1.95699061 1.89994683
1.89000744 1.89000744 1.89000744
3.51388664 1.68867657 1.86229504
0.00000000 3.16795266 1.74713782
0.00000000 3.16727490 1.74693482
0.00000000 3.16697377 1.74684464
0.00000000 3.16633782 1.74665420
0.00000000 3.16458515 1.74612945
0.00000000 3.15975094 1.74468295
0.00000000 3.14638737 1.74069072
0.00000000 3.10921326 1.72963570
3.05899049 3.00390665 1.69873195
0.00000000 0.00000000 3.15372791
0.00000000 0.00000000 3.15362861
0.00000000 0.00000000 3.15358450
0.00000000 0.00000000 3.15349135
0.00000000 0.00000000 3.15323474
0.32299707 0.00000000 3.15252773
1.25393084 0.00000000 3.15057912
2.25001084 0.00000000 3.14520366
3.69764982 0.00000000 3.13033777
0.00000000 0.00000000 3.15317761
0.00000000 0.00000000 3.15307829
0.00000000 0.00000000 3.15303417
0.00000000 0.00000000 3.15294100
0.00000000 0.00000000 3.15268434
0.26957358 0.00000000 3.15197718
1.24408675 0.00000000 3.15002816
2.24516397 0.00000000 3.14465155
3.69499866 0.00000000 3.12978247
0.00000000 0.00000000 3.15293312
0.00000000 0.00000000 3.15283379
0.00000000 0.00000000 3.15278966
0.00000000 0.00000000 3.15269649
0.00000000 0.00000000 3.15243981
0.24151494 0.00000000 3.15173258
1.23968370 0.00000000 3.14978337
2.24300684 0.00000000 3.14440625
3.69382023 0.00000000 3.12953576
0.00000000 0.00000000 3.15241680
0.00000000 0.00000000 3.15231745
0.00000000 0.00000000 3.15227332
0.00000000 0.00000000 3.15218013
0.00000000 0.00000000 3.15192339
0.16519877 0.00000000 3.15121602
1.23032439 0.00000000 3.14926643
2.23844378 0.00000000 3.14388824
3.69133046 0.00000000 3.12901476
0.00000000 0.37474551 3.15099396
0.00000000 0.36597332 3.15089456
0.00000000 0.36199779 3.15085040
0.00000000 0.35343385 3.15075715
0.00000000 0.32850761 3.15050028
0.00000000 0.24488732 3.14979252
1.20408899 0.00000000 3.14784185
2.22581519 0.00000000 3.14246071
3.68446125 0.00000000 3.12757898
0.00000000 0.72980812 3.14707039
0.00000000 0.72583191 3.14697083
0.00000000 0.72405730 3.14692661
0.00000000 0.72029313 3.14683322
0.00000000 0.70980127 3.14657596
0.00000000 0.67990165 3.14586713
1.12799966 0.58812852 3.14391351
2.19057020 0.05378376 3.13852418
3.66545756 0.00000000 3.12361968
0.00000000 1.22699100 3.13623121
0.00000000 1.22485728 3.13613124
0.00000000 1.22390802 3.13608683
0.00000000 1.22190072 3.13599305
0.00000000 1.21635061 3.13573471
0.00000000 1.20090207 3.13502291
0.87696444 1.15705902 3.13306107
2.08973543 1.02450433 3.12764904
3.61247810 0.44206363 3.11268129
0.00000000 1.98315509 3.10613454
0.00000000 1.98195945 3.10603339
0.00000000 1.98142804 3.10598845
0.00000000 1.98030541 3.10589357
0.00000000 1.97720889 3.10563218
0.00000000 1.96864838 3.10491200
0.00000000 1.94483059 3.10292703
1.77560079 1.87732100 3.09745103
3.46140779 1.67412563 3.08230505
0.00000000 3.16118451 3.02133696
0.00000000 3.16050499 3.02123235
0.00000000 3.16020308 3.02118589
0.00000000 3.15956547 3.02108776
0.00000000 3.15780824 3.02081745
0.00000000 3.15296141 3.02007264
0.00000000 3.13956274 3.01801977
0.00000000 3.10228924 3.01235588
2.99668623 2.99668623 2.99668623
