Processors/avs_plugins/LUTs/ALog_to_Linear_BT709.cube
TITLE "ALog_to_BT709"
LUT_3D_SIZE 5
# Apple Log BT2020 to BT709 SDR by Francesco Bucciantini
0.00000000 0.00000000 0.00000000
0.26994525 0.00000000 0.00000000
0.60672998 0.00000000 0.00000000
1.50752164 0.00000000 0.00000000
3.77373408 0.00000000 0.00000000
0.00000000 0.17430776 0.00000000
0.15938975 0.14148634 0.00000000
0.57196083 0.04504929 0.00000000
1.49613154 0.00000000 0.00000000
3.76999820 0.00000000 0.00000000
0.00000000 0.48993837 0.00000000
0.00000000 0.48068246 0.00000000
0.47447816 0.45718874 0.00000000
1.46790853 0.18116708 0.00000000
3.76086911 0.00000000 0.00000000
0.00000000 1.25996454 0.00000000
0.00000000 1.25697843 0.00000000
0.00000000 1.24966068 0.00000000
1.22792907 1.19236247 0.00000000
3.69069657 0.54125051 0.00000000
0.00000000 3.17184319 0.00000000
0.00000000 3.17086577 0.00000000
0.00000000 3.16848071 0.00000000
0.00000000 3.15031025 0.00000000
3.09418931 3.00805610 0.00000000
0.00000000 0.00000000 0.17091411
0.25906576 0.00000000 0.16645767
0.60254767 0.00000000 0.15501075
1.50611524 0.00000000 0.05007615
3.77327118 0.00000000 0.00000000
0.00000000 0.17231690 0.14435932
0.13898941 0.13898941 0.13898941
0.56747501 0.04239486 0.12488249
1.49471222 0.00000000 0.01810035
3.76953475 0.00000000 0.00000000
0.00000000 0.48932428 0.06674956
0.00000000 0.48005451 0.06097911
0.46888117 0.45652291 0.04690752
1.46645625 0.17925885 0.00000000
3.76040429 0.00000000 0.00000000
0.00000000 1.25976462 0.00000000
0.00000000 1.25677795 0.00000000
0.00000000 1.24945878 0.00000000
1.22612861 1.19214887 0.00000000
3.69022099 0.54070414 0.00000000
0.00000000 3.17177768 0.00000000
0.00000000 3.17080023 0.00000000
0.00000000 3.16841511 0.00000000
0.00000000 3.15024419 0.00000000
3.09360019 3.00798624 0.00000000
0.00000000 0.00000000 0.48634189
0.23009759 0.00000000 0.48499418
0.59220257 0.00000000 0.48168921
1.50267900 0.00000000 0.45569248
3.77214210 0.00000000 0.10706931
0.00000000 0.16735447 0.47881796
0.08247637 0.13269295 0.47744540
0.55635728 0.03592187 0.47407884
1.49124431 0.00000000 0.44756358
3.76840430 0.00000000 0.07509351
0.00000000 0.48782300 0.45986492
0.00000000 0.47851917 0.45842590
0.45489450 0.45489450 0.45489450
1.46290750 0.17451029 0.42698161
3.75927051 0.00000000 0.00000000
0.00000000 1.25927697 0.26690040
0.00000000 1.25628890 0.26420173
0.00000000 1.24896629 0.25748690
1.22172472 1.19162781 0.19823865
3.68906095 0.53936905 0.00000000
0.00000000 3.17161792 0.00000000
0.00000000 3.17064041 0.00000000
0.00000000 3.16825514 0.00000000
0.00000000 3.15008310 0.00000000
3.09216302 3.00781586 0.00000000
0.00000000 0.00000000 1.25249362
0.00000000 0.00000000 1.25205587
0.50549228 0.00000000 1.25098761
1.47628846 0.00000000 1.24284518
3.76356065 0.00000000 1.17884189
0.00000000 0.12295768 1.25006559
0.00000000 0.08336089 1.24962681
0.46164149 0.00000000 1.24855606
1.46460502 0.00000000 1.24039444
3.75981248 0.00000000 1.17623022
0.00000000 0.47624978 1.24412079
0.00000000 0.46667557 1.24367950
0.32603212 0.44230903 1.24260258
1.43563284 0.13256915 1.23439365
3.75065325 0.00000000 1.16983216
0.00000000 1.25556897 1.19784887
0.00000000 1.25257027 1.19738702
0.00000000 1.24522138 1.19625989
1.18766479 1.18766479 1.18766479
3.68024350 0.52910862 1.11984415
0.00000000 3.17040525 0.73414706
0.00000000 3.16942728 0.73331819
0.00000000 3.16704091 0.73129228
0.00000000 3.14886036 0.71569643
3.08123054 3.00652255 0.58100239
0.00000000 0.00000000 3.15372791
0.00000000 0.00000000 3.15358450
0.00000000 0.00000000 3.15323474
1.25393084 0.00000000 3.15057912
3.69764982 0.00000000 3.13033777
0.00000000 0.00000000 3.15293312
0.00000000 0.00000000 3.15278966
0.00000000 0.00000000 3.15243981
1.23968370 0.00000000 3.14978337
3.69382023 0.00000000 3.12953576
0.00000000 0.37474551 3.15099396
0.00000000 0.36199779 3.15085040
0.00000000 0.32850761 3.15050028
1.20408899 0.00000000 3.14784185
3.68446125 0.00000000 3.12757898
0.00000000 1.22699100 3.13623121
0.00000000 1.22390802 3.13608683
0.00000000 1.21635061 3.13573471
0.87696444 1.15705902 3.13306107
3.61247810 0.44206363 3.11268129
0.00000000 3.16118451 3.02133696
0.00000000 3.16020308 3.02118589
0.00000000 3.15780824 3.02081745
0.00000000 3.13956274 3.01801977
2.99668623 2.99668623 2.99668623
