Processors/avs_plugins/LUTs/BT2100_PQ_to_Linear_BT601_PAL.cube
TITLE "BT2100_PQ_to_BT601_PAL"
LUT_3D_SIZE 9
# BT2100 HDR PQ to BT601 SDR by Francesco Bucciantini
0.00000000 0.00000000 0.00000000
0.06199224 0.00000000 0.00000000
0.18779474 0.00000000 0.00000000
0.38393145 0.00000000 0.00000000
0.59670507 0.00000000 0.00000000
0.76282723 0.00000000 0.00000000
0.89502608 0.00000000 0.00000000
0.99235585 0.00000000 0.00000000
1.03076099 0.00000000 0.00000000
0.00000000 0.04430451 0.00000000
0.04184971 0.03943369 0.00000000
0.17606891 0.02644072 0.00000000
0.37783690 0.00000000 0.00000000
0.59503424 0.00000000 0.00000000
0.76233929 0.00000000 0.00000000
0.89488862 0.00000000 0.00000000
0.99234030 0.00000000 0.00000000
1.03075563 0.00000000 0.00000000
0.00000000 0.14755905 0.00000000
0.00000000 0.14420525 0.00000000
0.14131507 0.13496976 0.00000000
0.36109420 0.10410957 0.00000000
0.59048475 0.00000000 0.00000000
0.76102793 0.00000000 0.00000000
0.89452091 0.00000000 0.00000000
0.99229879 0.00000000 0.00000000
1.03074133 0.00000000 0.00000000
0.00000000 0.31617888 0.00000000
0.00000000 0.31441513 0.00000000
0.00000000 0.30966469 0.00000000
0.30566468 0.29497987 0.00000000
0.57594780 0.24930100 0.00000000
0.75700302 0.04618889 0.00000000
0.89340778 0.00000000 0.00000000
0.99217388 0.00000000 0.00000000
1.03069835 0.00000000 0.00000000
0.00000000 0.53612410 0.00000000
0.00000000 0.53552990 0.00000000
0.00000000 0.53393403 0.00000000
0.03251861 0.52904558 0.00000000
0.52552395 0.51436735 0.00000000
0.74484488 0.46551793 0.00000000
0.89018343 0.17871884 0.00000000
0.99181831 0.00000000 0.00000000
1.03057656 0.00000000 0.00000000
0.00000000 0.71244343 0.00000000
0.00000000 0.71226713 0.00000000
0.00000000 0.71179567 0.00000000
0.00000000 0.71036992 0.00000000
0.15879445 0.70625221 0.00000000
0.70356011 0.69419035 0.00000000
0.88065652 0.65398603 0.00000000
0.99081997 0.34928568 0.00000000
1.03023879 0.00000000 0.00000000
0.00000000 0.85510982 0.00000000
0.00000000 0.85505906 0.00000000
0.00000000 0.85492353 0.00000000
0.00000000 0.85451553 0.00000000
0.00000000 0.85335274 0.00000000
0.33922673 0.85007665 0.00000000
0.84798940 0.84045459 0.00000000
0.98516006 0.80727964 0.00000000
1.02929106 0.50026288 0.00000000
0.00000000 0.96640460 0.00000000
0.00000000 0.96639125 0.00000000
0.00000000 0.96635561 0.00000000
0.00000000 0.96624852 0.00000000
0.00000000 0.96594479 0.00000000
0.00000000 0.96510073 0.00000000
0.53042962 0.96271879 0.00000000
0.96113392 0.95552462 0.00000000
1.02647558 0.92889520 0.00000000
0.00000000 1.01864514 0.00000000
0.00000000 1.01864332 0.00000000
0.00000000 1.01863849 0.00000000
0.00000000 1.01862395 0.00000000
0.00000000 1.01858284 0.00000000
0.00000000 1.01846929 0.00000000
0.00000000 1.01815445 0.00000000
0.63727297 1.01725138 0.00000000
1.01658924 1.01444452 0.00000000
0.00000000 0.00000000 0.04427637
0.05924970 0.00000000 0.04361620
0.18623276 0.00000000 0.04185520
0.38310717 0.00000000 0.03656828
0.59647866 0.00000000 0.02161915
0.76276091 0.00000000 0.00000000
0.89500737 0.00000000 0.00000000
0.99235373 0.00000000 0.00000000
1.03076026 0.00000000 0.00000000
0.00000000 0.04397798 0.03976734
0.03910717 0.03910717 0.03910717
0.17442463 0.02611419 0.03734616
0.37699970 0.00000000 0.03205925
0.59480531 0.00000000 0.01711012
0.76227270 0.00000000 0.00000000
0.89486989 0.00000000 0.00000000
0.99233818 0.00000000 0.00000000
1.03075490 0.00000000 0.00000000
0.00000000 0.14733597 0.02773943
0.00000000 0.14397840 0.02707926
0.13937315 0.13473190 0.02531825
0.36021954 0.10382676 0.02003134
0.59024883 0.00000000 0.00508221
0.76096061 0.00000000 0.00000000
0.89450210 0.00000000 0.00000000
0.99229667 0.00000000 0.00000000
1.03074060 0.00000000 0.00000000
0.00000000 0.31606093 0.00000000
0.00000000 0.31429656 0.00000000
0.00000000 0.30954444 0.00000000
0.30464104 0.29485412 0.00000000
0.57568833 0.24915480 0.00000000
0.75693342 0.04586237 0.00000000
0.89338873 0.00000000 0.00000000
0.99217175 0.00000000 0.00000000
1.03069762 0.00000000 0.00000000
0.00000000 0.53608433 0.00000000
0.00000000 0.53548999 0.00000000
0.00000000 0.53389372 0.00000000
0.02977607 0.52900403 0.00000000
0.52516692 0.51432188 0.00000000
0.74476801 0.46545704 0.00000000
0.89016369 0.17852598 0.00000000
0.99181616 0.00000000 0.00000000
1.03057582 0.00000000 0.00000000
0.00000000 0.71243162 0.00000000
0.00000000 0.71225530 0.00000000
0.00000000 0.71178380 0.00000000
0.00000000 0.71035792 0.00000000
0.15701351 0.70623983 0.00000000
0.70345390 0.69417678 0.00000000
0.88063462 0.65396785 0.00000000
0.99081776 0.34917830 0.00000000
1.03023805 0.00000000 0.00000000
0.00000000 0.85510642 0.00000000
0.00000000 0.85505566 0.00000000
0.00000000 0.85492012 0.00000000
0.00000000 0.85451211 0.00000000
0.00000000 0.85334928 0.00000000
0.33829831 0.85007307 0.00000000
0.84795872 0.84045065 0.00000000
0.98515444 0.80727427 0.00000000
1.02929030 0.50021335 0.00000000
0.00000000 0.96640371 0.00000000
0.00000000 0.96639035 0.00000000
0.00000000 0.96635472 0.00000000
0.00000000 0.96624762 0.00000000
0.00000000 0.96594389 0.00000000
0.00000000 0.96509982 0.00000000
0.53008327 0.96271785 0.00000000
0.96112580 0.95552357 0.00000000
1.02647476 0.92889371 0.00000000
0.00000000 1.01864502 0.00000000
0.00000000 1.01864320 0.00000000
0.00000000 1.01863836 0.00000000
0.00000000 1.01862383 0.00000000
0.00000000 1.01858272 0.00000000
0.00000000 1.01846917 0.00000000
0.00000000 1.01815433 0.00000000
0.63710111 1.01725125 0.00000000
1.01658816 1.01444438 0.00000000
0.00000000 0.00000000 0.14748857
0.05193392 0.00000000 0.14703712
0.18201412 0.00000000 0.14582791
0.38089992 0.00000000 0.14215294
0.59587304 0.00000000 0.13137122
0.76258382 0.00000000 0.09786234
0.89495746 0.00000000 0.00000000
0.99234809 0.00000000 0.00000000
1.03075831 0.00000000 0.00000000
0.00000000 0.04310698 0.14438472
0.03179140 0.03823617 0.14392621
0.16997824 0.02524319 0.14269793
0.37475761 0.00000000 0.13896371
0.59419292 0.00000000 0.12799566
0.76209489 0.00000000 0.09375612
0.89481990 0.00000000 0.00000000
0.99233253 0.00000000 0.00000000
1.03075295 0.00000000 0.00000000
0.00000000 0.14673968 0.13585852
0.00000000 0.14337200 0.13537954
0.13409597 0.13409597 0.13409597
0.35787634 0.10306999 0.13018948
0.58961770 0.00000000 0.11867628
0.76078085 0.00000000 0.08224143
0.89445190 0.00000000 0.00000000
0.99229101 0.00000000 0.00000000
1.03073865 0.00000000 0.00000000
0.00000000 0.31574610 0.10763832
0.00000000 0.31398008 0.10707799
0.00000000 0.30922345 0.10557411
0.30189482 0.29451842 0.10097580
0.57499406 0.24876443 0.08721504
0.75674757 0.04499137 0.04588513
0.89333791 0.00000000 0.00000000
0.99216607 0.00000000 0.00000000
1.03069567 0.00000000 0.00000000
0.00000000 0.53597821 0.00763230
0.00000000 0.53538347 0.00697213
0.00000000 0.53378614 0.00521113
0.02246029 0.52889314 0.00000000
0.52421068 0.51420051 0.00000000
0.74456273 0.46529453 0.00000000
0.89011101 0.17801072 0.00000000
0.99181043 0.00000000 0.00000000
1.03057386 0.00000000 0.00000000
0.00000000 0.71240011 0.00000000
0.00000000 0.71222375 0.00000000
0.00000000 0.71175213 0.00000000
0.00000000 0.71032590 0.00000000
0.15218708 0.70620678 0.00000000
0.70317017 0.69414059 0.00000000
0.88057616 0.65391933 0.00000000
0.99081186 0.34889168 0.00000000
1.03023607 0.00000000 0.00000000
0.00000000 0.85509734 0.00000000
0.00000000 0.85504658 0.00000000
0.00000000 0.85491103 0.00000000
0.00000000 0.85450298 0.00000000
0.00000000 0.85334004 0.00000000
0.33580986 0.85006352 0.00000000
0.84787682 0.84044016 0.00000000
0.98513944 0.80725995 0.00000000
1.02928827 0.50008113 0.00000000
0.00000000 0.96640132 0.00000000
0.00000000 0.96638796 0.00000000
0.00000000 0.96635233 0.00000000
0.00000000 0.96624523 0.00000000
0.00000000 0.96594149 0.00000000
0.00000000 0.96509739 0.00000000
0.52915572 0.96271533 0.00000000
0.96110414 0.95552078 0.00000000
1.02647256 0.92888974 0.00000000
0.00000000 1.01864469 0.00000000
0.00000000 1.01864288 0.00000000
0.00000000 1.01863804 0.00000000
0.00000000 1.01862351 0.00000000
0.00000000 1.01858239 0.00000000
0.00000000 1.01846884 0.00000000
0.00000000 1.01815400 0.00000000
0.63664165 1.01725091 0.00000000
1.01658528 1.01444402 0.00000000
0.00000000 0.00000000 0.31606020
0.02997043 0.00000000 0.31582160
0.16885744 0.00000000 0.31518432
0.37419751 0.00000000 0.31326382
0.59404011 0.00000000 0.30777335
0.76205059 0.00000000 0.29215312
0.89480745 0.00000000 0.24453472
0.99233113 0.00000000 0.01932364
1.03075247 0.00000000 0.00000000
0.00000000 0.04049205 0.31442719
0.00982790 0.03562123 0.31418744
0.15605551 0.02262826 0.31354707
0.36794712 0.00000000 0.31161720
0.59233937 0.00000000 0.30609941
0.76155948 0.00000000 0.29039672
0.89466966 0.00000000 0.24247443
0.99231557 0.00000000 0.01481460
1.03074711 0.00000000 0.00000000
0.00000000 0.14493878 0.31003208
0.00000000 0.14154021 0.30978917
0.11729737 0.13217388 0.30914036
0.35075170 0.10077692 0.30718485
0.58770702 0.00000000 0.30159224
0.76023954 0.00000000 0.28566343
0.89430104 0.00000000 0.23690279
0.99227403 0.00000000 0.00278669
1.03073280 0.00000000 0.00000000
0.00000000 0.31479915 0.29647644
0.00000000 0.31302817 0.29622331
0.00000000 0.30825793 0.29554712
0.29350849 0.29350849 0.29350849
0.57289073 0.24758922 0.28767286
0.75618786 0.04237643 0.27100578
0.89318515 0.00000000 0.21945403
0.99214903 0.00000000 0.00000000
1.03068981 0.00000000 0.00000000
0.00000000 0.53565920 0.25466174
0.00000000 0.53506327 0.25437153
0.00000000 0.53346274 0.25359598
0.00049680 0.52855976 0.25125499
0.52130555 0.51383559 0.24452980
0.74394439 0.46480572 0.22510727
0.88995267 0.17645672 0.16226894
0.99179322 0.00000000 0.00000000
1.03056799 0.00000000 0.00000000
0.00000000 0.71230545 0.08085233
0.00000000 0.71212897 0.08019216
0.00000000 0.71165701 0.07843116
0.00000000 0.71022973 0.07314425
0.13696561 0.70610754 0.05819511
0.70231467 0.69403187 0.01700051
0.88040044 0.65377356 0.00000000
0.99079417 0.34802985 0.00000000
1.03023014 0.00000000 0.00000000
0.00000000 0.85507009 0.00000000
0.00000000 0.85501931 0.00000000
0.00000000 0.85488373 0.00000000
0.00000000 0.85447556 0.00000000
0.00000000 0.85331231 0.00000000
0.32823229 0.85003487 0.00000000
0.84763057 0.84040866 0.00000000
0.98509438 0.80721695 0.00000000
1.02928218 0.49968356 0.00000000
0.00000000 0.96639415 0.00000000
0.00000000 0.96638079 0.00000000
0.00000000 0.96634515 0.00000000
0.00000000 0.96623805 0.00000000
0.00000000 0.96593427 0.00000000
0.00000000 0.96509008 0.00000000
0.52633862 0.96270776 0.00000000
0.96103907 0.95551240 0.00000000
1.02646598 0.92887780 0.00000000
0.00000000 1.01864372 0.00000000
0.00000000 1.01864190 0.00000000
0.00000000 1.01863707 0.00000000
0.00000000 1.01862253 0.00000000
0.00000000 1.01858142 0.00000000
0.00000000 1.01846786 0.00000000
0.00000000 1.01815301 0.00000000
0.63525341 1.01724990 0.00000000
1.01657662 1.01444292 0.00000000
0.00000000 0.00000000 0.53600646
0.00000000 0.00000000 0.53592599
0.12648943 0.00000000 0.53571116
0.35458659 0.00000000 0.53506443
0.58873388 0.00000000 0.53322156
0.76052991 0.00000000 0.52803135
0.89438192 0.00000000 0.51280087
0.99228313 0.00000000 0.46031258
1.03073593 0.00000000 0.07625961
0.00000000 0.03309812 0.53545607
0.00000000 0.02822731 0.53537533
0.11045580 0.01523433 0.53515975
0.34799903 0.00000000 0.53451080
0.58697226 0.00000000 0.53266153
0.76003255 0.00000000 0.52745298
0.89424346 0.00000000 0.51216572
0.99226755 0.00000000 0.45944389
1.03073057 0.00000000 0.07175058
0.00000000 0.13975644 0.53397860
0.00000000 0.13626601 0.53389711
0.05935919 0.12663032 0.53367954
0.32981761 0.09411202 0.53302457
0.58217107 0.00000000 0.53115805
0.75869570 0.00000000 0.52589999
0.89387308 0.00000000 0.51045932
0.99222595 0.00000000 0.45710497
1.03071626 0.00000000 0.05972267
0.00000000 0.31210712 0.52945965
0.00000000 0.31032189 0.52937584
0.00000000 0.30551257 0.52915208
0.26851772 0.29063551 0.52847842
0.56678398 0.24423956 0.52655827
0.75459116 0.03498251 0.52114621
0.89275180 0.00000000 0.50522742
0.99210079 0.00000000 0.44988632
1.03067325 0.00000000 0.02361234
0.00000000 0.53475371 0.51595420
0.00000000 0.53415441 0.51586313
0.00000000 0.53254476 0.51561996
0.00000000 0.52761337 0.51488771
0.51279935 0.51279935 0.51279935
0.74217909 0.46341595 0.50690324
0.88950344 0.17200357 0.48947203
0.99174450 0.00000000 0.42484489
1.03055137 0.00000000 0.00000000
0.00000000 0.71203745 0.47174622
0.00000000 0.71186060 0.47162752
0.00000000 0.71138767 0.47131048
0.00000000 0.70995742 0.47035510
0.08546937 0.70582651 0.46762434
0.69986526 0.69372398 0.45986556
0.87990178 0.65336057 0.43528701
0.99074408 0.34558190 0.34008295
1.03021336 0.00000000 0.00000000
0.00000000 0.85499300 0.22974172
0.00000000 0.85494218 0.22942437
0.00000000 0.85480649 0.22857602
0.00000000 0.85439801 0.22601281
0.00000000 0.85323384 0.21862781
0.30586050 0.84995379 0.19710060
0.84693099 0.84031953 0.12442034
0.98496681 0.80709527 0.00000000
1.02926496 0.49855423 0.00000000
0.00000000 0.96637387 0.00000000
0.00000000 0.96636051 0.00000000
0.00000000 0.96632486 0.00000000
0.00000000 0.96621772 0.00000000
0.00000000 0.96591386 0.00000000
0.00000000 0.96506941 0.00000000
0.51809771 0.96268637 0.00000000
0.96085475 0.95548869 0.00000000
1.02644736 0.92884406 0.00000000
0.00000000 1.01864096 0.00000000
0.00000000 1.01863915 0.00000000
0.00000000 1.01863431 0.00000000
0.00000000 1.01861978 0.00000000
0.00000000 1.01857866 0.00000000
0.00000000 1.01846510 0.00000000
0.00000000 1.01815022 0.00000000
0.63125418 1.01724704 0.00000000
1.01655212 1.01443983 0.00000000
0.00000000 0.00000000 0.71234495
0.00000000 0.00000000 0.71232105
0.00000000 0.00000000 0.71225728
0.29425980 0.00000000 0.71206563
0.57307811 0.00000000 0.71152220
0.75623752 0.00000000 0.71001287
0.89319869 0.00000000 0.70576009
0.99215054 0.00000000 0.69296929
1.03069033 0.00000000 0.64613273
0.00000000 0.01272305 0.71218163
0.00000000 0.00785223 0.71215770
0.00000000 0.00000000 0.71209384
0.28639030 0.00000000 0.71190196
0.57112607 0.00000000 0.71135785
0.75572216 0.00000000 0.70984660
0.89305839 0.00000000 0.70558833
0.99213490 0.00000000 0.69278012
1.03068496 0.00000000 0.64586706
0.00000000 0.12470918 0.71174496
0.00000000 0.12092435 0.71172095
0.00000000 0.11041621 0.71165688
0.26437037 0.07403452 0.71146435
0.56579548 0.00000000 0.71091840
0.75433663 0.00000000 0.70940203
0.89268305 0.00000000 0.70512905
0.99209315 0.00000000 0.69227418
1.03067063 0.00000000 0.64515592
0.00000000 0.30457493 0.71042513
0.00000000 0.30274869 0.71040088
0.00000000 0.29782681 0.71033616
0.18552309 0.28258128 0.71014166
0.54860479 0.23479552 0.70959014
0.75007983 0.01460744 0.70805818
0.89154671 0.00000000 0.70374047
0.99196752 0.00000000 0.69074367
1.03062757 0.00000000 0.64299938
0.00000000 0.53223178 0.70661939
0.00000000 0.53162300 0.70659442
0.00000000 0.52998773 0.70652778
0.00000000 0.52497645 0.70632754
0.48679773 0.50990951 0.70575968
0.73718085 0.45952693 0.70418204
0.88825389 0.15924299 0.69973315
0.99160991 0.00000000 0.68631922
1.03050553 0.00000000 0.63671954
0.00000000 0.71129606 0.69552428
0.00000000 0.71111820 0.69549713
0.00000000 0.71064256 0.69542466
0.00000000 0.70920408 0.69520687
0.00000000 0.70504896 0.69458912
0.69287186 0.69287186 0.69287186
0.87851367 0.65221622 0.68802128
0.99060569 0.33874940 0.67332193
1.03016710 0.00000000 0.61785444
0.00000000 0.85478024 0.65915232
0.00000000 0.85472931 0.65911688
0.00000000 0.85459333 0.65902230
0.00000000 0.85418397 0.65873796
0.00000000 0.85301729 0.65793083
0.23454933 0.84973002 0.65568232
0.84497784 0.84007351 0.64929207
0.98461390 0.80675926 0.62955187
1.02921746 0.49540189 0.54863912
0.00000000 0.96631797 0.42924437
0.00000000 0.96630460 0.42906670
0.00000000 0.96626892 0.42859241
0.00000000 0.96616169 0.42716536
0.00000000 0.96585757 0.42310444
0.00000000 0.96501243 0.41170899
0.49298042 0.96262737 0.37856186
0.96034429 0.95542332 0.26484761
1.02639600 0.92875098 0.00000000
0.00000000 1.01863338 0.00000000
0.00000000 1.01863156 0.00000000
0.00000000 1.01862672 0.00000000
0.00000000 1.01861219 0.00000000
0.00000000 1.01857106 0.00000000
0.00000000 1.01845747 0.00000000
0.00000000 1.01814253 0.00000000
0.61962755 1.01723915 0.00000000
1.01648453 1.01443130 0.00000000
0.00000000 0.00000000 0.85503101
0.00000000 0.00000000 0.85502413
0.00000000 0.00000000 0.85500576
0.00000000 0.00000000 0.85495061
0.51947402 0.00000000 0.85479449
0.74355863 0.00000000 0.85436300
0.88985415 0.00000000 0.85316390
0.99178252 0.00000000 0.84970234
1.03056434 0.00000000 0.83872978
0.00000000 0.00000000 0.85498399
0.00000000 0.00000000 0.85497710
0.00000000 0.00000000 0.85495872
0.00000000 0.00000000 0.85490354
0.51673251 0.00000000 0.85474735
0.74298705 0.00000000 0.85431566
0.88970853 0.00000000 0.85311599
0.99176672 0.00000000 0.84965274
1.03055895 0.00000000 0.83867455
0.00000000 0.07474525 0.85485843
0.00000000 0.06987443 0.85485154
0.00000000 0.05688146 0.85483314
0.00000000 0.01787380 0.85477789
0.50918661 0.00000000 0.85462150
0.74144933 0.00000000 0.85418926
0.88931895 0.00000000 0.85298806
0.99172454 0.00000000 0.84952031
1.03054457 0.00000000 0.83852705
0.00000000 0.28286573 0.85448055
0.00000000 0.28091109 0.85447363
0.00000000 0.27563596 0.85445516
0.00000000 0.25922456 0.85439970
0.48421431 0.20689756 0.85424271
0.73671539 0.00000000 0.85380882
0.88813919 0.00000000 0.85260299
0.99159762 0.00000000 0.84912168
1.03050136 0.00000000 0.83808297
0.00000000 0.52506915 0.85340421
0.00000000 0.52443274 0.85339722
0.00000000 0.52272278 0.85337855
0.00000000 0.51747843 0.85332248
0.37650975 0.50167126 0.85316379
0.72227838 0.44832947 0.85272517
0.88471818 0.11926760 0.85150611
0.99123630 0.00000000 0.84798590
1.03037889 0.00000000 0.83681687
0.00000000 0.70923043 0.85037675
0.00000000 0.70904973 0.85036954
0.00000000 0.70856648 0.85035030
0.00000000 0.70710485 0.85029251
0.00000000 0.70288167 0.85012893
0.67147209 0.69049464 0.84967679
0.87457747 0.64901316 0.84841992
0.99022148 0.31920537 0.84478849
1.03003926 0.00000000 0.83324594
0.00000000 0.85419145 0.84152879
0.00000000 0.85414022 0.84152092
0.00000000 0.85400343 0.84149993
0.00000000 0.85359163 0.84143688
0.00000000 0.85241795 0.84125838
0.00000000 0.84911065 0.84076491
0.83939234 0.83939234 0.83939234
0.98363053 0.80582780 0.83541988
1.02908620 0.48639163 0.82272440
0.00000000 0.96616365 0.81155442
0.00000000 0.96615025 0.81154398
0.00000000 0.96611449 0.81151613
0.00000000 0.96600701 0.81143247
0.00000000 0.96570220 0.81119558
0.00000000 0.96485511 0.81054012
0.38805773 0.96246448 0.80871293
0.95891767 0.95524282 0.80339040
1.02625404 0.92849387 0.78601592
0.00000000 1.01861245 0.58927613
0.00000000 1.01861064 0.58921892
0.00000000 1.01860579 0.58906620
0.00000000 1.01859125 0.58860680
0.00000000 1.01855010 0.58730024
0.00000000 1.01843644 0.58364075
0.00000000 1.01812132 0.57307658
0.58186334 1.01721740 0.53872415
1.01629756 1.01440779 0.34363246
0.00000000 0.00000000 0.96634643
0.00000000 0.00000000 0.96634462
0.00000000 0.00000000 0.96633979
0.00000000 0.00000000 0.96632528
0.06022440 0.00000000 0.96628424
0.69886423 0.00000000 0.96617102
0.87969987 0.00000000 0.96585796
0.99072385 0.00000000 0.96496718
1.03020659 0.00000000 0.96226698
0.00000000 0.00000000 0.96633406
0.00000000 0.00000000 0.96633224
0.00000000 0.00000000 0.96632741
0.00000000 0.00000000 0.96631290
0.04008187 0.00000000 0.96627185
0.69805384 0.00000000 0.96615861
0.87953721 0.00000000 0.96584550
0.99070759 0.00000000 0.96495455
1.03020115 0.00000000 0.96225385
0.00000000 0.00000000 0.96630104
0.00000000 0.00000000 0.96629923
0.00000000 0.00000000 0.96629439
0.00000000 0.00000000 0.96627988
0.00000000 0.00000000 0.96623881
0.69586764 0.00000000 0.96612551
0.87910191 0.00000000 0.96581225
0.99066415 0.00000000 0.96492086
1.03018663 0.00000000 0.96221881
0.00000000 0.21145824 0.96620183
0.00000000 0.20893620 0.96620002
0.00000000 0.20208183 0.96619517
0.00000000 0.18025509 0.96618063
0.00000000 0.10269728 0.96613951
0.68908052 0.00000000 0.96602604
0.87778272 0.00000000 0.96571232
0.99053343 0.00000000 0.96481961
1.03014298 0.00000000 0.96211350
0.00000000 0.50298549 0.96592051
0.00000000 0.50225708 0.96591869
0.00000000 0.50029821 0.96591383
0.00000000 0.49427458 0.96589923
0.00000000 0.47596687 0.96585793
0.66781331 0.40711331 0.96574400
0.87394898 0.00000000 0.96542896
0.99016124 0.00000000 0.96453252
1.03001929 0.00000000 0.96181486
0.00000000 0.70322257 0.96513923
0.00000000 0.70303340 0.96513738
0.00000000 0.70252745 0.96513247
0.00000000 0.70099675 0.96511770
0.00000000 0.69657029 0.96507592
0.58404358 0.68355429 0.96496067
0.86250831 0.63956970 0.96464199
0.98795857 0.25689464 0.96373510
1.02967624 0.00000000 0.96098522
0.00000000 0.85251181 0.96293833
0.00000000 0.85245971 0.96293643
0.00000000 0.85232059 0.96293135
0.00000000 0.85190178 0.96291610
0.00000000 0.85070798 0.96287296
0.00000000 0.84734301 0.96275395
0.82180080 0.83744658 0.96242484
0.98077002 0.80315775 0.96148809
1.02871342 0.45803734 0.95864597
0.00000000 0.96572649 0.95632626
0.00000000 0.96571301 0.95632417
0.00000000 0.96567701 0.95631859
0.00000000 0.96556885 0.95630183
0.00000000 0.96526206 0.95625441
0.00000000 0.96440945 0.95612360
0.00000000 0.96200301 0.95576177
0.95473127 0.95473127 0.95473127
1.02585063 0.92776421 0.95159900
0.00000000 1.01855337 0.93233155
0.00000000 1.01855155 0.93232867
0.00000000 1.01854670 0.93232097
0.00000000 1.01853213 0.93229787
0.00000000 1.01849091 0.93223251
0.00000000 1.01837707 0.93205213
0.00000000 1.01806142 0.93155277
0.35332504 1.01715599 0.93012710
1.01576494 1.01434140 0.92576137
0.00000000 0.00000000 1.01862222
0.00000000 0.00000000 1.01862198
0.00000000 0.00000000 1.01862132
0.00000000 0.00000000 1.01861935
0.00000000 0.00000000 1.01861378
0.00000000 0.00000000 1.01859842
0.84124462 0.00000000 1.01855607
0.98395244 0.00000000 1.01843633
1.02912899 0.00000000 1.01808040
0.00000000 0.00000000 1.01862054
0.00000000 0.00000000 1.01862030
0.00000000 0.00000000 1.01861964
0.00000000 0.00000000 1.01861767
0.00000000 0.00000000 1.01861210
0.00000000 0.00000000 1.01859674
0.84100359 0.00000000 1.01855438
0.98391032 0.00000000 1.01843464
1.02912339 0.00000000 1.01807870
0.00000000 0.00000000 1.01861606
0.00000000 0.00000000 1.01861581
0.00000000 0.00000000 1.01861516
0.00000000 0.00000000 1.01861319
0.00000000 0.00000000 1.01860762
0.00000000 0.00000000 1.01859226
0.84035788 0.00000000 1.01854989
0.98379782 0.00000000 1.01843013
1.02910842 0.00000000 1.01807415
0.00000000 0.00000000 1.01860260
0.00000000 0.00000000 1.01860236
0.00000000 0.00000000 1.01860170
0.00000000 0.00000000 1.01859973
0.00000000 0.00000000 1.01859415
0.00000000 0.00000000 1.01857879
0.83839460 0.00000000 1.01853641
0.98345883 0.00000000 1.01841660
1.02906345 0.00000000 1.01806049
0.00000000 0.40806787 1.01856452
0.00000000 0.40668779 1.01856427
0.00000000 0.40298368 1.01856361
0.00000000 0.39165708 1.01856164
0.00000000 0.35775348 1.01855606
0.00000000 0.24270515 1.01854068
0.83263315 0.00000000 1.01849825
0.98249016 0.00000000 1.01837832
1.02893600 0.00000000 1.01802182
0.00000000 0.68370576 1.01845936
0.00000000 0.68348683 1.01845912
0.00000000 0.68290109 1.01845846
0.00000000 0.68112723 1.01845648
0.00000000 0.67598271 1.01845088
0.00000000 0.66072117 1.01843546
0.81490714 0.60743346 1.01839291
0.97974038 0.00000000 1.01827262
1.02858243 0.00000000 1.01791507
0.00000000 0.84738095 1.01816792
0.00000000 0.84732612 1.01816767
0.00000000 0.84717972 1.01816701
0.00000000 0.84673891 1.01816501
0.00000000 0.84548203 1.01815937
0.00000000 0.84193598 1.01814382
0.74329657 0.83147844 1.01810092
0.97148374 0.79487923 1.01797966
1.02758955 0.32514064 1.01761918
0.00000000 0.96441897 1.01733302
0.00000000 0.96440522 1.01733277
0.00000000 0.96436853 1.01733209
0.00000000 0.96425827 1.01733005
0.00000000 0.96394553 1.01732427
0.00000000 0.96307628 1.01730836
0.00000000 0.96062209 1.01726445
0.94073960 0.95319904 1.01714034
1.02463234 0.92556988 1.01677133
0.00000000 1.01837834 1.01474840
0.00000000 1.01837651 1.01474812
0.00000000 1.01837164 1.01474739
0.00000000 1.01835700 1.01474520
0.00000000 1.01831558 1.01473900
0.00000000 1.01820118 1.01472190
0.00000000 1.01788398 1.01467473
0.00000000 1.01697402 1.01454136
1.01414463 1.01414463 1.01414463
