Processors/avs_plugins/LUTs/BT2100_PQ_to_Linear_BT601_PAL.cube
TITLE "BT2100_PQ_to_BT601_PAL"
LUT_3D_SIZE 33
# BT2100 HDR PQ to BT601 SDR by Francesco Bucciantini
0.00000000 0.00000000 0.00000000
0.01500627 0.00000000 0.00000000
0.02852929 0.00000000 0.00000000
0.04322883 0.00000000 0.00000000
0.06199224 0.00000000 0.00000000
0.08752155 0.00000000 0.00000000
0.11735156 0.00000000 0.00000000
0.15064987 0.00000000 0.00000000
0.18779474 0.00000000 0.00000000
0.22920309 0.00000000 0.00000000
0.27533879 0.00000000 0.00000000
0.32672074 0.00000000 0.00000000
0.38393145 0.00000000 0.00000000
0.44657606 0.00000000 0.00000000
0.49930994 0.00000000 0.00000000
0.54930089 0.00000000 0.00000000
0.59670507 0.00000000 0.00000000
0.64165562 0.00000000 0.00000000
0.68426553 0.00000000 0.00000000
0.72462980 0.00000000 0.00000000
0.76282723 0.00000000 0.00000000
0.79892179 0.00000000 0.00000000
0.83296368 0.00000000 0.00000000
0.86499016 0.00000000 0.00000000
0.89502608 0.00000000 0.00000000
0.92308423 0.00000000 0.00000000
0.94916550 0.00000000 0.00000000
0.97325879 0.00000000 0.00000000
0.99235585 0.00000000 0.00000000
1.00180961 0.00000000 0.00000000
1.01135193 0.00000000 0.00000000
1.02099732 0.00000000 0.00000000
1.03076099 0.00000000 0.00000000
0.00000000 0.01072466 0.00000000
0.01013043 0.00954560 0.00000000
0.02365345 0.00848307 0.00000000
0.03835299 0.00732811 0.00000000
0.05711640 0.00585384 0.00000000
0.08276497 0.00385763 0.00000000
0.11340150 0.00117586 0.00000000
0.14734408 0.00000000 0.00000000
0.18501050 0.00000000 0.00000000
0.22684562 0.00000000 0.00000000
0.27333365 0.00000000 0.00000000
0.32500869 0.00000000 0.00000000
0.38246480 0.00000000 0.00000000
0.44555860 0.00000000 0.00000000
0.49856439 0.00000000 0.00000000
0.54875334 0.00000000 0.00000000
0.59630231 0.00000000 0.00000000
0.64135914 0.00000000 0.00000000
0.68404728 0.00000000 0.00000000
0.72446925 0.00000000 0.00000000
0.76270930 0.00000000 0.00000000
0.79883536 0.00000000 0.00000000
0.83290054 0.00000000 0.00000000
0.86494422 0.00000000 0.00000000
0.89499282 0.00000000 0.00000000
0.92306031 0.00000000 0.00000000
0.94914843 0.00000000 0.00000000
0.97324673 0.00000000 0.00000000
0.99235209 0.00000000 0.00000000
1.00180671 0.00000000 0.00000000
1.01134970 0.00000000 0.00000000
1.02099562 0.00000000 0.00000000
1.03075969 0.00000000 0.00000000
0.00000000 0.02038926 0.00000000
0.00573653 0.01921020 0.00000000
0.01925955 0.01814768 0.00000000
0.03395909 0.01699271 0.00000000
0.05272250 0.01551845 0.00000000
0.07812884 0.01352224 0.00000000
0.10976333 0.01084046 0.00000000
0.14431789 0.00726402 0.00000000
0.18247257 0.00252547 0.00000000
0.22470316 0.00000000 0.00000000
0.27151533 0.00000000 0.00000000
0.32345859 0.00000000 0.00000000
0.38113843 0.00000000 0.00000000
0.44463658 0.00000000 0.00000000
0.49788966 0.00000000 0.00000000
0.54825828 0.00000000 0.00000000
0.59593844 0.00000000 0.00000000
0.64109144 0.00000000 0.00000000
0.68385029 0.00000000 0.00000000
0.72432439 0.00000000 0.00000000
0.76260292 0.00000000 0.00000000
0.79875741 0.00000000 0.00000000
0.83284360 0.00000000 0.00000000
0.86490280 0.00000000 0.00000000
0.89496284 0.00000000 0.00000000
0.92303875 0.00000000 0.00000000
0.94913305 0.00000000 0.00000000
0.97323586 0.00000000 0.00000000
0.99234870 0.00000000 0.00000000
1.00180410 0.00000000 0.00000000
1.01134770 0.00000000 0.00000000
1.02099408 0.00000000 0.00000000
1.03075852 0.00000000 0.00000000
0.00000000 0.03089470 0.00000000
0.00096036 0.02971564 0.00000000
0.01448337 0.02865312 0.00000000
0.02918291 0.02749816 0.00000000
0.04794632 0.02602389 0.00000000
0.07335266 0.02402768 0.00000000
0.10571864 0.02134590 0.00000000
0.14097535 0.01776946 0.00000000
0.17968173 0.01303091 0.00000000
0.22235448 0.00678830 0.00000000
0.26952637 0.00000000 0.00000000
0.32176572 0.00000000 0.00000000
0.37969157 0.00000000 0.00000000
0.44362877 0.00000000 0.00000000
0.49715311 0.00000000 0.00000000
0.54771839 0.00000000 0.00000000
0.59554191 0.00000000 0.00000000
0.64079988 0.00000000 0.00000000
0.68363585 0.00000000 0.00000000
0.72416675 0.00000000 0.00000000
0.76248719 0.00000000 0.00000000
0.79867263 0.00000000 0.00000000
0.83278168 0.00000000 0.00000000
0.86485775 0.00000000 0.00000000
0.89493024 0.00000000 0.00000000
0.92301531 0.00000000 0.00000000
0.94911633 0.00000000 0.00000000
0.97322404 0.00000000 0.00000000
0.99234501 0.00000000 0.00000000
1.00180127 0.00000000 0.00000000
1.01134552 0.00000000 0.00000000
1.02099242 0.00000000 0.00000000
1.03075725 0.00000000 0.00000000
0.00000000 0.04430451 0.00000000
0.00000000 0.04312544 0.00000000
0.00838676 0.04206292 0.00000000
0.02308630 0.04090796 0.00000000
0.04184971 0.03943369 0.00000000
0.06725605 0.03743748 0.00000000
0.10040933 0.03475571 0.00000000
0.13662423 0.03117927 0.00000000
0.17606891 0.02644072 0.00000000
0.21932564 0.02019810 0.00000000
0.26696830 0.01201432 0.00000000
0.31959265 0.00133070 0.00000000
0.37783690 0.00000000 0.00000000
0.44233382 0.00000000 0.00000000
0.49620817 0.00000000 0.00000000
0.54702656 0.00000000 0.00000000
0.59503424 0.00000000 0.00000000
0.64042684 0.00000000 0.00000000
0.68336162 0.00000000 0.00000000
0.72396524 0.00000000 0.00000000
0.76233929 0.00000000 0.00000000
0.79856431 0.00000000 0.00000000
0.83270258 0.00000000 0.00000000
0.86480023 0.00000000 0.00000000
0.89488862 0.00000000 0.00000000
0.92298538 0.00000000 0.00000000
0.94909497 0.00000000 0.00000000
0.97320895 0.00000000 0.00000000
0.99234030 0.00000000 0.00000000
1.00179765 0.00000000 0.00000000
1.01134274 0.00000000 0.00000000
1.02099029 0.00000000 0.00000000
1.03075563 0.00000000 0.00000000
0.00000000 0.06246187 0.00000000
0.00000000 0.06128280 0.00000000
0.00013173 0.06022028 0.00000000
0.01483127 0.05906532 0.00000000
0.03359468 0.05759105 0.00000000
0.05900102 0.05559484 0.00000000
0.09293228 0.05291307 0.00000000
0.13057124 0.04933662 0.00000000
0.17108256 0.04459808 0.00000000
0.21516746 0.03835546 0.00000000
0.26346936 0.03017168 0.00000000
0.31662808 0.01948805 0.00000000
0.37531147 0.00559042 0.00000000
0.44023764 0.00000000 0.00000000
0.49492009 0.00000000 0.00000000
0.54608497 0.00000000 0.00000000
0.59434410 0.00000000 0.00000000
0.63992019 0.00000000 0.00000000
0.68298942 0.00000000 0.00000000
0.72369187 0.00000000 0.00000000
0.76213874 0.00000000 0.00000000
0.79841748 0.00000000 0.00000000
0.83259539 0.00000000 0.00000000
0.86472228 0.00000000 0.00000000
0.89483222 0.00000000 0.00000000
0.92294483 0.00000000 0.00000000
0.94906605 0.00000000 0.00000000
0.97318851 0.00000000 0.00000000
0.99233393 0.00000000 0.00000000
1.00179274 0.00000000 0.00000000
1.01133898 0.00000000 0.00000000
1.02098741 0.00000000 0.00000000
1.03075343 0.00000000 0.00000000
0.00000000 0.08699866 0.00000000
0.00000000 0.08585816 0.00000000
0.00000000 0.08482297 0.00000000
0.00374120 0.08368958 0.00000000
0.02250461 0.08223024 0.00000000
0.04791095 0.07998800 0.00000000
0.08228833 0.07730623 0.00000000
0.12211851 0.07372979 0.00000000
0.16420110 0.06899124 0.00000000
0.20947301 0.06274863 0.00000000
0.25870275 0.05456484 0.00000000
0.31260422 0.04388122 0.00000000
0.37189263 0.02998359 0.00000000
0.43731817 0.01195851 0.00000000
0.49317382 0.00000000 0.00000000
0.54481116 0.00000000 0.00000000
0.59341196 0.00000000 0.00000000
0.63923671 0.00000000 0.00000000
0.68248779 0.00000000 0.00000000
0.72332371 0.00000000 0.00000000
0.76186879 0.00000000 0.00000000
0.79821991 0.00000000 0.00000000
0.83245121 0.00000000 0.00000000
0.86461746 0.00000000 0.00000000
0.89475640 0.00000000 0.00000000
0.92289033 0.00000000 0.00000000
0.94902717 0.00000000 0.00000000
0.97316105 0.00000000 0.00000000
0.99232536 0.00000000 0.00000000
1.00178615 0.00000000 0.00000000
1.01133392 0.00000000 0.00000000
1.02098354 0.00000000 0.00000000
1.03075048 0.00000000 0.00000000
0.00000000 0.11562540 0.00000000
0.00000000 0.11466895 0.00000000
0.00000000 0.11380253 0.00000000
0.00000000 0.11285582 0.00000000
0.00771478 0.11163982 0.00000000
0.03312112 0.10997949 0.00000000
0.06725279 0.10772326 0.00000000
0.11019012 0.10466664 0.00000000
0.15466651 0.10052833 0.00000000
0.20167273 0.09491082 0.00000000
0.25222249 0.08723052 0.00000000
0.30716194 0.07641220 0.00000000
0.36728546 0.06251457 0.00000000
0.43339425 0.04448949 0.00000000
0.49081621 0.02116780 0.00000000
0.54309636 0.00000000 0.00000000
0.59215984 0.00000000 0.00000000
0.63832011 0.00000000 0.00000000
0.68181590 0.00000000 0.00000000
0.72283107 0.00000000 0.00000000
0.76150784 0.00000000 0.00000000
0.79795590 0.00000000 0.00000000
0.83225862 0.00000000 0.00000000
0.86447750 0.00000000 0.00000000
0.89465519 0.00000000 0.00000000
0.92281759 0.00000000 0.00000000
0.94897529 0.00000000 0.00000000
0.97312440 0.00000000 0.00000000
0.99231393 0.00000000 0.00000000
1.00177736 0.00000000 0.00000000
1.01132718 0.00000000 0.00000000
1.02097838 0.00000000 0.00000000
1.03074654 0.00000000 0.00000000
0.00000000 0.14755905 0.00000000
0.00000000 0.14675234 0.00000000
0.00000000 0.14602258 0.00000000
0.00000000 0.14522630 0.00000000
0.00000000 0.14420525 0.00000000
0.01352557 0.14281431 0.00000000
0.04765724 0.14093013 0.00000000
0.09297207 0.13838887 0.00000000
0.14131507 0.13496976 0.00000000
0.19094023 0.13036994 0.00000000
0.24340459 0.12416334 0.00000000
0.29981099 0.11572859 0.00000000
0.36109420 0.10410957 0.00000000
0.42814023 0.08770615 0.00000000
0.48764049 0.06426921 0.00000000
0.54079558 0.03415269 0.00000000
0.59048475 0.00000000 0.00000000
0.63709659 0.00000000 0.00000000
0.68092055 0.00000000 0.00000000
0.72217542 0.00000000 0.00000000
0.76102793 0.00000000 0.00000000
0.79760514 0.00000000 0.00000000
0.83200291 0.00000000 0.00000000
0.86429176 0.00000000 0.00000000
0.89452091 0.00000000 0.00000000
0.92272111 0.00000000 0.00000000
0.94890650 0.00000000 0.00000000
0.97307582 0.00000000 0.00000000
0.99229879 0.00000000 0.00000000
1.00176571 0.00000000 0.00000000
1.01131824 0.00000000 0.00000000
1.02097154 0.00000000 0.00000000
1.03074133 0.00000000 0.00000000
0.00000000 0.18315804 0.00000000
0.00000000 0.18247427 0.00000000
0.00000000 0.18185635 0.00000000
0.00000000 0.18118278 0.00000000
0.00000000 0.18032010 0.00000000
0.00000000 0.17914678 0.00000000
0.02184185 0.17756093 0.00000000
0.06736020 0.17542855 0.00000000
0.12220277 0.17257172 0.00000000
0.17601253 0.16875107 0.00000000
0.23134577 0.16363908 0.00000000
0.28986627 0.15677673 0.00000000
0.35277890 0.14749815 0.00000000
0.42111923 0.13478734 0.00000000
0.48336291 0.11696760 0.00000000
0.53771302 0.09088075 0.00000000
0.58824938 0.05210118 0.00000000
0.63546868 0.00207931 0.00000000
0.67973193 0.00000000 0.00000000
0.72130651 0.00000000 0.00000000
0.76039275 0.00000000 0.00000000
0.79714137 0.00000000 0.00000000
0.83166507 0.00000000 0.00000000
0.86404650 0.00000000 0.00000000
0.89434370 0.00000000 0.00000000
0.92259383 0.00000000 0.00000000
0.94881578 0.00000000 0.00000000
0.97301176 0.00000000 0.00000000
0.99227883 0.00000000 0.00000000
1.00175036 0.00000000 0.00000000
1.01130646 0.00000000 0.00000000
1.02096253 0.00000000 0.00000000
1.03073445 0.00000000 0.00000000
0.00000000 0.22282116 0.00000000
0.00000000 0.22223915 0.00000000
0.00000000 0.22171357 0.00000000
0.00000000 0.22114106 0.00000000
0.00000000 0.22040845 0.00000000
0.00000000 0.21941318 0.00000000
0.00000000 0.21807010 0.00000000
0.03351739 0.21626805 0.00000000
0.09357414 0.21386088 0.00000000
0.15479689 0.21065468 0.00000000
0.21467120 0.20638899 0.00000000
0.27633821 0.20070823 0.00000000
0.34158600 0.19311545 0.00000000
0.41173571 0.18289294 0.00000000
0.47758554 0.16895295 0.00000000
0.53357998 0.14952050 0.00000000
0.58526825 0.12132046 0.00000000
0.63330631 0.07651828 0.00000000
0.67815783 0.01212642 0.00000000
0.72015842 0.00000000 0.00000000
0.75955496 0.00000000 0.00000000
0.79653049 0.00000000 0.00000000
0.83122053 0.00000000 0.00000000
0.86372405 0.00000000 0.00000000
0.89411085 0.00000000 0.00000000
0.92242667 0.00000000 0.00000000
0.94869668 0.00000000 0.00000000
0.97292769 0.00000000 0.00000000
0.99225264 0.00000000 0.00000000
1.00173023 0.00000000 0.00000000
1.01129101 0.00000000 0.00000000
1.02095071 0.00000000 0.00000000
1.03072544 0.00000000 0.00000000
0.00000000 0.26699451 0.00000000
0.00000000 0.26649731 0.00000000
0.00000000 0.26604854 0.00000000
0.00000000 0.26555996 0.00000000
0.00000000 0.26493514 0.00000000
0.00000000 0.26408702 0.00000000
0.00000000 0.26294380 0.00000000
0.00000000 0.26141229 0.00000000
0.04964572 0.25937081 0.00000000
0.12331290 0.25665944 0.00000000
0.19111862 0.25306622 0.00000000
0.25772588 0.24830685 0.00000000
0.32642897 0.24199377 0.00000000
0.39915924 0.23358656 0.00000000
0.46973417 0.22230739 0.00000000
0.52801959 0.20698374 0.00000000
0.58128677 0.18571934 0.00000000
0.63043385 0.15507209 0.00000000
0.67607520 0.10727078 0.00000000
0.71864405 0.02643528 0.00000000
0.75845244 0.00000000 0.00000000
0.79572800 0.00000000 0.00000000
0.83063735 0.00000000 0.00000000
0.86330148 0.00000000 0.00000000
0.89380595 0.00000000 0.00000000
0.92220794 0.00000000 0.00000000
0.94854090 0.00000000 0.00000000
0.97281777 0.00000000 0.00000000
0.99221843 0.00000000 0.00000000
1.00170392 0.00000000 0.00000000
1.01127083 0.00000000 0.00000000
1.02093527 0.00000000 0.00000000
1.03071367 0.00000000 0.00000000
0.00000000 0.31617888 0.00000000
0.00000000 0.31575277 0.00000000
0.00000000 0.31536833 0.00000000
0.00000000 0.31494994 0.00000000
0.00000000 0.31441513 0.00000000
0.00000000 0.31368962 0.00000000
0.00000000 0.31271250 0.00000000
0.00000000 0.31140497 0.00000000
0.00000000 0.30966469 0.00000000
0.07162564 0.30735811 0.00000000
0.15644159 0.30430983 0.00000000
0.23157421 0.30028753 0.00000000
0.30566468 0.29497987 0.00000000
0.38219429 0.28796289 0.00000000
0.45894831 0.27864642 0.00000000
0.52048813 0.26618312 0.00000000
0.57594780 0.24930100 0.00000000
0.62661005 0.22595740 0.00000000
0.67331776 0.19249195 0.00000000
0.71664709 0.14086538 0.00000000
0.75700302 0.04618889 0.00000000
0.79467549 0.00000000 0.00000000
0.82987387 0.00000000 0.00000000
0.86274903 0.00000000 0.00000000
0.89340778 0.00000000 0.00000000
0.92192252 0.00000000 0.00000000
0.94833776 0.00000000 0.00000000
0.97267451 0.00000000 0.00000000
0.99217388 0.00000000 0.00000000
1.00166968 0.00000000 0.00000000
1.01124457 0.00000000 0.00000000
1.02091518 0.00000000 0.00000000
1.03069835 0.00000000 0.00000000
0.00000000 0.37093800 0.00000000
0.00000000 0.37057182 0.00000000
0.00000000 0.37024154 0.00000000
0.00000000 0.36988220 0.00000000
0.00000000 0.36942303 0.00000000
0.00000000 0.36880042 0.00000000
0.00000000 0.36796238 0.00000000
0.00000000 0.36684190 0.00000000
0.00000000 0.36535224 0.00000000
0.00000000 0.36338078 0.00000000
0.10028118 0.36078063 0.00000000
0.19332583 0.35735894 0.00000000
0.27661877 0.35286039 0.00000000
0.35903705 0.34694299 0.00000000
0.44387078 0.33914134 0.00000000
0.51017101 0.32880822 0.00000000
0.56873591 0.31501608 0.00000000
0.62149628 0.29637673 0.00000000
0.66965695 0.27067292 0.00000000
0.71401025 0.23397085 0.00000000
0.75509697 0.17781147 0.00000000
0.79329567 0.07280259 0.00000000
0.82887531 0.00000000 0.00000000
0.86202780 0.00000000 0.00000000
0.89288869 0.00000000 0.00000000
0.92155084 0.00000000 0.00000000
0.94807346 0.00000000 0.00000000
0.97248824 0.00000000 0.00000000
0.99211601 0.00000000 0.00000000
1.00162521 0.00000000 0.00000000
1.01121048 0.00000000 0.00000000
1.02088911 0.00000000 0.00000000
1.03067847 0.00000000 0.00000000
0.00000000 0.43190797 0.00000000
0.00000000 0.43159255 0.00000000
0.00000000 0.43130812 0.00000000
0.00000000 0.43099872 0.00000000
0.00000000 0.43060346 0.00000000
0.00000000 0.43006770 0.00000000
0.00000000 0.42934689 0.00000000
0.00000000 0.42838374 0.00000000
0.00000000 0.42710430 0.00000000
0.00000000 0.42541293 0.00000000
0.00479962 0.42318547 0.00000000
0.13214571 0.42026001 0.00000000
0.23437295 0.41642405 0.00000000
0.32676366 0.41139627 0.00000000
0.41846300 0.40479985 0.00000000
0.49578442 0.39612209 0.00000000
0.55887885 0.38465040 0.00000000
0.61460360 0.36936459 0.00000000
0.66477170 0.34874104 0.00000000
0.71051713 0.32035566 0.00000000
0.75258567 0.27993974 0.00000000
0.79148515 0.21845885 0.00000000
0.82756917 0.10610964 0.00000000
0.86108667 0.00000000 0.00000000
0.89221259 0.00000000 0.00000000
0.92106742 0.00000000 0.00000000
0.94773008 0.00000000 0.00000000
0.97224645 0.00000000 0.00000000
0.99204100 0.00000000 0.00000000
1.00156760 0.00000000 0.00000000
1.01116632 0.00000000 0.00000000
1.02085535 0.00000000 0.00000000
1.03065274 0.00000000 0.00000000
0.00000000 0.48618523 0.00000000
0.00000000 0.48599053 0.00000000
0.00000000 0.48581489 0.00000000
0.00000000 0.48562375 0.00000000
0.00000000 0.48537946 0.00000000
0.00000000 0.48504811 0.00000000
0.00000000 0.48460194 0.00000000
0.00000000 0.48400508 0.00000000
0.00000000 0.48321100 0.00000000
0.00000000 0.48215912 0.00000000
0.00000000 0.48077015 0.00000000
0.01623072 0.47893954 0.00000000
0.16747962 0.47652817 0.00000000
0.28003847 0.47334867 0.00000000
0.38258495 0.46914461 0.00000000
0.47515842 0.46355779 0.00000000
0.54515984 0.45607425 0.00000000
0.60519907 0.44593027 0.00000000
0.65819798 0.42985869 0.00000000
0.70586337 0.40699072 0.00000000
0.74926441 0.37555427 0.00000000
0.78910377 0.33087536 0.00000000
0.82585828 0.26317482 0.00000000
0.85985779 0.14133993 0.00000000
0.89133190 0.00000000 0.00000000
0.92043889 0.00000000 0.00000000
0.94728428 0.00000000 0.00000000
0.97193289 0.00000000 0.00000000
0.99194390 0.00000000 0.00000000
1.00149306 0.00000000 0.00000000
1.01110921 0.00000000 0.00000000
1.02081171 0.00000000 0.00000000
1.03061948 0.00000000 0.00000000
0.00000000 0.53612410 0.00000000
0.00000000 0.53598046 0.00000000
0.00000000 0.53585092 0.00000000
0.00000000 0.53570998 0.00000000
0.00000000 0.53552990 0.00000000
0.00000000 0.53528574 0.00000000
0.00000000 0.53495715 0.00000000
0.00000000 0.53451788 0.00000000
0.00000000 0.53393403 0.00000000
0.00000000 0.53316161 0.00000000
0.00000000 0.53214335 0.00000000
0.00000000 0.53080428 0.00000000
0.03251861 0.52904558 0.00000000
0.20665709 0.52673567 0.00000000
0.33083336 0.52369726 0.00000000
0.44423482 0.51968758 0.00000000
0.52552395 0.51436735 0.00000000
0.59212750 0.50724956 0.00000000
0.64923958 0.49761039 0.00000000
0.69960855 0.48432294 0.00000000
0.74484488 0.46551793 0.00000000
0.78595815 0.43688453 0.00000000
0.82361073 0.38730611 0.00000000
0.85825015 0.31234720 0.00000000
0.89018343 0.17871884 0.00000000
0.91962127 0.00000000 0.00000000
0.94670545 0.00000000 0.00000000
0.97152635 0.00000000 0.00000000
0.99181831 0.00000000 0.00000000
1.00139673 0.00000000 0.00000000
1.01103545 0.00000000 0.00000000
1.02075535 0.00000000 0.00000000
1.03057656 0.00000000 0.00000000
0.00000000 0.58361143 0.00000000
0.00000000 0.58350536 0.00000000
0.00000000 0.58340972 0.00000000
0.00000000 0.58330569 0.00000000
0.00000000 0.58317279 0.00000000
0.00000000 0.58299266 0.00000000
0.00000000 0.58275033 0.00000000
0.00000000 0.58242656 0.00000000
0.00000000 0.58199653 0.00000000
0.00000000 0.58142816 0.00000000
0.00000000 0.58067984 0.00000000
0.00000000 0.57969740 0.00000000
0.00000000 0.57840993 0.00000000
0.05507081 0.57672388 0.00000000
0.25008935 0.57451463 0.00000000
0.38733208 0.57161413 0.00000000
0.49613572 0.56779204 0.00000000
0.57343833 0.56272617 0.00000000
0.63679832 0.55595360 0.00000000
0.69109102 0.54678574 0.00000000
0.73890918 0.53414985 0.00000000
0.78177544 0.51626595 0.00000000
0.82064418 0.48990315 0.00000000
0.85613995 0.44833850 0.00000000
0.88868225 0.36638506 0.00000000
0.91855597 0.21833965 0.00000000
0.94595314 0.00000000 0.00000000
0.97099898 0.00000000 0.00000000
0.99165589 0.00000000 0.00000000
1.00127226 0.00000000 0.00000000
1.01094020 0.00000000 0.00000000
1.02068263 0.00000000 0.00000000
1.03052118 0.00000000 0.00000000
0.00000000 0.62876399 0.00000000
0.00000000 0.62868565 0.00000000
0.00000000 0.62861502 0.00000000
0.00000000 0.62853820 0.00000000
0.00000000 0.62844008 0.00000000
0.00000000 0.62830713 0.00000000
0.00000000 0.62812832 0.00000000
0.00000000 0.62788951 0.00000000
0.00000000 0.62757251 0.00000000
0.00000000 0.62715383 0.00000000
0.00000000 0.62660312 0.00000000
0.00000000 0.62588105 0.00000000
0.00000000 0.62493637 0.00000000
0.00000000 0.62370195 0.00000000
0.08579383 0.62208918 0.00000000
0.29823068 0.61997989 0.00000000
0.44863003 0.61721455 0.00000000
0.54549438 0.61357426 0.00000000
0.61901896 0.60875233 0.00000000
0.67926576 0.60230755 0.00000000
0.73082841 0.59358263 0.00000000
0.77615940 0.58155213 0.00000000
0.81670084 0.56451214 0.00000000
0.85335566 0.53936604 0.00000000
0.88671255 0.49966404 0.00000000
0.91716408 0.42571738 0.00000000
0.94497337 0.26015773 0.00000000
0.97031386 0.00000000 0.00000000
0.99144574 0.00000000 0.00000000
1.00111139 0.00000000 0.00000000
1.01081723 0.00000000 0.00000000
1.02058880 0.00000000 0.00000000
1.03044978 0.00000000 0.00000000
0.00000000 0.67168051 0.00000000
0.00000000 0.67162267 0.00000000
0.00000000 0.67157052 0.00000000
0.00000000 0.67151382 0.00000000
0.00000000 0.67144141 0.00000000
0.00000000 0.67134330 0.00000000
0.00000000 0.67121139 0.00000000
0.00000000 0.67103527 0.00000000
0.00000000 0.67080158 0.00000000
0.00000000 0.67049311 0.00000000
0.00000000 0.67008766 0.00000000
0.00000000 0.66955657 0.00000000
0.00000000 0.66886264 0.00000000
0.00000000 0.66795740 0.00000000
0.00000000 0.66677730 0.00000000
0.12107045 0.66523835 0.00000000
0.35158450 0.66322845 0.00000000
0.50038373 0.66059598 0.00000000
0.59244201 0.65713258 0.00000000
0.66236520 0.65254582 0.00000000
0.71960749 0.64641416 0.00000000
0.76851243 0.63810830 0.00000000
0.81140540 0.62664429 0.00000000
0.84965421 0.61038317 0.00000000
0.88411351 0.58633806 0.00000000
0.91533775 0.54826740 0.00000000
0.94369326 0.47967201 0.00000000
0.96942165 0.30395728 0.00000000
0.99117346 0.00000000 0.00000000
1.00090331 0.00000000 0.00000000
1.01065835 0.00000000 0.00000000
1.02046769 0.00000000 0.00000000
1.03035768 0.00000000 0.00000000
0.00000000 0.71244343 0.00000000
0.00000000 0.71240077 0.00000000
0.00000000 0.71236232 0.00000000
0.00000000 0.71232051 0.00000000
0.00000000 0.71226713 0.00000000
0.00000000 0.71219480 0.00000000
0.00000000 0.71209758 0.00000000
0.00000000 0.71196781 0.00000000
0.00000000 0.71179567 0.00000000
0.00000000 0.71156855 0.00000000
0.00000000 0.71127019 0.00000000
0.00000000 0.71087968 0.00000000
0.00000000 0.71036992 0.00000000
0.00000000 0.70970579 0.00000000
0.00000000 0.70884147 0.00000000
0.00000000 0.70771681 0.00000000
0.15879445 0.70625221 0.00000000
0.41070991 0.70434125 0.00000000
0.54955011 0.70183977 0.00000000
0.63709011 0.69854923 0.00000000
0.70356011 0.69419035 0.00000000
0.75788672 0.68835959 0.00000000
0.80419041 0.68045290 0.00000000
0.84468075 0.66952291 0.00000000
0.88065652 0.65398603 0.00000000
0.91292675 0.63094410 0.00000000
0.94201288 0.59430701 0.00000000
0.96825548 0.52783731 0.00000000
0.99081997 0.34928568 0.00000000
1.00063371 0.00000000 0.00000000
1.01045282 0.00000000 0.00000000
1.02031121 0.00000000 0.00000000
1.03023879 0.00000000 0.00000000
0.00000000 0.75112036 0.00000000
0.00000000 0.75108896 0.00000000
0.00000000 0.75106066 0.00000000
0.00000000 0.75102989 0.00000000
0.00000000 0.75099060 0.00000000
0.00000000 0.75093738 0.00000000
0.00000000 0.75086585 0.00000000
0.00000000 0.75077038 0.00000000
0.00000000 0.75064379 0.00000000
0.00000000 0.75047681 0.00000000
0.00000000 0.75025756 0.00000000
0.00000000 0.74997075 0.00000000
0.00000000 0.74959665 0.00000000
0.00000000 0.74910975 0.00000000
0.00000000 0.74847689 0.00000000
0.00000000 0.74765480 0.00000000
0.00000000 0.74658658 0.00000000
0.19928238 0.74519684 0.00000000
0.46887464 0.74338456 0.00000000
0.59626838 0.74101260 0.00000000
0.67953262 0.73789166 0.00000000
0.74267190 0.73375476 0.00000000
0.79415322 0.72821496 0.00000000
0.83789707 0.72069114 0.00000000
0.87600687 0.71026837 0.00000000
0.90971690 0.69541031 0.00000000
0.93979262 0.67328900 0.00000000
0.96672340 0.63791487 0.00000000
0.99035962 0.57311241 0.00000000
1.00028356 0.39534377 0.00000000
1.01018643 0.00000000 0.00000000
