Processors/avs_plugins/LUTs/BT2100_PQ_to_Linear_BT601_PAL.cube
TITLE "BT2100_PQ_to_BT601_PAL"
LUT_3D_SIZE 5
# BT2100 HDR PQ to BT601 SDR by Francesco Bucciantini
0.00000000 0.00000000 0.00000000
0.18779474 0.00000000 0.00000000
0.59670507 0.00000000 0.00000000
0.89502608 0.00000000 0.00000000
1.03076099 0.00000000 0.00000000
0.00000000 0.14755905 0.00000000
0.14131507 0.13496976 0.00000000
0.59048475 0.00000000 0.00000000
0.89452091 0.00000000 0.00000000
1.03074133 0.00000000 0.00000000
0.00000000 0.53612410 0.00000000
0.00000000 0.53393403 0.00000000
0.52552395 0.51436735 0.00000000
0.89018343 0.17871884 0.00000000
1.03057656 0.00000000 0.00000000
0.00000000 0.85510982 0.00000000
0.00000000 0.85492353 0.00000000
0.00000000 0.85335274 0.00000000
0.84798940 0.84045459 0.00000000
1.02929106 0.50026288 0.00000000
0.00000000 1.01864514 0.00000000
0.00000000 1.01863849 0.00000000
0.00000000 1.01858284 0.00000000
0.00000000 1.01815445 0.00000000
1.01658924 1.01444452 0.00000000
0.00000000 0.00000000 0.14748857
0.18201412 0.00000000 0.14582791
0.59587304 0.00000000 0.13137122
0.89495746 0.00000000 0.00000000
1.03075831 0.00000000 0.00000000
0.00000000 0.14673968 0.13585852
0.13409597 0.13409597 0.13409597
0.58961770 0.00000000 0.11867628
0.89445190 0.00000000 0.00000000
1.03073865 0.00000000 0.00000000
0.00000000 0.53597821 0.00763230
0.00000000 0.53378614 0.00521113
0.52421068 0.51420051 0.00000000
0.89011101 0.17801072 0.00000000
1.03057386 0.00000000 0.00000000
0.00000000 0.85509734 0.00000000
0.00000000 0.85491103 0.00000000
0.00000000 0.85334004 0.00000000
0.84787682 0.84044016 0.00000000
1.02928827 0.50008113 0.00000000
0.00000000 1.01864469 0.00000000
0.00000000 1.01863804 0.00000000
0.00000000 1.01858239 0.00000000
0.00000000 1.01815400 0.00000000
1.01658528 1.01444402 0.00000000
0.00000000 0.00000000 0.53600646
0.12648943 0.00000000 0.53571116
0.58873388 0.00000000 0.53322156
0.89438192 0.00000000 0.51280087
1.03073593 0.00000000 0.07625961
0.00000000 0.13975644 0.53397860
0.05935919 0.12663032 0.53367954
0.58217107 0.00000000 0.53115805
0.89387308 0.00000000 0.51045932
1.03071626 0.00000000 0.05972267
0.00000000 0.53475371 0.51595420
0.00000000 0.53254476 0.51561996
0.51279935 0.51279935 0.51279935
0.88950344 0.17200357 0.48947203
1.03055137 0.00000000 0.00000000
0.00000000 0.85499300 0.22974172
0.00000000 0.85480649 0.22857602
0.00000000 0.85323384 0.21862781
0.84693099 0.84031953 0.12442034
1.02926496 0.49855423 0.00000000
0.00000000 1.01864096 0.00000000
0.00000000 1.01863431 0.00000000
0.00000000 1.01857866 0.00000000
0.00000000 1.01815022 0.00000000
1.01655212 1.01443983 0.00000000
0.00000000 0.00000000 0.85503101
0.00000000 0.00000000 0.85500576
0.51947402 0.00000000 0.85479449
0.88985415 0.00000000 0.85316390
1.03056434 0.00000000 0.83872978
0.00000000 0.07474525 0.85485843
0.00000000 0.05688146 0.85483314
0.50918661 0.00000000 0.85462150
0.88931895 0.00000000 0.85298806
1.03054457 0.00000000 0.83852705
0.00000000 0.52506915 0.85340421
0.00000000 0.52272278 0.85337855
0.37650975 0.50167126 0.85316379
0.88471818 0.11926760 0.85150611
1.03037889 0.00000000 0.83681687
0.00000000 0.85419145 0.84152879
0.00000000 0.85400343 0.84149993
0.00000000 0.85241795 0.84125838
0.83939234 0.83939234 0.83939234
1.02908620 0.48639163 0.82272440
0.00000000 1.01861245 0.58927613
0.00000000 1.01860579 0.58906620
0.00000000 1.01855010 0.58730024
0.00000000 1.01812132 0.57307658
1.01629756 1.01440779 0.34363246
0.00000000 0.00000000 1.01862222
0.00000000 0.00000000 1.01862132
0.00000000 0.00000000 1.01861378
0.84124462 0.00000000 1.01855607
1.02912899 0.00000000 1.01808040
0.00000000 0.00000000 1.01861606
0.00000000 0.00000000 1.01861516
0.00000000 0.00000000 1.01860762
0.84035788 0.00000000 1.01854989
1.02910842 0.00000000 1.01807415
0.00000000 0.40806787 1.01856452
0.00000000 0.40298368 1.01856361
0.00000000 0.35775348 1.01855606
0.83263315 0.00000000 1.01849825
1.02893600 0.00000000 1.01802182
0.00000000 0.84738095 1.01816792
0.00000000 0.84717972 1.01816701
0.00000000 0.84548203 1.01815937
0.74329657 0.83147844 1.01810092
1.02758955 0.32514064 1.01761918
0.00000000 1.01837834 1.01474840
0.00000000 1.01837164 1.01474739
0.00000000 1.01831558 1.01473900
0.00000000 1.01788398 1.01467473
1.01414463 1.01414463 1.01414463
