Processors/avs_plugins/LUTs/Linear_BT709_to_Linear_BT601_PAL.cube
TITLE "BT709_to_BT601_PAL"
LUT_3D_SIZE 5
# BT709 to BT601 PAL by Francesco Bucciantini
0.00000000 0.00000000 0.00000000
0.24329623 0.00000000 0.00000000
0.48849410 0.00000000 0.00000000
0.73369197 0.00000000 0.00000000
0.97888984 0.00000000 0.00000000
0.01483623 0.25000000 0.00000000
0.25000000 0.25000000 0.00000000
0.49198697 0.25000000 0.00000000
0.73597698 0.25000000 0.00000000
0.98055788 0.25000000 0.00000000
0.04927878 0.50000000 0.00000000
0.26498600 0.50000000 0.00000000
0.50000000 0.50000000 0.00000000
0.74125241 0.50000000 0.00000000
0.98441816 0.50000000 0.00000000
0.10528191 0.75000000 0.00000000
0.28852550 0.75000000 0.00000000
0.51313709 0.75000000 0.00000000
0.75000000 0.75000000 0.00000000
0.99084734 0.75000000 0.00000000
0.16543559 1.00000000 0.00000000
0.31955425 1.00000000 0.00000000
0.53142172 1.00000000 0.00000000
0.76237305 1.00000000 0.00000000
1.00000000 1.00000000 0.00000000
0.00000000 0.00000000 0.25186814
0.24329623 0.00000000 0.25186814
0.48849410 0.00000000 0.25186814
0.73369197 0.00000000 0.25186814
0.97888984 0.00000000 0.25186814
0.01483623 0.25000000 0.25000000
0.25000000 0.25000000 0.25000000
0.49198697 0.25000000 0.25000000
0.73597698 0.25000000 0.25000000
0.98055788 0.25000000 0.25000000
0.04927878 0.50000000 0.24561525
0.26498600 0.50000000 0.24561525
0.50000000 0.50000000 0.24561525
0.74125241 0.50000000 0.24561525
0.98441816 0.50000000 0.24561525
0.10528191 0.75000000 0.23811331
0.28852550 0.75000000 0.23811331
0.51313709 0.75000000 0.23811331
0.75000000 0.75000000 0.23811331
0.99084734 0.75000000 0.23811331
0.16543559 1.00000000 0.22696843
0.31955425 1.00000000 0.22696843
0.53142172 1.00000000 0.22696843
0.76237305 1.00000000 0.22696843
1.00000000 1.00000000 0.22696843
0.00000000 0.00000000 0.50320635
0.24329623 0.00000000 0.50320635
0.48849410 0.00000000 0.50320635
0.73369197 0.00000000 0.50320635
0.97888984 0.00000000 0.50320635
0.01483623 0.25000000 0.50224322
0.25000000 0.25000000 0.50224322
0.49198697 0.25000000 0.50224322
0.73597698 0.25000000 0.50224322
0.98055788 0.25000000 0.50224322
0.04927878 0.50000000 0.50000000
0.26498600 0.50000000 0.50000000
0.50000000 0.50000000 0.50000000
0.74125241 0.50000000 0.50000000
0.98441816 0.50000000 0.50000000
0.10528191 0.75000000 0.49621907
0.28852550 0.75000000 0.49621907
0.51313709 0.75000000 0.49621907
0.75000000 0.75000000 0.49621907
0.99084734 0.75000000 0.49621907
0.16543559 1.00000000 0.49073737
0.31955425 1.00000000 0.49073737
0.53142172 1.00000000 0.49073737
0.76237305 1.00000000 0.49073737
1.00000000 1.00000000 0.49073737
0.00000000 0.00000000 0.75454456
0.24329623 0.00000000 0.75454456
0.48849410 0.00000000 0.75454456
0.73369197 0.00000000 0.75454456
0.97888984 0.00000000 0.75454456
0.01483623 0.25000000 0.75391605
0.25000000 0.25000000 0.75391605
0.49198697 0.25000000 0.75391605
0.73597698 0.25000000 0.75391605
0.98055788 0.25000000 0.75391605
0.04927878 0.50000000 0.75245477
0.26498600 0.50000000 0.75245477
0.50000000 0.50000000 0.75245477
0.74125241 0.50000000 0.75245477
0.98441816 0.50000000 0.75245477
0.10528191 0.75000000 0.75000000
0.28852550 0.75000000 0.75000000
0.51313709 0.75000000 0.75000000
0.75000000 0.75000000 0.75000000
0.99084734 0.75000000 0.75000000
0.16543559 1.00000000 0.74645946
0.31955425 1.00000000 0.74645946
0.53142172 1.00000000 0.74645946
0.76237305 1.00000000 0.74645946
1.00000000 1.00000000 0.74645946
0.00000000 0.00000000 1.00000000
0.24329623 0.00000000 1.00000000
0.48849410 0.00000000 1.00000000
0.73369197 0.00000000 1.00000000
0.97888984 0.00000000 1.00000000
0.01483623 0.25000000 1.00000000
0.25000000 0.25000000 1.00000000
0.49198697 0.25000000 1.00000000
0.73597698 0.25000000 1.00000000
0.98055788 0.25000000 1.00000000
0.04927878 0.50000000 1.00000000
0.26498600 0.50000000 1.00000000
0.50000000 0.50000000 1.00000000
0.74125241 0.50000000 1.00000000
0.98441816 0.50000000 1.00000000
0.10528191 0.75000000 1.00000000
0.28852550 0.75000000 1.00000000
0.51313709 0.75000000 1.00000000
0.75000000 0.75000000 1.00000000
0.99084734 0.75000000 1.00000000
0.16543559 1.00000000 1.00000000
0.31955425 1.00000000 1.00000000
0.53142172 1.00000000 1.00000000
0.76237305 1.00000000 1.00000000
1.00000000 1.00000000 1.00000000
