Processors/avs_plugins/LUTs/Linear_BT709_to_Linear_BT601_PAL.cube
TITLE "BT709_to_BT601_PAL"
LUT_3D_SIZE 9
# BT709 to BT601 PAL by Francesco Bucciantini
0.00000000 0.00000000 0.00000000
0.12069729 0.00000000 0.00000000
0.24329623 0.00000000 0.00000000
0.36589516 0.00000000 0.00000000
0.48849410 0.00000000 0.00000000
0.61109304 0.00000000 0.00000000
0.73369197 0.00000000 0.00000000
0.85629091 0.00000000 0.00000000
0.97888984 0.00000000 0.00000000
0.00553826 0.12500000 0.00000000
0.12500000 0.12500000 0.00000000
0.24581734 0.12500000 0.00000000
0.36763318 0.12500000 0.00000000
0.48980093 0.12500000 0.00000000
0.61213013 0.12500000 0.00000000
0.73454584 0.12500000 0.00000000
0.85701294 0.12500000 0.00000000
0.97951288 0.12500000 0.00000000
0.01483623 0.25000000 0.00000000
0.13200479 0.25000000 0.00000000
0.25000000 0.25000000 0.00000000
0.37053341 0.25000000 0.00000000
0.49198697 0.25000000 0.00000000
0.61386712 0.25000000 0.00000000
0.73597698 0.25000000 0.00000000
0.85822364 0.25000000 0.00000000
0.98055788 0.25000000 0.00000000
0.02929371 0.37500000 0.00000000
0.14240797 0.37500000 0.00000000
0.25638459 0.37500000 0.00000000
0.37500000 0.37500000 0.00000000
0.49536658 0.37500000 0.00000000
0.61655775 0.37500000 0.00000000
0.73819632 0.37500000 0.00000000
0.86010245 0.37500000 0.00000000
0.98218031 0.37500000 0.00000000
0.04927878 0.50000000 0.00000000
0.15594532 0.50000000 0.00000000
0.26498600 0.50000000 0.00000000
0.38109091 0.50000000 0.00000000
0.50000000 0.50000000 0.00000000
0.62025686 0.50000000 0.00000000
0.74125241 0.50000000 0.00000000
0.86269222 0.50000000 0.00000000
0.98441816 0.50000000 0.00000000
0.07508876 0.62500000 0.00000000
0.17222500 0.62500000 0.00000000
0.27573970 0.62500000 0.00000000
0.38882003 0.62500000 0.00000000
0.50591985 0.62500000 0.00000000
0.62500000 0.62500000 0.00000000
0.74517925 0.62500000 0.00000000
0.86602425 0.62500000 0.00000000
0.98729994 0.62500000 0.00000000
0.10528191 0.75000000 0.00000000
0.19082016 0.75000000 0.00000000
0.28852550 0.75000000 0.00000000
0.39816695 0.75000000 0.00000000
0.51313709 0.75000000 0.00000000
0.63080792 0.75000000 0.00000000
0.75000000 0.75000000 0.00000000
0.87012145 0.75000000 0.00000000
0.99084734 0.75000000 0.00000000
0.13535875 0.87500000 0.00000000
0.21132694 0.87500000 0.00000000
0.30318808 0.87500000 0.00000000
0.40908437 0.87500000 0.00000000
0.52164491 0.87500000 0.00000000
0.63768920 0.87500000 0.00000000
0.75572900 0.87500000 0.00000000
0.87500000 0.87500000 0.00000000
0.99507674 0.87500000 0.00000000
0.16543559 1.00000000 0.00000000
0.23339245 1.00000000 0.00000000
0.31955425 1.00000000 0.00000000
0.42150465 1.00000000 0.00000000
0.53142172 1.00000000 0.00000000
0.64564202 1.00000000 0.00000000
0.76237305 1.00000000 0.00000000
0.88067037 1.00000000 0.00000000
1.00000000 1.00000000 0.00000000
0.00000000 0.00000000 0.12619904
0.12069729 0.00000000 0.12619904
0.24329623 0.00000000 0.12619904
0.36589516 0.00000000 0.12619904
0.48849410 0.00000000 0.12619904
0.61109304 0.00000000 0.12619904
0.73369197 0.00000000 0.12619904
0.85629091 0.00000000 0.12619904
0.97888984 0.00000000 0.12619904
0.00553826 0.12500000 0.12500000
0.12500000 0.12500000 0.12500000
0.24581734 0.12500000 0.12500000
0.36763318 0.12500000 0.12500000
0.48980093 0.12500000 0.12500000
0.61213013 0.12500000 0.12500000
0.73454584 0.12500000 0.12500000
0.85701294 0.12500000 0.12500000
0.97951288 0.12500000 0.12500000
0.01483623 0.25000000 0.12296916
0.13200479 0.25000000 0.12296916
0.25000000 0.25000000 0.12296916
0.37053341 0.25000000 0.12296916
0.49198697 0.25000000 0.12296916
0.61386712 0.25000000 0.12296916
0.73597698 0.25000000 0.12296916
0.85822364 0.25000000 0.12296916
0.98055788 0.25000000 0.12296916
0.02929371 0.37500000 0.11976549
0.14240797 0.37500000 0.11976549
0.25638459 0.37500000 0.11976549
0.37500000 0.37500000 0.11976549
0.49536658 0.37500000 0.11976549
0.61655775 0.37500000 0.11976549
0.73819632 0.37500000 0.11976549
0.86010245 0.37500000 0.11976549
0.98218031 0.37500000 0.11976549
0.04927878 0.50000000 0.11524015
0.15594532 0.50000000 0.11524015
0.26498600 0.50000000 0.11524015
0.38109091 0.50000000 0.11524015
0.50000000 0.50000000 0.11524015
0.62025686 0.50000000 0.11524015
0.74125241 0.50000000 0.11524015
0.86269222 0.50000000 0.11524015
0.98441816 0.50000000 0.11524015
0.07508876 0.62500000 0.10921703
0.17222500 0.62500000 0.10921703
0.27573970 0.62500000 0.10921703
0.38882003 0.62500000 0.10921703
0.50591985 0.62500000 0.10921703
0.62500000 0.62500000 0.10921703
0.74517925 0.62500000 0.10921703
0.86602425 0.62500000 0.10921703
0.98729994 0.62500000 0.10921703
0.10528191 0.75000000 0.10146826
0.19082016 0.75000000 0.10146826
0.28852550 0.75000000 0.10146826
0.39816695 0.75000000 0.10146826
0.51313709 0.75000000 0.10146826
0.63080792 0.75000000 0.10146826
0.75000000 0.75000000 0.10146826
0.87012145 0.75000000 0.10146826
0.99084734 0.75000000 0.10146826
0.13535875 0.87500000 0.09167851
0.21132694 0.87500000 0.09167851
0.30318808 0.87500000 0.09167851
0.40908437 0.87500000 0.09167851
0.52164491 0.87500000 0.09167851
0.63768920 0.87500000 0.09167851
0.75572900 0.87500000 0.09167851
0.87500000 0.87500000 0.09167851
0.99507674 0.87500000 0.09167851
0.16543559 1.00000000 0.07914765
0.23339245 1.00000000 0.07914765
0.31955425 1.00000000 0.07914765
0.42150465 1.00000000 0.07914765
0.53142172 1.00000000 0.07914765
0.64564202 1.00000000 0.07914765
0.76237305 1.00000000 0.07914765
0.88067037 1.00000000 0.07914765
1.00000000 1.00000000 0.07914765
0.00000000 0.00000000 0.25186814
0.12069729 0.00000000 0.25186814
0.24329623 0.00000000 0.25186814
0.36589516 0.00000000 0.25186814
0.48849410 0.00000000 0.25186814
0.61109304 0.00000000 0.25186814
0.73369197 0.00000000 0.25186814
0.85629091 0.00000000 0.25186814
0.97888984 0.00000000 0.25186814
0.00553826 0.12500000 0.25117220
0.12500000 0.12500000 0.25117220
0.24581734 0.12500000 0.25117220
0.36763318 0.12500000 0.25117220
0.48980093 0.12500000 0.25117220
0.61213013 0.12500000 0.25117220
0.73454584 0.12500000 0.25117220
0.85701294 0.12500000 0.25117220
0.97951288 0.12500000 0.25117220
0.01483623 0.25000000 0.25000000
0.13200479 0.25000000 0.25000000
0.25000000 0.25000000 0.25000000
0.37053341 0.25000000 0.25000000
0.49198697 0.25000000 0.25000000
0.61386712 0.25000000 0.25000000
0.73597698 0.25000000 0.25000000
0.85822364 0.25000000 0.25000000
0.98055788 0.25000000 0.25000000
0.02929371 0.37500000 0.24816772
0.14240797 0.37500000 0.24816772
0.25638459 0.37500000 0.24816772
0.37500000 0.37500000 0.24816772
0.49536658 0.37500000 0.24816772
0.61655775 0.37500000 0.24816772
0.73819632 0.37500000 0.24816772
0.86010245 0.37500000 0.24816772
0.98218031 0.37500000 0.24816772
0.04927878 0.50000000 0.24561525
0.15594532 0.50000000 0.24561525
0.26498600 0.50000000 0.24561525
0.38109091 0.50000000 0.24561525
0.50000000 0.50000000 0.24561525
0.62025686 0.50000000 0.24561525
0.74125241 0.50000000 0.24561525
0.86269222 0.50000000 0.24561525
0.98441816 0.50000000 0.24561525
0.07508876 0.62500000 0.24228425
0.17222500 0.62500000 0.24228425
0.27573970 0.62500000 0.24228425
0.38882003 0.62500000 0.24228425
0.50591985 0.62500000 0.24228425
0.62500000 0.62500000 0.24228425
0.74517925 0.62500000 0.24228425
0.86602425 0.62500000 0.24228425
0.98729994 0.62500000 0.24228425
0.10528191 0.75000000 0.23811331
0.19082016 0.75000000 0.23811331
0.28852550 0.75000000 0.23811331
0.39816695 0.75000000 0.23811331
0.51313709 0.75000000 0.23811331
0.63080792 0.75000000 0.23811331
0.75000000 0.75000000 0.23811331
0.87012145 0.75000000 0.23811331
0.99084734 0.75000000 0.23811331
0.13535875 0.87500000 0.23303427
0.21132694 0.87500000 0.23303427
0.30318808 0.87500000 0.23303427
0.40908437 0.87500000 0.23303427
0.52164491 0.87500000 0.23303427
0.63768920 0.87500000 0.23303427
0.75572900 0.87500000 0.23303427
0.87500000 0.87500000 0.23303427
0.99507674 0.87500000 0.23303427
0.16543559 1.00000000 0.22696843
0.23339245 1.00000000 0.22696843
0.31955425 1.00000000 0.22696843
0.42150465 1.00000000 0.22696843
0.53142172 1.00000000 0.22696843
0.64564202 1.00000000 0.22696843
0.76237305 1.00000000 0.22696843
0.88067037 1.00000000 0.22696843
1.00000000 1.00000000 0.22696843
0.00000000 0.00000000 0.37753725
0.12069729 0.00000000 0.37753725
0.24329623 0.00000000 0.37753725
0.36589516 0.00000000 0.37753725
0.48849410 0.00000000 0.37753725
0.61109304 0.00000000 0.37753725
0.73369197 0.00000000 0.37753725
0.85629091 0.00000000 0.37753725
0.97888984 0.00000000 0.37753725
0.00553826 0.12500000 0.37705882
0.12500000 0.12500000 0.37705882
0.24581734 0.12500000 0.37705882
0.36763318 0.12500000 0.37705882
0.48980093 0.12500000 0.37705882
0.61213013 0.12500000 0.37705882
0.73454584 0.12500000 0.37705882
0.85701294 0.12500000 0.37705882
0.97951288 0.12500000 0.37705882
0.01483623 0.25000000 0.37625429
0.13200479 0.25000000 0.37625429
0.25000000 0.25000000 0.37625429
0.37053341 0.25000000 0.37625429
0.49198697 0.25000000 0.37625429
0.61386712 0.25000000 0.37625429
0.73597698 0.25000000 0.37625429
0.85822364 0.25000000 0.37625429
0.98055788 0.25000000 0.37625429
0.02929371 0.37500000 0.37500000
0.14240797 0.37500000 0.37500000
0.25638459 0.37500000 0.37500000
0.37500000 0.37500000 0.37500000
0.49536658 0.37500000 0.37500000
0.61655775 0.37500000 0.37500000
0.73819632 0.37500000 0.37500000
0.86010245 0.37500000 0.37500000
0.98218031 0.37500000 0.37500000
0.04927878 0.50000000 0.37325944
0.15594532 0.50000000 0.37325944
0.26498600 0.50000000 0.37325944
0.38109091 0.50000000 0.37325944
0.50000000 0.50000000 0.37325944
0.62025686 0.50000000 0.37325944
0.74125241 0.50000000 0.37325944
0.86269222 0.50000000 0.37325944
0.98441816 0.50000000 0.37325944
0.07508876 0.62500000 0.37099991
0.17222500 0.62500000 0.37099991
0.27573970 0.62500000 0.37099991
0.38882003 0.62500000 0.37099991
0.50591985 0.62500000 0.37099991
0.62500000 0.62500000 0.37099991
0.74517925 0.62500000 0.37099991
0.86602425 0.62500000 0.37099991
0.98729994 0.62500000 0.37099991
0.10528191 0.75000000 0.36818993
0.19082016 0.75000000 0.36818993
0.28852550 0.75000000 0.36818993
0.39816695 0.75000000 0.36818993
0.51313709 0.75000000 0.36818993
0.63080792 0.75000000 0.36818993
0.75000000 0.75000000 0.36818993
0.87012145 0.75000000 0.36818993
0.99084734 0.75000000 0.36818993
0.13535875 0.87500000 0.36479767
0.21132694 0.87500000 0.36479767
0.30318808 0.87500000 0.36479767
0.40908437 0.87500000 0.36479767
0.52164491 0.87500000 0.36479767
0.63768920 0.87500000 0.36479767
0.75572900 0.87500000 0.36479767
0.87500000 0.87500000 0.36479767
0.99507674 0.87500000 0.36479767
0.16543559 1.00000000 0.36078974
0.23339245 1.00000000 0.36078974
0.31955425 1.00000000 0.36078974
0.42150465 1.00000000 0.36078974
0.53142172 1.00000000 0.36078974
0.64564202 1.00000000 0.36078974
0.76237305 1.00000000 0.36078974
0.88067037 1.00000000 0.36078974
1.00000000 1.00000000 0.36078974
0.00000000 0.00000000 0.50320635
0.12069729 0.00000000 0.50320635
0.24329623 0.00000000 0.50320635
0.36589516 0.00000000 0.50320635
0.48849410 0.00000000 0.50320635
0.61109304 0.00000000 0.50320635
0.73369197 0.00000000 0.50320635
0.85629091 0.00000000 0.50320635
0.97888984 0.00000000 0.50320635
0.00553826 0.12500000 0.50284704
0.12500000 0.12500000 0.50284704
0.24581734 0.12500000 0.50284704
0.36763318 0.12500000 0.50284704
0.48980093 0.12500000 0.50284704
0.61213013 0.12500000 0.50284704
0.73454584 0.12500000 0.50284704
0.85701294 0.12500000 0.50284704
0.97951288 0.12500000 0.50284704
0.01483623 0.25000000 0.50224322
0.13200479 0.25000000 0.50224322
0.25000000 0.25000000 0.50224322
0.37053341 0.25000000 0.50224322
0.49198697 0.25000000 0.50224322
0.61386712 0.25000000 0.50224322
0.73597698 0.25000000 0.50224322
0.85822364 0.25000000 0.50224322
0.98055788 0.25000000 0.50224322
0.02929371 0.37500000 0.50130286
0.14240797 0.37500000 0.50130286
0.25638459 0.37500000 0.50130286
0.37500000 0.37500000 0.50130286
0.49536658 0.37500000 0.50130286
0.61655775 0.37500000 0.50130286
0.73819632 0.37500000 0.50130286
0.86010245 0.37500000 0.50130286
0.98218031 0.37500000 0.50130286
0.04927878 0.50000000 0.50000000
0.15594532 0.50000000 0.50000000
0.26498600 0.50000000 0.50000000
0.38109091 0.50000000 0.50000000
0.50000000 0.50000000 0.50000000
0.62025686 0.50000000 0.50000000
0.74125241 0.50000000 0.50000000
0.86269222 0.50000000 0.50000000
0.98441816 0.50000000 0.50000000
0.07508876 0.62500000 0.49831226
0.17222500 0.62500000 0.49831226
0.27573970 0.62500000 0.49831226
0.38882003 0.62500000 0.49831226
0.50591985 0.62500000 0.49831226
0.62500000 0.62500000 0.49831226
0.74517925 0.62500000 0.49831226
0.86602425 0.62500000 0.49831226
0.98729994 0.62500000 0.49831226
0.10528191 0.75000000 0.49621907
0.19082016 0.75000000 0.49621907
0.28852550 0.75000000 0.49621907
0.39816695 0.75000000 0.49621907
0.51313709 0.75000000 0.49621907
0.63080792 0.75000000 0.49621907
0.75000000 0.75000000 0.49621907
0.87012145 0.75000000 0.49621907
0.99084734 0.75000000 0.49621907
0.13535875 0.87500000 0.49370067
0.21132694 0.87500000 0.49370067
0.30318808 0.87500000 0.49370067
0.40908437 0.87500000 0.49370067
0.52164491 0.87500000 0.49370067
0.63768920 0.87500000 0.49370067
0.75572900 0.87500000 0.49370067
0.87500000 0.87500000 0.49370067
0.99507674 0.87500000 0.49370067
0.16543559 1.00000000 0.49073737
0.23339245 1.00000000 0.49073737
0.31955425 1.00000000 0.49073737
0.42150465 1.00000000 0.49073737
0.53142172 1.00000000 0.49073737
0.64564202 1.00000000 0.49073737
0.76237305 1.00000000 0.49073737
0.88067037 1.00000000 0.49073737
1.00000000 1.00000000 0.49073737
0.00000000 0.00000000 0.62887545
0.12069729 0.00000000 0.62887545
0.24329623 0.00000000 0.62887545
0.36589516 0.00000000 0.62887545
0.48849410 0.00000000 0.62887545
0.61109304 0.00000000 0.62887545
0.73369197 0.00000000 0.62887545
0.85629091 0.00000000 0.62887545
0.97888984 0.00000000 0.62887545
0.00553826 0.12500000 0.62859048
0.12500000 0.12500000 0.62859048
0.24581734 0.12500000 0.62859048
0.36763318 0.12500000 0.62859048
0.48980093 0.12500000 0.62859048
0.61213013 0.12500000 0.62859048
0.73454584 0.12500000 0.62859048
0.85701294 0.12500000 0.62859048
0.97951288 0.12500000 0.62859048
0.01483623 0.25000000 0.62811173
0.13200479 0.25000000 0.62811173
0.25000000 0.25000000 0.62811173
0.37053341 0.25000000 0.62811173
0.49198697 0.25000000 0.62811173
0.61386712 0.25000000 0.62811173
0.73597698 0.25000000 0.62811173
0.85822364 0.25000000 0.62811173
0.98055788 0.25000000 0.62811173
0.02929371 0.37500000 0.62736656
0.14240797 0.37500000 0.62736656
0.25638459 0.37500000 0.62736656
0.37500000 0.37500000 0.62736656
0.49536658 0.37500000 0.62736656
0.61655775 0.37500000 0.62736656
0.73819632 0.37500000 0.62736656
0.86010245 0.37500000 0.62736656
0.98218031 0.37500000 0.62736656
0.04927878 0.50000000 0.62633495
0.15594532 0.50000000 0.62633495
0.26498600 0.50000000 0.62633495
0.38109091 0.50000000 0.62633495
0.50000000 0.50000000 0.62633495
0.62025686 0.50000000 0.62633495
0.74125241 0.50000000 0.62633495
0.86269222 0.50000000 0.62633495
0.98441816 0.50000000 0.62633495
0.07508876 0.62500000 0.62500000
0.17222500 0.62500000 0.62500000
0.27573970 0.62500000 0.62500000
0.38882003 0.62500000 0.62500000
0.50591985 0.62500000 0.62500000
0.62500000 0.62500000 0.62500000
0.74517925 0.62500000 0.62500000
0.86602425 0.62500000 0.62500000
0.98729994 0.62500000 0.62500000
0.10528191 0.75000000 0.62334658
0.19082016 0.75000000 0.62334658
0.28852550 0.75000000 0.62334658
0.39816695 0.75000000 0.62334658
0.51313709 0.75000000 0.62334658
0.63080792 0.75000000 0.62334658
0.75000000 0.75000000 0.62334658
0.87012145 0.75000000 0.62334658
0.99084734 0.75000000 0.62334658
0.13535875 0.87500000 0.62136057
0.21132694 0.87500000 0.62136057
0.30318808 0.87500000 0.62136057
0.40908437 0.87500000 0.62136057
0.52164491 0.87500000 0.62136057
0.63768920 0.87500000 0.62136057
0.75572900 0.87500000 0.62136057
0.87500000 0.87500000 0.62136057
0.99507674 0.87500000 0.62136057
0.16543559 1.00000000 0.61902837
0.23339245 1.00000000 0.61902837
0.31955425 1.00000000 0.61902837
0.42150465 1.00000000 0.61902837
0.53142172 1.00000000 0.61902837
0.64564202 1.00000000 0.61902837
0.76237305 1.00000000 0.61902837
0.88067037 1.00000000 0.61902837
1.00000000 1.00000000 0.61902837
0.00000000 0.00000000 0.75454456
0.12069729 0.00000000 0.75454456
0.24329623 0.00000000 0.75454456
0.36589516 0.00000000 0.75454456
0.48849410 0.00000000 0.75454456
0.61109304 0.00000000 0.75454456
0.73369197 0.00000000 0.75454456
0.85629091 0.00000000 0.75454456
0.97888984 0.00000000 0.75454456
0.00553826 0.12500000 0.75431001
0.12500000 0.12500000 0.75431001
0.24581734 0.12500000 0.75431001
0.36763318 0.12500000 0.75431001
0.48980093 0.12500000 0.75431001
0.61213013 0.12500000 0.75431001
0.73454584 0.12500000 0.75431001
0.85701294 0.12500000 0.75431001
0.97951288 0.12500000 0.75431001
0.01483623 0.25000000 0.75391605
0.13200479 0.25000000 0.75391605
0.25000000 0.25000000 0.75391605
0.37053341 0.25000000 0.75391605
0.49198697 0.25000000 0.75391605
0.61386712 0.25000000 0.75391605
0.73597698 0.25000000 0.75391605
0.85822364 0.25000000 0.75391605
0.98055788 0.25000000 0.75391605
0.02929371 0.37500000 0.75330304
0.14240797 0.37500000 0.75330304
0.25638459 0.37500000 0.75330304
0.37500000 0.37500000 0.75330304
0.49536658 0.37500000 0.75330304
0.61655775 0.37500000 0.75330304
0.73819632 0.37500000 0.75330304
0.86010245 0.37500000 0.75330304
0.98218031 0.37500000 0.75330304
0.04927878 0.50000000 0.75245477
0.15594532 0.50000000 0.75245477
0.26498600 0.50000000 0.75245477
0.38109091 0.50000000 0.75245477
0.50000000 0.50000000 0.75245477
0.62025686 0.50000000 0.75245477
0.74125241 0.50000000 0.75245477
0.86269222 0.50000000 0.75245477
0.98441816 0.50000000 0.75245477
0.07508876 0.62500000 0.75135772
0.17222500 0.62500000 0.75135772
0.27573970 0.62500000 0.75135772
0.38882003 0.62500000 0.75135772
0.50591985 0.62500000 0.75135772
0.62500000 0.62500000 0.75135772
0.74517925 0.62500000 0.75135772
0.86602425 0.62500000 0.75135772
0.98729994 0.62500000 0.75135772
0.10528191 0.75000000 0.75000000
0.19082016 0.75000000 0.75000000
0.28852550 0.75000000 0.75000000
0.39816695 0.75000000 0.75000000
0.51313709 0.75000000 0.75000000
0.63080792 0.75000000 0.75000000
0.75000000 0.75000000 0.75000000
0.87012145 0.75000000 0.75000000
0.99084734 0.75000000 0.75000000
0.13535875 0.87500000 0.74837068
0.21132694 0.87500000 0.74837068
0.30318808 0.87500000 0.74837068
0.40908437 0.87500000 0.74837068
0.52164491 0.87500000 0.74837068
0.63768920 0.87500000 0.74837068
0.75572900 0.87500000 0.74837068
0.87500000 0.87500000 0.74837068
0.99507674 0.87500000 0.74837068
0.16543559 1.00000000 0.74645946
0.23339245 1.00000000 0.74645946
0.31955425 1.00000000 0.74645946
0.42150465 1.00000000 0.74645946
0.53142172 1.00000000 0.74645946
0.64564202 1.00000000 0.74645946
0.76237305 1.00000000 0.74645946
0.88067037 1.00000000 0.74645946
1.00000000 1.00000000 0.74645946
0.00000000 0.00000000 0.88021366
0.12069729 0.00000000 0.88021366
0.24329623 0.00000000 0.88021366
0.36589516 0.00000000 0.88021366
0.48849410 0.00000000 0.88021366
0.61109304 0.00000000 0.88021366
0.73369197 0.00000000 0.88021366
0.85629091 0.00000000 0.88021366
0.97888984 0.00000000 0.88021366
0.00553826 0.12500000 0.88001537
0.12500000 0.12500000 0.88001537
0.24581734 0.12500000 0.88001537
0.36763318 0.12500000 0.88001537
0.48980093 0.12500000 0.88001537
0.61213013 0.12500000 0.88001537
0.73454584 0.12500000 0.88001537
0.85701294 0.12500000 0.88001537
0.97951288 0.12500000 0.88001537
0.01483623 0.25000000 0.87968235
0.13200479 0.25000000 0.87968235
0.25000000 0.25000000 0.87968235
0.37053341 0.25000000 0.87968235
0.49198697 0.25000000 0.87968235
0.61386712 0.25000000 0.87968235
0.73597698 0.25000000 0.87968235
0.85822364 0.25000000 0.87968235
0.98055788 0.25000000 0.87968235
0.02929371 0.37500000 0.87916426
0.14240797 0.37500000 0.87916426
0.25638459 0.37500000 0.87916426
0.37500000 0.37500000 0.87916426
0.49536658 0.37500000 0.87916426
0.61655775 0.37500000 0.87916426
0.73819632 0.37500000 0.87916426
0.86010245 0.37500000 0.87916426
0.98218031 0.37500000 0.87916426
0.04927878 0.50000000 0.87844753
0.15594532 0.50000000 0.87844753
0.26498600 0.50000000 0.87844753
0.38109091 0.50000000 0.87844753
0.50000000 0.50000000 0.87844753
0.62025686 0.50000000 0.87844753
0.74125241 0.50000000 0.87844753
0.86269222 0.50000000 0.87844753
0.98441816 0.50000000 0.87844753
0.07508876 0.62500000 0.87752095
0.17222500 0.62500000 0.87752095
0.27573970 0.62500000 0.87752095
0.38882003 0.62500000 0.87752095
0.50591985 0.62500000 0.87752095
0.62500000 0.62500000 0.87752095
0.74517925 0.62500000 0.87752095
0.86602425 0.62500000 0.87752095
0.98729994 0.62500000 0.87752095
0.10528191 0.75000000 0.87637472
0.19082016 0.75000000 0.87637472
0.28852550 0.75000000 0.87637472
0.39816695 0.75000000 0.87637472
0.51313709 0.75000000 0.87637472
0.63080792 0.75000000 0.87637472
0.75000000 0.75000000 0.87637472
0.87012145 0.75000000 0.87637472
0.99084734 0.75000000 0.87637472
0.13535875 0.87500000 0.87500000
0.21132694 0.87500000 0.87500000
0.30318808 0.87500000 0.87500000
0.40908437 0.87500000 0.87500000
0.52164491 0.87500000 0.87500000
0.63768920 0.87500000 0.87500000
0.75572900 0.87500000 0.87500000
0.87500000 0.87500000 0.87500000
0.99507674 0.87500000 0.87500000
0.16543559 1.00000000 0.87338852
0.23339245 1.00000000 0.87338852
0.31955425 1.00000000 0.87338852
0.42150465 1.00000000 0.87338852
0.53142172 1.00000000 0.87338852
0.64564202 1.00000000 0.87338852
0.76237305 1.00000000 0.87338852
0.88067037 1.00000000 0.87338852
1.00000000 1.00000000 0.87338852
0.00000000 0.00000000 1.00000000
0.12069729 0.00000000 1.00000000
0.24329623 0.00000000 1.00000000
0.36589516 0.00000000 1.00000000
0.48849410 0.00000000 1.00000000
0.61109304 0.00000000 1.00000000
0.73369197 0.00000000 1.00000000
0.85629091 0.00000000 1.00000000
0.97888984 0.00000000 1.00000000
0.00553826 0.12500000 1.00000000
0.12500000 0.12500000 1.00000000
0.24581734 0.12500000 1.00000000
0.36763318 0.12500000 1.00000000
0.48980093 0.12500000 1.00000000
0.61213013 0.12500000 1.00000000
0.73454584 0.12500000 1.00000000
0.85701294 0.12500000 1.00000000
0.97951288 0.12500000 1.00000000
0.01483623 0.25000000 1.00000000
0.13200479 0.25000000 1.00000000
0.25000000 0.25000000 1.00000000
0.37053341 0.25000000 1.00000000
0.49198697 0.25000000 1.00000000
0.61386712 0.25000000 1.00000000
0.73597698 0.25000000 1.00000000
0.85822364 0.25000000 1.00000000
0.98055788 0.25000000 1.00000000
0.02929371 0.37500000 1.00000000
0.14240797 0.37500000 1.00000000
0.25638459 0.37500000 1.00000000
0.37500000 0.37500000 1.00000000
0.49536658 0.37500000 1.00000000
0.61655775 0.37500000 1.00000000
0.73819632 0.37500000 1.00000000
0.86010245 0.37500000 1.00000000
0.98218031 0.37500000 1.00000000
0.04927878 0.50000000 1.00000000
0.15594532 0.50000000 1.00000000
0.26498600 0.50000000 1.00000000
0.38109091 0.50000000 1.00000000
0.50000000 0.50000000 1.00000000
0.62025686 0.50000000 1.00000000
0.74125241 0.50000000 1.00000000
0.86269222 0.50000000 1.00000000
0.98441816 0.50000000 1.00000000
0.07508876 0.62500000 1.00000000
0.17222500 0.62500000 1.00000000
0.27573970 0.62500000 1.00000000
0.38882003 0.62500000 1.00000000
0.50591985 0.62500000 1.00000000
0.62500000 0.62500000 1.00000000
0.74517925 0.62500000 1.00000000
0.86602425 0.62500000 1.00000000
0.98729994 0.62500000 1.00000000
0.10528191 0.75000000 1.00000000
0.19082016 0.75000000 1.00000000
0.28852550 0.75000000 1.00000000
0.39816695 0.75000000 1.00000000
0.51313709 0.75000000 1.00000000
0.63080792 0.75000000 1.00000000
0.75000000 0.75000000 1.00000000
0.87012145 0.75000000 1.00000000
0.99084734 0.75000000 1.00000000
0.13535875 0.87500000 1.00000000
0.21132694 0.87500000 1.00000000
0.30318808 0.87500000 1.00000000
0.40908437 0.87500000 1.00000000
0.52164491 0.87500000 1.00000000
0.63768920 0.87500000 1.00000000
0.75572900 0.87500000 1.00000000
0.87500000 0.87500000 1.00000000
0.99507674 0.87500000 1.00000000
0.16543559 1.00000000 1.00000000
0.23339245 1.00000000 1.00000000
0.31955425 1.00000000 1.00000000
0.42150465 1.00000000 1.00000000
0.53142172 1.00000000 1.00000000
0.64564202 1.00000000 1.00000000
0.76237305 1.00000000 1.00000000
0.88067037 1.00000000 1.00000000
1.00000000 1.00000000 1.00000000
