Processors/avs_plugins/LUTs/Linear_BT709_to_Linear_BT601_PAL.cube
TITLE "BT709_to_BT601_PAL"
LUT_3D_SIZE 33
# BT709 to BT601 PAL by Francesco Bucciantini
0.00000000 0.00000000 0.00000000
0.02993171 0.00000000 0.00000000
0.05986342 0.00000000 0.00000000
0.09004756 0.00000000 0.00000000
0.12069729 0.00000000 0.00000000
0.15134703 0.00000000 0.00000000
0.18199676 0.00000000 0.00000000
0.21264649 0.00000000 0.00000000
0.24329623 0.00000000 0.00000000
0.27394596 0.00000000 0.00000000
0.30459570 0.00000000 0.00000000
0.33524543 0.00000000 0.00000000
0.36589516 0.00000000 0.00000000
0.39654490 0.00000000 0.00000000
0.42719463 0.00000000 0.00000000
0.45784437 0.00000000 0.00000000
0.48849410 0.00000000 0.00000000
0.51914383 0.00000000 0.00000000
0.54979357 0.00000000 0.00000000
0.58044330 0.00000000 0.00000000
0.61109304 0.00000000 0.00000000
0.64174277 0.00000000 0.00000000
0.67239250 0.00000000 0.00000000
0.70304224 0.00000000 0.00000000
0.73369197 0.00000000 0.00000000
0.76434171 0.00000000 0.00000000
0.79499144 0.00000000 0.00000000
0.82564117 0.00000000 0.00000000
0.85629091 0.00000000 0.00000000
0.88694064 0.00000000 0.00000000
0.91759038 0.00000000 0.00000000
0.94824011 0.00000000 0.00000000
0.97888984 0.00000000 0.00000000
0.00131829 0.03125000 0.00000000
0.03125000 0.03125000 0.00000000
0.06118171 0.03125000 0.00000000
0.09128798 0.03125000 0.00000000
0.12173078 0.03125000 0.00000000
0.15222868 0.03125000 0.00000000
0.18276272 0.03125000 0.00000000
0.21332164 0.03125000 0.00000000
0.24389839 0.03125000 0.00000000
0.27448831 0.03125000 0.00000000
0.30508820 0.03125000 0.00000000
0.33569584 0.03125000 0.00000000
0.36630959 0.03125000 0.00000000
0.39692824 0.03125000 0.00000000
0.42755088 0.03125000 0.00000000
0.45817682 0.03125000 0.00000000
0.48880549 0.03125000 0.00000000
0.51943647 0.03125000 0.00000000
0.55006940 0.03125000 0.00000000
0.58070401 0.03125000 0.00000000
0.61134007 0.03125000 0.00000000
0.64197737 0.03125000 0.00000000
0.67261577 0.03125000 0.00000000
0.70325512 0.03125000 0.00000000
0.73389532 0.03125000 0.00000000
0.76453627 0.03125000 0.00000000
0.79517788 0.03125000 0.00000000
0.82582009 0.03125000 0.00000000
0.85646284 0.03125000 0.00000000
0.88710606 0.03125000 0.00000000
0.91774972 0.03125000 0.00000000
0.94839377 0.03125000 0.00000000
0.97903819 0.03125000 0.00000000
0.00263658 0.06250000 0.00000000
0.03256829 0.06250000 0.00000000
0.06250000 0.06250000 0.00000000
0.09251859 0.06250000 0.00000000
0.12275839 0.06250000 0.00000000
0.15310657 0.06250000 0.00000000
0.18352613 0.06250000 0.00000000
0.21399501 0.06250000 0.00000000
0.24449926 0.06250000 0.00000000
0.27502969 0.06250000 0.00000000
0.30557998 0.06250000 0.00000000
0.33614568 0.06250000 0.00000000
0.36672356 0.06250000 0.00000000
0.39731122 0.06250000 0.00000000
0.42790684 0.06250000 0.00000000
0.45850903 0.06250000 0.00000000
0.48911668 0.06250000 0.00000000
0.51972893 0.06250000 0.00000000
0.55034510 0.06250000 0.00000000
0.58096460 0.06250000 0.00000000
0.61158699 0.06250000 0.00000000
0.64221188 0.06250000 0.00000000
0.67283895 0.06250000 0.00000000
0.70346793 0.06250000 0.00000000
0.73409860 0.06250000 0.00000000
0.76473077 0.06250000 0.00000000
0.79536428 0.06250000 0.00000000
0.82599897 0.06250000 0.00000000
0.85663473 0.06250000 0.00000000
0.88727145 0.06250000 0.00000000
0.91790904 0.06250000 0.00000000
0.94854741 0.06250000 0.00000000
0.97918650 0.06250000 0.00000000
0.00396612 0.09375000 0.00000000
0.03389783 0.09375000 0.00000000
0.06382954 0.09375000 0.00000000
0.09375000 0.09375000 0.00000000
0.12378891 0.09375000 0.00000000
0.15398818 0.09375000 0.00000000
0.18429352 0.09375000 0.00000000
0.21467234 0.09375000 0.00000000
0.24510397 0.09375000 0.00000000
0.27557472 0.09375000 0.00000000
0.30607522 0.09375000 0.00000000
0.33659879 0.09375000 0.00000000
0.36714062 0.09375000 0.00000000
0.39769711 0.09375000 0.00000000
0.42826554 0.09375000 0.00000000
0.45884383 0.09375000 0.00000000
0.48943032 0.09375000 0.00000000
0.52002373 0.09375000 0.00000000
0.55062300 0.09375000 0.00000000
0.58122729 0.09375000 0.00000000
0.61183592 0.09375000 0.00000000
0.64244830 0.09375000 0.00000000
0.67306396 0.09375000 0.00000000
0.70368249 0.09375000 0.00000000
0.73430356 0.09375000 0.00000000
0.76492689 0.09375000 0.00000000
0.79555221 0.09375000 0.00000000
0.82617933 0.09375000 0.00000000
0.85680805 0.09375000 0.00000000
0.88743821 0.09375000 0.00000000
0.91806968 0.09375000 0.00000000
0.94870233 0.09375000 0.00000000
0.97933606 0.09375000 0.00000000
0.00553826 0.12500000 0.00000000
0.03546998 0.12500000 0.00000000
0.06540169 0.12500000 0.00000000
0.09519381 0.12500000 0.00000000
0.12500000 0.12500000 0.00000000
0.15502584 0.12500000 0.00000000
0.18519767 0.12500000 0.00000000
0.21547096 0.12500000 0.00000000
0.24581734 0.12500000 0.00000000
0.27621797 0.12500000 0.00000000
0.30665986 0.12500000 0.00000000
0.33713383 0.12500000 0.00000000
0.36763318 0.12500000 0.00000000
0.39815293 0.12500000 0.00000000
0.42868931 0.12500000 0.00000000
0.45923940 0.12500000 0.00000000
0.48980093 0.12500000 0.00000000
0.52037209 0.12500000 0.00000000
0.55095142 0.12500000 0.00000000
0.58153776 0.12500000 0.00000000
0.61213013 0.12500000 0.00000000
0.64272774 0.12500000 0.00000000
0.67332992 0.12500000 0.00000000
0.70393611 0.12500000 0.00000000
0.73454584 0.12500000 0.00000000
0.76515872 0.12500000 0.00000000
0.79577438 0.12500000 0.00000000
0.82639254 0.12500000 0.00000000
0.85701294 0.12500000 0.00000000
0.88763536 0.12500000 0.00000000
0.91825960 0.12500000 0.00000000
0.94888549 0.12500000 0.00000000
0.97951288 0.12500000 0.00000000
0.00740309 0.15625000 0.00000000
0.03733480 0.15625000 0.00000000
0.06726651 0.15625000 0.00000000
0.09688958 0.15625000 0.00000000
0.12642626 0.15625000 0.00000000
0.15625000 0.15625000 0.00000000
0.18626561 0.15625000 0.00000000
0.21641506 0.15625000 0.00000000
0.24666119 0.15625000 0.00000000
0.27697921 0.15625000 0.00000000
0.30735202 0.15625000 0.00000000
0.33776745 0.15625000 0.00000000
0.36821663 0.15625000 0.00000000
0.39869296 0.15625000 0.00000000
0.42919143 0.15625000 0.00000000
0.45970817 0.15625000 0.00000000
0.49024016 0.15625000 0.00000000
0.52078499 0.15625000 0.00000000
0.55134072 0.15625000 0.00000000
0.58190580 0.15625000 0.00000000
0.61247892 0.15625000 0.00000000
0.64305903 0.15625000 0.00000000
0.67364525 0.15625000 0.00000000
0.70423682 0.15625000 0.00000000
0.73483312 0.15625000 0.00000000
0.76543360 0.15625000 0.00000000
0.79603782 0.15625000 0.00000000
0.82664537 0.15625000 0.00000000
0.85725591 0.15625000 0.00000000
0.88786915 0.15625000 0.00000000
0.91848482 0.15625000 0.00000000
0.94910269 0.15625000 0.00000000
0.97972257 0.15625000 0.00000000
0.00956924 0.18750000 0.00000000
0.03950095 0.18750000 0.00000000
0.06943266 0.18750000 0.00000000
0.09883709 0.18750000 0.00000000
0.12806925 0.18750000 0.00000000
0.15766301 0.18750000 0.00000000
0.18750000 0.18750000 0.00000000
0.21750738 0.18750000 0.00000000
0.24763824 0.18750000 0.00000000
0.27786111 0.18750000 0.00000000
0.30815421 0.18750000 0.00000000
0.33850203 0.18750000 0.00000000
0.36889322 0.18750000 0.00000000
0.39931934 0.18750000 0.00000000
0.42977395 0.18750000 0.00000000
0.46025209 0.18750000 0.00000000
0.49074987 0.18750000 0.00000000
0.52126419 0.18750000 0.00000000
0.55179257 0.18750000 0.00000000
0.58233300 0.18750000 0.00000000
0.61288381 0.18750000 0.00000000
0.64344363 0.18750000 0.00000000
0.67401133 0.18750000 0.00000000
0.70458595 0.18750000 0.00000000
0.73516666 0.18750000 0.00000000
0.76575278 0.18750000 0.00000000
0.79634371 0.18750000 0.00000000
0.82693895 0.18750000 0.00000000
0.85753805 0.18750000 0.00000000
0.88814063 0.18750000 0.00000000
0.91874635 0.18750000 0.00000000
0.94935492 0.18750000 0.00000000
0.97996607 0.18750000 0.00000000
0.01204455 0.21875000 0.00000000
0.04197626 0.21875000 0.00000000
0.07190797 0.21875000 0.00000000
0.10103426 0.21875000 0.00000000
0.12992912 0.21875000 0.00000000
0.15926615 0.21875000 0.00000000
0.18890266 0.21875000 0.00000000
0.21875000 0.21875000 0.00000000
0.24875063 0.21875000 0.00000000
0.27886579 0.21875000 0.00000000
0.30906854 0.21875000 0.00000000
0.33933962 0.21875000 0.00000000
0.36966493 0.21875000 0.00000000
0.40003395 0.21875000 0.00000000
0.43043865 0.21875000 0.00000000
0.46087285 0.21875000 0.00000000
0.49133166 0.21875000 0.00000000
0.52181123 0.21875000 0.00000000
0.55230844 0.21875000 0.00000000
0.58282077 0.21875000 0.00000000
0.61334614 0.21875000 0.00000000
0.64388283 0.21875000 0.00000000
0.67442941 0.21875000 0.00000000
0.70498467 0.21875000 0.00000000
0.73554760 0.21875000 0.00000000
0.76611732 0.21875000 0.00000000
0.79669310 0.21875000 0.00000000
0.82727429 0.21875000 0.00000000
0.85786033 0.21875000 0.00000000
0.88845074 0.21875000 0.00000000
0.91904511 0.21875000 0.00000000
0.94964305 0.21875000 0.00000000
0.98024425 0.21875000 0.00000000
0.01483623 0.25000000 0.00000000
0.04476794 0.25000000 0.00000000
0.07469965 0.25000000 0.00000000
0.10347738 0.25000000 0.00000000
0.13200479 0.25000000 0.00000000
0.16105971 0.25000000 0.00000000
0.19047464 0.25000000 0.00000000
0.22014435 0.25000000 0.00000000
0.25000000 0.25000000 0.00000000
0.27999498 0.25000000 0.00000000
0.31009673 0.25000000 0.00000000
0.34028192 0.25000000 0.00000000
0.37053341 0.25000000 0.00000000
0.40083839 0.25000000 0.00000000
0.43118709 0.25000000 0.00000000
0.46157193 0.25000000 0.00000000
0.49198697 0.25000000 0.00000000
0.52242748 0.25000000 0.00000000
0.55288965 0.25000000 0.00000000
0.58337037 0.25000000 0.00000000
0.61386712 0.25000000 0.00000000
0.64437778 0.25000000 0.00000000
0.67490059 0.25000000 0.00000000
0.70543407 0.25000000 0.00000000
0.73597698 0.25000000 0.00000000
0.76652824 0.25000000 0.00000000
0.79708695 0.25000000 0.00000000
0.82765231 0.25000000 0.00000000
0.85822364 0.25000000 0.00000000
0.88880035 0.25000000 0.00000000
0.91938192 0.25000000 0.00000000
0.94996790 0.25000000 0.00000000
0.98055788 0.25000000 0.00000000
0.01795095 0.28125000 0.00000000
0.04788266 0.28125000 0.00000000
0.07781438 0.28125000 0.00000000
0.10616137 0.28125000 0.00000000
0.13429407 0.28125000 0.00000000
0.16304313 0.28125000 0.00000000
0.19221629 0.28125000 0.00000000
0.22169130 0.28125000 0.00000000
0.25138752 0.28125000 0.00000000
0.28125000 0.28125000 0.00000000
0.31124019 0.28125000 0.00000000
0.34133035 0.28125000 0.00000000
0.37150008 0.28125000 0.00000000
0.40173406 0.28125000 0.00000000
0.43202061 0.28125000 0.00000000
0.46235066 0.28125000 0.00000000
0.49271707 0.28125000 0.00000000
0.52311416 0.28125000 0.00000000
0.55353736 0.28125000 0.00000000
0.58398294 0.28125000 0.00000000
0.61444784 0.28125000 0.00000000
0.64492952 0.28125000 0.00000000
0.67542587 0.28125000 0.00000000
0.70593511 0.28125000 0.00000000
0.73645572 0.28125000 0.00000000
0.76698643 0.28125000 0.00000000
0.79752612 0.28125000 0.00000000
0.82807385 0.28125000 0.00000000
0.85862879 0.28125000 0.00000000
0.88919023 0.28125000 0.00000000
0.91975755 0.28125000 0.00000000
0.95033019 0.28125000 0.00000000
0.98090767 0.28125000 0.00000000
0.02139494 0.31250000 0.00000000
0.05132665 0.31250000 0.00000000
0.08150644 0.31250000 0.00000000
0.10907998 0.31250000 0.00000000
0.13679380 0.31250000 0.00000000
0.16521508 0.31250000 0.00000000
0.19412736 0.31250000 0.00000000
0.22339124 0.31250000 0.00000000
0.25291395 0.31250000 0.00000000
0.28263182 0.31250000 0.00000000
0.31250000 0.31250000 0.00000000
0.34248607 0.31250000 0.00000000
0.37256611 0.31250000 0.00000000
0.40272214 0.31250000 0.00000000
0.43294039 0.31250000 0.00000000
0.46321017 0.31250000 0.00000000
0.49352307 0.31250000 0.00000000
0.52387236 0.31250000 0.00000000
0.55425263 0.31250000 0.00000000
0.58465948 0.31250000 0.00000000
0.61508927 0.31250000 0.00000000
0.64553901 0.31250000 0.00000000
0.67600618 0.31250000 0.00000000
0.70648867 0.31250000 0.00000000
0.73698469 0.31250000 0.00000000
0.76749270 0.31250000 0.00000000
0.79801141 0.31250000 0.00000000
0.82853968 0.31250000 0.00000000
0.85907653 0.31250000 0.00000000
0.88962112 0.31250000 0.00000000
0.92017269 0.31250000 0.00000000
0.95073060 0.31250000 0.00000000
0.98129427 0.31250000 0.00000000
0.02517403 0.34375000 0.00000000
0.05510574 0.34375000 0.00000000
0.08523692 0.34375000 0.00000000
0.11222605 0.34375000 0.00000000
0.13950000 0.34375000 0.00000000
0.16757352 0.34375000 0.00000000
0.19620700 0.34375000 0.00000000
0.22524407 0.34375000 0.00000000
0.25457964 0.34375000 0.00000000
0.28414110 0.34375000 0.00000000
0.31387699 0.34375000 0.00000000
0.34375000 0.34375000 0.00000000
0.37373249 0.34375000 0.00000000
0.40380363 0.34375000 0.00000000
0.43394743 0.34375000 0.00000000
0.46415147 0.34375000 0.00000000
0.49440595 0.34375000 0.00000000
0.52470303 0.34375000 0.00000000
0.55503640 0.34375000 0.00000000
0.58540090 0.34375000 0.00000000
0.61579231 0.34375000 0.00000000
0.64620710 0.34375000 0.00000000
0.67664235 0.34375000 0.00000000
0.70709556 0.34375000 0.00000000
0.73756465 0.34375000 0.00000000
0.76804783 0.34375000 0.00000000
0.79854355 0.34375000 0.00000000
0.82905051 0.34375000 0.00000000
0.85956754 0.34375000 0.00000000
0.89009366 0.34375000 0.00000000
0.92062799 0.34375000 0.00000000
0.95116976 0.34375000 0.00000000
0.98171830 0.34375000 0.00000000
0.02929371 0.37500000 0.00000000
0.05922543 0.37500000 0.00000000
0.08920117 0.37500000 0.00000000
0.11559167 0.37500000 0.00000000
0.14240797 0.37500000 0.00000000
0.17011580 0.37500000 0.00000000
0.19845387 0.37500000 0.00000000
0.22724925 0.37500000 0.00000000
0.25638459 0.37500000 0.00000000
0.28577816 0.37500000 0.00000000
0.31537172 0.37500000 0.00000000
0.34512284 0.37500000 0.00000000
0.37500000 0.37500000 0.00000000
0.40497936 0.37500000 0.00000000
0.43504259 0.37500000 0.00000000
0.46517542 0.37500000 0.00000000
0.49536658 0.37500000 0.00000000
0.52560703 0.37500000 0.00000000
0.55588949 0.37500000 0.00000000
0.58620803 0.37500000 0.00000000
0.61655775 0.37500000 0.00000000
0.64693458 0.37500000 0.00000000
0.67733512 0.37500000 0.00000000
0.70775651 0.37500000 0.00000000
0.73819632 0.37500000 0.00000000
0.76865248 0.37500000 0.00000000
0.79912321 0.37500000 0.00000000
0.82960698 0.37500000 0.00000000
0.86010245 0.37500000 0.00000000
0.89060848 0.37500000 0.00000000
0.92112403 0.37500000 0.00000000
0.95164824 0.37500000 0.00000000
0.98218031 0.37500000 0.00000000
0.03375920 0.40625000 0.00000000
0.06369091 0.40625000 0.00000000
0.09338598 0.40625000 0.00000000
0.11916840 0.40625000 0.00000000
0.14551244 0.40625000 0.00000000
0.17283873 0.40625000 0.00000000
0.20086613 0.40625000 0.00000000
0.22940587 0.40625000 0.00000000
0.25832848 0.40625000 0.00000000
0.28754307 0.40625000 0.00000000
0.31698451 0.40625000 0.00000000
0.34660508 0.40625000 0.00000000
0.37636924 0.40625000 0.00000000
0.40625000 0.40625000 0.00000000
0.43622659 0.40625000 0.00000000
0.46628277 0.40625000 0.00000000
0.49640570 0.40625000 0.00000000
0.52658510 0.40625000 0.00000000
0.55681267 0.40625000 0.00000000
0.58708160 0.40625000 0.00000000
0.61738631 0.40625000 0.00000000
0.64772214 0.40625000 0.00000000
0.67808519 0.40625000 0.00000000
0.70847220 0.40625000 0.00000000
0.73888036 0.40625000 0.00000000
0.76930732 0.40625000 0.00000000
0.79975102 0.40625000 0.00000000
0.83020970 0.40625000 0.00000000
0.86068185 0.40625000 0.00000000
0.89116614 0.40625000 0.00000000
0.92166139 0.40625000 0.00000000
0.95216659 0.40625000 0.00000000
0.98268083 0.40625000 0.00000000
0.03857544 0.43750000 0.00000000
0.06850715 0.43750000 0.00000000
0.09777822 0.43750000 0.00000000
0.12294741 0.43750000 0.00000000
0.14880762 0.43750000 0.00000000
0.17573866 0.43750000 0.00000000
0.20344156 0.43750000 0.00000000
0.23171265 0.43750000 0.00000000
0.26041066 0.43750000 0.00000000
0.28943564 0.43750000 0.00000000
0.31871545 0.43750000 0.00000000
0.34819703 0.43750000 0.00000000
0.37784065 0.43750000 0.00000000
0.40761608 0.43750000 0.00000000
0.43750000 0.43750000 0.00000000
0.46747412 0.43750000 0.00000000
0.49752396 0.43750000 0.00000000
0.52763792 0.43750000 0.00000000
0.55780658 0.43750000 0.00000000
0.58802227 0.43750000 0.00000000
0.61827864 0.43750000 0.00000000
0.64857042 0.43750000 0.00000000
0.67889319 0.43750000 0.00000000
0.70924322 0.43750000 0.00000000
0.73961736 0.43750000 0.00000000
0.77001291 0.43750000 0.00000000
0.80042753 0.43750000 0.00000000
0.83085924 0.43750000 0.00000000
0.86130629 0.43750000 0.00000000
0.89176717 0.43750000 0.00000000
0.92224056 0.43750000 0.00000000
0.95272529 0.43750000 0.00000000
0.98322035 0.43750000 0.00000000
0.04374713 0.46875000 0.00000000
0.07367884 0.46875000 0.00000000
0.10236494 0.46875000 0.00000000
0.12691966 0.46875000 0.00000000
0.15228739 0.46875000 0.00000000
0.17881152 0.46875000 0.00000000
0.20617755 0.46875000 0.00000000
0.23416798 0.46875000 0.00000000
0.26263023 0.46875000 0.00000000
0.29145542 0.46875000 0.00000000
0.32056444 0.46875000 0.00000000
0.34989878 0.46875000 0.00000000
0.37941449 0.46875000 0.00000000
0.40907800 0.46875000 0.00000000
0.43886330 0.46875000 0.00000000
0.46875000 0.46875000 0.00000000
0.49872191 0.46875000 0.00000000
0.52876603 0.46875000 0.00000000
0.55887180 0.46875000 0.00000000
0.58903061 0.46875000 0.00000000
0.61923532 0.46875000 0.00000000
0.64948000 0.46875000 0.00000000
0.67975968 0.46875000 0.00000000
0.71007016 0.46875000 0.00000000
0.74040788 0.46875000 0.00000000
0.77076979 0.46875000 0.00000000
0.80115328 0.46875000 0.00000000
0.83155609 0.46875000 0.00000000
0.86197625 0.46875000 0.00000000
0.89241206 0.46875000 0.00000000
0.92286203 0.46875000 0.00000000
0.95332483 0.46875000 0.00000000
0.98379932 0.46875000 0.00000000
0.04927878 0.50000000 0.00000000
0.07921049 0.50000000 0.00000000
0.10713360 0.50000000 0.00000000
0.13107599 0.50000000 0.00000000
0.15594532 0.50000000 0.00000000
0.18205292 0.50000000 0.00000000
0.20907117 0.50000000 0.00000000
0.23676996 0.50000000 0.00000000
0.26498600 0.50000000 0.00000000
0.29360174 0.50000000 0.00000000
0.32253115 0.50000000 0.00000000
0.35171030 0.50000000 0.00000000
0.38109091 0.50000000 0.00000000
0.41063599 0.50000000 0.00000000
0.44031682 0.50000000 0.00000000
0.47011082 0.50000000 0.00000000
0.50000000 0.50000000 0.00000000
0.52996992 0.50000000 0.00000000
0.56000884 0.50000000 0.00000000
0.59010714 0.50000000 0.00000000
0.62025686 0.50000000 0.00000000
0.65045139 0.50000000 0.00000000
0.68068517 0.50000000 0.00000000
0.71095351 0.50000000 0.00000000
0.74125241 0.50000000 0.00000000
0.77157847 0.50000000 0.00000000
0.80192876 0.50000000 0.00000000
0.83230074 0.50000000 0.00000000
0.86269222 0.50000000 0.00000000
0.89310128 0.50000000 0.00000000
0.92352624 0.50000000 0.00000000
0.95396564 0.50000000 0.00000000
0.98441816 0.50000000 0.00000000
0.05517470 0.53125000 0.00000000
0.08530414 0.53125000 0.00000000
0.11207212 0.53125000 0.00000000
0.13540729 0.53125000 0.00000000
0.15977479 0.53125000 0.00000000
0.18545822 0.53125000 0.00000000
0.21211920 0.53125000 0.00000000
0.23951642 0.53125000 0.00000000
0.26747656 0.53125000 0.00000000
0.29587372 0.53125000 0.00000000
0.32461511 0.53125000 0.00000000
0.35363137 0.53125000 0.00000000
0.38286988 0.53125000 0.00000000
0.41229020 0.53125000 0.00000000
0.44186081 0.53125000 0.00000000
0.47155688 0.53125000 0.00000000
0.50135860 0.53125000 0.00000000
0.53125000 0.53125000 0.00000000
0.56121812 0.53125000 0.00000000
0.59125230 0.53125000 0.00000000
0.62134373 0.53125000 0.00000000
0.65148507 0.53125000 0.00000000
0.68167014 0.53125000 0.00000000
0.71189373 0.53125000 0.00000000
0.74215142 0.53125000 0.00000000
0.77243939 0.53125000 0.00000000
0.80275440 0.53125000 0.00000000
0.83309363 0.53125000 0.00000000
0.86345462 0.53125000 0.00000000
0.89383524 0.53125000 0.00000000
0.92423362 0.53125000 0.00000000
0.95464812 0.53125000 0.00000000
0.98507729 0.53125000 0.00000000
0.06143904 0.56250000 0.00000000
0.09128971 0.56250000 0.00000000
0.11716899 0.56250000 0.00000000
0.13990454 0.56250000 0.00000000
0.16376908 0.56250000 0.00000000
0.18902253 0.56250000 0.00000000
0.21531821 0.56250000 0.00000000
0.24240496 0.56250000 0.00000000
0.27010028 0.56250000 0.00000000
0.29827029 0.56250000 0.00000000
0.32681564 0.56250000 0.00000000
0.35566161 0.56250000 0.00000000
0.38475126 0.56250000 0.00000000
0.41404064 0.56250000 0.00000000
0.44349540 0.56250000 0.00000000
0.47308841 0.56250000 0.00000000
0.50279798 0.56250000 0.00000000
0.53260659 0.56250000 0.00000000
0.56250000 0.56250000 0.00000000
0.59246648 0.56250000 0.00000000
0.62249632 0.56250000 0.00000000
0.65258143 0.56250000 0.00000000
0.68271499 0.56250000 0.00000000
0.71289125 0.56250000 0.00000000
0.74310531 0.56250000 0.00000000
0.77335297 0.56250000 0.00000000
0.80363063 0.56250000 0.00000000
0.83393515 0.56250000 0.00000000
0.86426384 0.56250000 0.00000000
0.89461433 0.56250000 0.00000000
0.92498454 0.56250000 0.00000000
0.95537266 0.56250000 0.00000000
0.98577706 0.56250000 0.00000000
0.06807578 0.59375000 0.00000000
0.09738971 0.59375000 0.00000000
0.12241330 0.59375000 0.00000000
0.14455892 0.59375000 0.00000000
0.16792140 0.59375000 0.00000000
0.19274084 0.59375000 0.00000000
0.21866453 0.59375000 0.00000000
0.24543299 0.59375000 0.00000000
0.27285532 0.59375000 0.00000000
0.30079021 0.59375000 0.00000000
0.32913193 0.59375000 0.00000000
0.35780053 0.59375000 0.00000000
0.38673477 0.59375000 0.00000000
0.41588720 0.59375000 0.00000000
0.44522062 0.59375000 0.00000000
0.47470554 0.59375000 0.00000000
0.50431835 0.59375000 0.00000000
0.53403996 0.59375000 0.00000000
0.56385478 0.59375000 0.00000000
0.59375000 0.59375000 0.00000000
0.62371498 0.59375000 0.00000000
0.65374084 0.59375000 0.00000000
0.68382010 0.59375000 0.00000000
0.71394644 0.59375000 0.00000000
0.74411447 0.59375000 0.00000000
0.77431959 0.59375000 0.00000000
0.80455781 0.59375000 0.00000000
0.83482570 0.59375000 0.00000000
0.86512027 0.59375000 0.00000000
0.89543893 0.59375000 0.00000000
0.92577937 0.59375000 0.00000000
0.95613960 0.59375000 0.00000000
0.98651784 0.59375000 0.00000000
0.07508876 0.62500000 0.00000000
0.10359342 0.62500000 0.00000000
0.12779476 0.62500000 0.00000000
0.14936183 0.62500000 0.00000000
0.17222500 0.62500000 0.00000000
0.19660801 0.62500000 0.00000000
0.22215437 0.62500000 0.00000000
0.24859771 0.62500000 0.00000000
0.27573970 0.62500000 0.00000000
0.30343205 0.62500000 0.00000000
0.33156300 0.62500000 0.00000000
0.36004749 0.62500000 0.00000000
0.38882003 0.62500000 0.00000000
0.41782970 0.62500000 0.00000000
0.44703641 0.62500000 0.00000000
0.47640832 0.62500000 0.00000000
0.50591985 0.62500000 0.00000000
0.53555029 0.62500000 0.00000000
0.56528270 0.62500000 0.00000000
0.59510314 0.62500000 0.00000000
0.62500000 0.62500000 0.00000000
0.65496360 0.62500000 0.00000000
0.68498579 0.62500000 0.00000000
0.71505963 0.62500000 0.00000000
0.74517925 0.62500000 0.00000000
0.77533958 0.62500000 0.00000000
0.80553629 0.62500000 0.00000000
0.83576560 0.62500000 0.00000000
0.86602425 0.62500000 0.00000000
0.89630936 0.62500000 0.00000000
0.92661844 0.62500000 0.00000000
0.95694928 0.62500000 0.00000000
0.98729994 0.62500000 0.00000000
0.08272428 0.65625000 0.00000000
0.10989122 0.65625000 0.00000000
0.13330374 0.65625000 0.00000000
0.15430499 0.65625000 0.00000000
0.17667319 0.65625000 0.00000000
0.20061885 0.65625000 0.00000000
0.22578378 0.65625000 0.00000000
0.25189620 0.65625000 0.00000000
0.27875125 0.65625000 0.00000000
0.30619426 0.65625000 0.00000000
0.33410775 0.65625000 0.00000000
0.36240171 0.65625000 0.00000000
0.39100654 0.65625000 0.00000000
0.41986782 0.65625000 0.00000000
0.44894262 0.65625000 0.00000000
0.47819670 0.65625000 0.00000000
0.50760252 0.65625000 0.00000000
0.53713770 0.65625000 0.00000000
0.56678393 0.65625000 0.00000000
0.59652610 0.65625000 0.00000000
0.62635163 0.65625000 0.00000000
0.65625000 0.65625000 0.00000000
0.68621234 0.65625000 0.00000000
0.71623112 0.65625000 0.00000000
0.74629993 0.65625000 0.00000000
0.77641327 0.65625000 0.00000000
0.80656638 0.65625000 0.00000000
0.83675518 0.65625000 0.00000000
0.86697607 0.65625000 0.00000000
0.89722595 0.65625000 0.00000000
0.92750206 0.65625000 0.00000000
