Processors/avs_plugins/LUTs/Linear_BT709_to_Linear_BT601_NTSC.cube
TITLE "BT709_to_BT601_NTSC"
LUT_3D_SIZE 5
# BT709 to BT601 NTSC by Francesco Bucciantini
0.00000000 0.00000000 0.00000000
0.26008916 0.00000000 0.00057398
0.51731635 0.00000000 0.00190648
0.77454354 0.00000000 0.00413864
1.00000000 0.00000000 0.00734423
0.00000000 0.25565477 0.00155180
0.25156279 0.25261555 0.00212578
0.51295548 0.24543313 0.00345828
0.77170292 0.23297320 0.00569044
1.00000000 0.21400871 0.00889603
0.00000000 0.50970546 0.00515432
0.23072004 0.50814076 0.00572830
0.50268227 0.50448915 0.00706081
0.76506432 0.49831087 0.00929296
1.00000000 0.48929914 0.01249855
0.00000000 0.76375615 0.01118912
0.19164578 0.76273540 0.01176310
0.48497551 0.76036000 0.01309560
0.75380175 0.75636275 0.01532776
1.00000000 0.75058204 0.01853335
0.00000000 1.00000000 0.01985568
0.12041061 1.00000000 0.02042966
0.45833441 1.00000000 0.02176216
0.73730212 1.00000000 0.02399432
1.00000000 1.00000000 0.02719991
0.00000000 0.00000000 0.24904914
0.25857182 0.00000000 0.24930619
0.51653371 0.00000000 0.24990206
0.77403275 0.00000000 0.25089744
1.00000000 0.00000000 0.25232089
0.00000000 0.25306681 0.24974357
0.25000000 0.25000000 0.25000000
0.51216600 0.24275019 0.25059442
0.77119010 0.23016553 0.25158740
1.00000000 0.21098955 0.25300744
0.00000000 0.50837236 0.25134922
0.22903499 0.50680345 0.25160422
0.50187627 0.50314191 0.25219532
0.76454667 0.49694655 0.25318279
1.00000000 0.48790916 0.25459501
0.00000000 0.76288638 0.25401897
0.18967786 0.76186437 0.25427161
0.48413948 0.75948602 0.25485727
0.75327573 0.75548377 0.25583570
1.00000000 0.74969573 0.25723508
0.00000000 1.00000000 0.25781038
0.11762559 1.00000000 0.25805975
0.45744921 1.00000000 0.25863784
0.73676338 1.00000000 0.25960368
1.00000000 1.00000000 0.26098518
0.00000000 0.00000000 0.49836801
0.25501858 0.00000000 0.49850088
0.51471208 0.00000000 0.49880920
0.77284555 0.00000000 0.49932525
1.00000000 0.00000000 0.50006539
0.00000000 0.24696734 0.49872715
0.24633856 0.24383365 0.49885992
0.51032840 0.23642026 0.49916801
0.76999814 0.22353189 0.49968369
1.00000000 0.20383811 0.50042329
0.00000000 0.50526367 0.49955988
0.22508177 0.50368486 0.49969243
0.50000000 0.50000000 0.50000000
0.76334348 0.49376443 0.50051480
1.00000000 0.48466668 0.50125315
0.00000000 0.76086304 0.50095168
0.18504487 0.75983808 0.50108385
0.48219298 0.75745285 0.50139055
0.75205303 0.75343893 0.50190389
1.00000000 0.74763379 0.50264016
0.00000000 1.00000000 0.50294356
0.11098518 1.00000000 0.50307520
0.45538752 1.00000000 0.50338066
0.73551104 1.00000000 0.50389193
1.00000000 1.00000000 0.50462524
0.00000000 0.00000000 0.74768688
0.24896667 0.00000000 0.74777364
0.51164569 0.00000000 0.74797501
0.77085235 0.00000000 0.74831220
1.00000000 0.00000000 0.74879616
0.00000000 0.23644439 0.74792141
0.24009646 0.23318883 0.74800814
0.50723487 0.22547649 0.74820944
0.76799694 0.21202962 0.74854653
1.00000000 0.19137253 0.74903032
0.00000000 0.50001188 0.74846558
0.21832410 0.49841608 0.74855224
0.49684076 0.49469119 0.74875339
0.76132334 0.48838659 0.74909021
1.00000000 0.47918514 0.74957362
0.00000000 0.75746053 0.74937619
0.17706989 0.75643059 0.74946274
0.47891430 0.75403370 0.74966362
0.75000000 0.75000000 0.75000000
1.00000000 0.74416589 0.75048279
0.00000000 1.00000000 0.75068184
0.09924663 1.00000000 0.75076823
0.45191272 1.00000000 0.75096873
0.73340802 1.00000000 0.75130447
1.00000000 1.00000000 0.75178636
0.00000000 0.00000000 0.99700575
0.24004347 0.00000000 0.99706903
0.50720882 0.00000000 0.99721594
0.76798012 0.00000000 0.99746198
1.00000000 0.00000000 0.99781521
0.00000000 0.22058543 0.99717684
0.23087837 0.21712900 0.99724012
0.50275820 0.20892120 0.99738700
0.76511310 0.19453831 0.99763299
1.00000000 0.17223242 0.99798615
0.00000000 0.49236983 0.99757392
0.20829988 0.49074872 0.99763717
0.49226764 0.48696412 0.99778398
0.75841203 0.48055652 0.99802987
1.00000000 0.47120014 0.99838287
0.00000000 0.75254509 0.99823869
0.16509818 0.75150787 0.99830189
0.47416563 0.74909396 0.99844860
0.74704098 0.74503137 0.99869430
1.00000000 0.73915493 0.99904704
0.00000000 1.00000000 0.99919251
0.08048010 1.00000000 0.99925564
0.44687520 1.00000000 0.99940219
0.73037647 1.00000000 0.99964764
1.00000000 1.00000000 1.00000000
