Processors/avs_plugins/LUTs/Linear_BT709_to_Linear_BT601_NTSC.cube
TITLE "BT709_to_BT601_NTSC"
LUT_3D_SIZE 9
# BT709 to BT601 NTSC by Francesco Bucciantini
0.00000000 0.00000000 0.00000000
0.13147556 0.00000000 0.00021426
0.26008916 0.00000000 0.00057398
0.38870275 0.00000000 0.00113331
0.51731635 0.00000000 0.00190648
0.64592994 0.00000000 0.00290501
0.77454354 0.00000000 0.00413864
0.90315713 0.00000000 0.00561585
1.00000000 0.00000000 0.00734423
0.00000000 0.12862942 0.00057928
0.12600305 0.12667875 0.00079354
0.25693551 0.12335668 0.00115326
0.38653925 0.11806720 0.00171258
0.51569289 0.11048485 0.00248576
0.64464289 0.10016587 0.00348429
0.77348448 0.08643686 0.00471791
0.90226192 0.06850316 0.00619513
1.00000000 0.04771187 0.00792351
0.00000000 0.25565477 0.00155180
0.11643060 0.25452398 0.00176606
0.25156279 0.25261555 0.00212578
0.38288029 0.24962270 0.00268511
0.51295548 0.24543313 0.00345828
0.64247596 0.23992851 0.00445681
0.77170292 0.23297320 0.00569044
0.90075677 0.22440273 0.00716765
1.00000000 0.21400871 0.00889603
0.00000000 0.38268011 0.00306398
0.10041749 0.38190303 0.00327824
0.24300287 0.38059497 0.00363796
0.37712253 0.37855235 0.00419729
0.50866908 0.37571105 0.00497047
0.63909112 0.37201057 0.00596900
0.76892388 0.36738920 0.00720262
0.89841088 0.36178058 0.00867983
1.00000000 0.35511056 0.01040821
0.00000000 0.50970546 0.00515432
0.07515103 0.50912194 0.00536859
0.23072004 0.50814076 0.00572830
0.36902036 0.50661125 0.00628763
0.50268227 0.50448915 0.00706081
0.63438066 0.50173496 0.00805934
0.76506432 0.49831087 0.00929296
0.89515693 0.49417883 0.01077018
1.00000000 0.48929914 0.01249855
0.00000000 0.63673080 0.00785392
0.04125539 0.63626804 0.00806819
0.21397753 0.63549031 0.00842790
0.35829595 0.63427903 0.00898723
0.49484109 0.63260058 0.00976041
0.62824201 0.63042595 0.01075894
0.76004844 0.62772832 0.01199256
0.89093522 0.62448184 0.01346978
1.00000000 0.62066062 0.01519815
0.00000000 0.76375615 0.01118912
0.00000000 0.76337528 0.01140338
0.19164578 0.76273540 0.01176310
0.34460649 0.76173928 0.01232243
0.48497551 0.76036000 0.01309560
0.62056950 0.75857469 0.01409413
0.75380175 0.75636275 0.01532776
0.88568897 0.75370481 0.01680497
1.00000000 0.75058204 0.01853335
0.00000000 0.89078149 0.01518288
0.00000000 0.89045951 0.01539715
0.16178095 0.88991866 0.01575686
0.32750219 0.88907696 0.01631619
0.47288705 0.88791201 0.01708937
0.61124834 0.88640503 0.01808790
0.74624722 0.88453934 0.01932152
0.87936149 0.88229955 0.02079874
1.00000000 0.87967098 0.02252711
0.00000000 1.00000000 0.01985568
0.00000000 1.00000000 0.02006994
0.12041061 1.00000000 0.02042966
0.30635974 1.00000000 0.02098899
0.45833441 1.00000000 0.02176216
0.60014894 1.00000000 0.02276069
0.73730212 1.00000000 0.02399432
0.87189411 1.00000000 0.02547153
1.00000000 1.00000000 0.02719991
0.00000000 0.00000000 0.12438971
0.13050168 0.00000000 0.12455469
0.25952366 0.00000000 0.12483135
0.38831395 0.00000000 0.12526069
0.51702434 0.00000000 0.12585253
0.64569833 0.00000000 0.12661408
0.77435291 0.00000000 0.12755060
0.90299597 0.00000000 0.12866586
1.00000000 0.00000000 0.12996232
0.00000000 0.12696838 0.12483542
0.12500000 0.12500000 0.12500000
0.25636387 0.12164697 0.12527598
0.38614833 0.11630597 0.12570429
0.51539993 0.10864464 0.12629471
0.64441079 0.09820721 0.12705443
0.77329357 0.08429729 0.12798874
0.90210058 0.06630670 0.12910138
1.00000000 0.04551541 0.13039484
0.00000000 0.25469141 0.12558127
0.11537251 0.25355684 0.12574519
0.25098041 0.25164197 0.12602005
0.38248574 0.24863887 0.12644663
0.51266092 0.24443461 0.12703468
0.64224303 0.23891006 0.12779138
0.77151153 0.23192852 0.12872199
0.90059513 0.22332399 0.12983028
1.00000000 0.21288586 0.13111873
0.00000000 0.38201800 0.12673503
0.09925399 0.38123961 0.12689792
0.24240259 0.37992933 0.12717108
0.37672213 0.37788322 0.12759501
0.50837198 0.37503702 0.12817943
0.63885688 0.37133005 0.12893149
0.76873174 0.36670042 0.12985644
0.89824878 0.36108151 0.13095805
1.00000000 0.35439890 0.13223883
0.00000000 0.50920824 0.12831813
0.07384105 0.50862414 0.12847964
0.23009226 0.50764197 0.12875048
0.36861147 0.50611092 0.12917083
0.50238155 0.50398666 0.12975034
0.63414458 0.50122966 0.13049611
0.76487113 0.49780203 0.13141339
0.89499418 0.49366564 0.13250597
1.00000000 0.48878074 0.13377635
0.00000000 0.63633646 0.13034294
0.03994541 0.63587339 0.13050271
0.21330836 0.63509516 0.13077063
0.35787529 0.63388307 0.13118648
0.49453551 0.63220352 0.13175981
0.62800350 0.63002744 0.13249768
0.75985387 0.62732800 0.13340532
0.89077162 0.62407932 0.13448651
1.00000000 0.62025548 0.13574382
0.00000000 0.76343159 0.13281468
0.00000000 0.76305055 0.13297237
0.19091308 0.76241037 0.13323682
0.34416990 0.76141380 0.13364728
0.48466360 0.76003387 0.13421323
0.62032787 0.75824773 0.13494165
0.75360544 0.75603476 0.13583777
0.88552430 0.75337557 0.13690536
1.00000000 0.75025132 0.13814702
0.00000000 0.89050711 0.13573275
0.00000000 0.89018502 0.13588805
0.16094407 0.88964398 0.13614850
0.32704407 0.88880200 0.13655277
0.47256706 0.88763665 0.13711022
0.61100283 0.88612915 0.13782777
0.74604875 0.88426283 0.13871061
0.87919552 0.88202226 0.13976254
1.00000000 0.87939279 0.14098617
0.00000000 1.00000000 0.13909164
0.00000000 1.00000000 0.13924427
0.11937606 1.00000000 0.13950025
0.30587222 1.00000000 0.13989760
0.45800417 1.00000000 0.14044555
0.59989865 1.00000000 0.14115095
0.73710106 1.00000000 0.14201894
0.87172657 1.00000000 0.14305333
1.00000000 1.00000000 0.14425677
0.00000000 0.00000000 0.24904914
0.12885521 0.00000000 0.24914512
0.25857182 0.00000000 0.24930619
0.38766036 0.00000000 0.24955646
0.51653371 0.00000000 0.24990206
0.64530930 0.00000000 0.25034776
0.77403275 0.00000000 0.25089744
0.90272533 0.00000000 0.25155428
1.00000000 0.00000000 0.25232089
0.00000000 0.12414568 0.24930856
0.12330356 0.12214651 0.24940446
0.25540164 0.11873961 0.24956538
0.38549116 0.11330885 0.24981543
0.51490771 0.10550955 0.25016071
0.64402093 0.09486432 0.25060601
0.77297293 0.08038913 0.25115519
0.90182964 0.06261915 0.25181144
1.00000000 0.04182786 0.25257737
0.00000000 0.25306681 0.24974357
0.11358163 0.25192582 0.24983932
0.25000000 0.25000000 0.25000000
0.38182245 0.24697945 0.25024966
0.51216600 0.24275019 0.25059442
0.64185177 0.23719174 0.25103904
0.77119010 0.23016553 0.25158740
0.90032369 0.22150295 0.25224266
1.00000000 0.21098955 0.25300744
0.00000000 0.38090389 0.25041865
0.09728166 0.38012329 0.25051418
0.24139189 0.37880926 0.25067448
0.37604899 0.37675726 0.25092355
0.50787278 0.37390277 0.25126750
0.63846343 0.37018484 0.25171108
0.76840905 0.36554123 0.25225816
0.89797656 0.35990495 0.25291189
1.00000000 0.35320105 0.25367490
0.00000000 0.50837236 0.25134922
0.07164178 0.50778727 0.25144444
0.22903499 0.50680345 0.25160422
0.36792401 0.50526980 0.25185248
0.50187627 0.50314191 0.25219532
0.63374804 0.50038016 0.25263747
0.76454667 0.49694655 0.25318279
0.89472087 0.49280285 0.25383443
1.00000000 0.48790916 0.25459501
0.00000000 0.63567384 0.25254657
0.03774615 0.63521026 0.25264139
0.21218098 0.63443117 0.25280050
0.35716800 0.63321774 0.25304774
0.49402204 0.63153631 0.25338915
0.62760285 0.62935779 0.25382948
0.75952709 0.62665531 0.25437255
0.89049689 0.62340292 0.25502152
1.00000000 0.61957469 0.25577898
0.00000000 0.76288638 0.25401897
0.00000000 0.76250504 0.25411331
0.18967786 0.76186437 0.25427161
0.34343573 0.76086702 0.25451759
0.48413948 0.75948602 0.25485727
0.61992199 0.75769848 0.25529537
0.75327573 0.75548377 0.25583570
0.88524778 0.75282247 0.25648141
1.00000000 0.74969573 0.25723508
0.00000000 0.89004626 0.25577230
0.00000000 0.88972398 0.25586607
0.15953162 0.88918263 0.25602342
0.32627361 0.88834017 0.25626791
0.47202934 0.88717415 0.25660555
0.61059042 0.88566579 0.25704102
0.74571544 0.88379839 0.25757812
0.87891680 0.88155653 0.25821998
1.00000000 0.87892552 0.25896919
0.00000000 1.00000000 0.25781038
0.00000000 1.00000000 0.25790349
0.11762559 1.00000000 0.25805975
0.30505212 1.00000000 0.25830254
0.45744921 1.00000000 0.25863784
0.59947821 1.00000000 0.25907029
0.73676338 1.00000000 0.25960368
0.87144523 1.00000000 0.26024112
1.00000000 1.00000000 0.26098518
0.00000000 0.00000000 0.37370857
0.12626583 0.00000000 0.37377460
0.25708560 0.00000000 0.37388543
0.38664195 0.00000000 0.37405770
0.51576987 0.00000000 0.37429570
0.64470389 0.00000000 0.37460285
0.77353466 0.00000000 0.37498198
0.90230432 0.00000000 0.37543549
1.00000000 0.00000000 0.37596544
0.00000000 0.11966784 0.37388706
0.12063386 0.11761800 0.37395306
0.25389908 0.11412227 0.37406384
0.38446716 0.10854310 0.37423602
0.51414140 0.10051463 0.37447392
0.64341423 0.08952181 0.37478093
0.77247410 0.07465533 0.37515989
0.90140817 0.05688535 0.37561319
1.00000000 0.03609406 0.37614289
0.00000000 0.25052236 0.37418654
0.11075977 0.24937117 0.37425248
0.24846883 0.24742797 0.37436317
0.38078887 0.24437972 0.37453523
0.51139548 0.24011075 0.37477293
0.64124290 0.23449838 0.37507971
0.77069001 0.22740108 0.37545838
0.89990145 0.21864600 0.37591133
1.00000000 0.20801247 0.37644063
0.00000000 0.37916524 0.37465173
0.09416581 0.37838116 0.37471760
0.23981302 0.37706126 0.37482815
0.37500000 0.37500000 0.37500000
0.50709558 0.37213248 0.37523742
0.63785113 0.36839732 0.37554383
0.76790700 0.36373175 0.37592205
0.89755310 0.35806816 0.37637446
1.00000000 0.35133077 0.37690313
0.00000000 0.50706984 0.37529386
0.06822212 0.50648322 0.37535962
0.22738273 0.50549679 0.37546999
0.36685261 0.50395908 0.37564156
0.50108956 0.50182552 0.37587859
0.63313092 0.49905633 0.37618449
0.76404187 0.49561337 0.37656208
0.89429572 0.49145822 0.37701376
1.00000000 0.48655078 0.37754156
0.00000000 0.63464207 0.37612158
0.03432649 0.63417769 0.37618720
0.21041801 0.63339726 0.37629734
0.35606556 0.63218173 0.37646854
0.49322257 0.63049738 0.37670507
0.62697934 0.62831506 0.37701032
0.75901868 0.62560782 0.37738711
0.89006951 0.62234966 0.37783783
1.00000000 0.61851455 0.37836452
0.00000000 0.76203777 0.37714175
0.00000000 0.76165598 0.37720720
0.18774427 0.76101453 0.37731706
0.34229121 0.76001598 0.37748780
0.48332339 0.75863330 0.37772371
0.61929032 0.75684358 0.37802817
0.75276276 0.75462616 0.37840398
0.88481761 0.75196159 0.37885353
1.00000000 0.74883097 0.37937885
0.00000000 0.88932914 0.37835987
0.00000000 0.88900658 0.37842511
0.15731645 0.88846475 0.37853462
0.32507221 0.88762154 0.37870484
0.47119202 0.88645449 0.37894002
0.60994857 0.88494477 0.37924353
0.74519685 0.88307570 0.37961817
0.87848323 0.88083181 0.38006633
1.00000000 0.87819842 0.38059002
0.00000000 1.00000000 0.37978028
0.00000000 1.00000000 0.37984529
0.11486891 1.00000000 0.37995440
0.30377288 1.00000000 0.38012401
0.45658494 1.00000000 0.38035833
0.59882385 1.00000000 0.38066075
0.73623798 1.00000000 0.38103404
0.87100758 1.00000000 0.38148058
1.00000000 1.00000000 0.38200240
0.00000000 0.00000000 0.49836801
0.12262537 0.00000000 0.49841761
0.25501858 0.00000000 0.49850088
0.38522985 0.00000000 0.49863032
0.51471208 0.00000000 0.49880920
0.64386601 0.00000000 0.49904011
0.77284555 0.00000000 0.49932525
0.90172200 0.00000000 0.49966646
1.00000000 0.00000000 0.50006539
0.00000000 0.11328684 0.49850210
0.11687679 0.11116062 0.49855169
0.25180908 0.10753063 0.49863494
0.38304727 0.10172613 0.49876434
0.51308017 0.09334722 0.49894317
0.64257458 0.08181666 0.49917403
0.77178396 0.06672931 0.49945908
0.90082521 0.04895933 0.49980020
1.00000000 0.02816804 0.50019903
0.00000000 0.24696734 0.49872715
0.10678086 0.24580162 0.49877672
0.24633856 0.24383365 0.49885992
0.37935562 0.24074590 0.49898927
0.51032840 0.23642026 0.49916801
0.64040023 0.23073088 0.49939876
0.76999814 0.22353189 0.49968369
0.89931741 0.21464425 0.50002465
1.00000000 0.20383811 0.50042329
0.00000000 0.37674905 0.49907687
0.08975472 0.37596010 0.49912640
0.23761558 0.37463194 0.49920954
0.37354525 0.37255769 0.49933880
0.50601923 0.36967188 0.49951742
0.63700372 0.36591252 0.49974800
0.76721241 0.36121612 0.50003272
0.89696738 0.35551413 0.50037345
1.00000000 0.34872966 0.50077180
0.00000000 0.50526367 0.49955988
0.06349502 0.50467490 0.49960937
0.22508177 0.50368486 0.49969243
0.36536659 0.50214148 0.49982156
0.50000000 0.50000000 0.50000000
0.63227681 0.49722044 0.50023036
0.76334348 0.49376443 0.50051480
0.89370765 0.48959331 0.50085519
1.00000000 0.48466668 0.50125315
0.00000000 0.63321289 0.50018298
0.02959938 0.63274740 0.50023240
0.20796058 0.63196510 0.50031535
0.35453622 0.63074665 0.50044432
0.49211525 0.62905825 0.50062253
0.62611636 0.62687063 0.50085260
0.75831528 0.62415678 0.50113668
0.88947837 0.62089059 0.50147664
1.00000000 0.61704592 0.50187410
0.00000000 0.76086304 0.50095168
0.00000000 0.76048060 0.50100102
0.18504487 0.75983808 0.50108385
0.34070309 0.75883785 0.50121261
0.48219298 0.75745285 0.50139055
0.61841603 0.75566011 0.50162025
0.75205303 0.75343893 0.50190389
0.88422261 0.75076980 0.50224332
1.00000000 0.74763379 0.50264016
0.00000000 0.88833681 0.50187059
0.00000000 0.88801385 0.50191984
0.15421526 0.88747135 0.50200251
0.32340458 0.88662710 0.50213104
0.47003207 0.88545861 0.50230864
0.60906016 0.88394702 0.50253792
0.74447933 0.88207562 0.50282103
0.87788351 0.87982894 0.50315982
1.00000000 0.87719223 0.50355593
0.00000000 1.00000000 0.50294356
0.00000000 1.00000000 0.50299270
0.11098518 1.00000000 0.50307520
0.30199633 1.00000000 0.50320344
0.45538752 1.00000000 0.50338066
0.59791807 1.00000000 0.50360944
0.73551104 1.00000000 0.50389193
0.87040219 1.00000000 0.50422999
1.00000000 1.00000000 0.50462524
0.00000000 0.00000000 0.62302744
0.11781283 0.00000000 0.62306679
0.25232707 0.00000000 0.62313284
0.38339870 0.00000000 0.62323554
0.51334268 0.00000000 0.62337746
0.64278222 0.00000000 0.62356070
0.77195460 0.00000000 0.62378700
0.90096934 0.00000000 0.62405788
1.00000000 0.00000000 0.62437466
0.00000000 0.10468180 0.62313382
0.11190309 0.10244394 0.62317316
0.24908719 0.09861699 0.62323920
0.38120593 0.09247971 0.62334187
0.51170630 0.08357731 0.62348377
0.64148847 0.07133286 0.62366698
0.77089169 0.05649315 0.62389324
0.90007172 0.03872317 0.62416407
1.00000000 0.01793188 0.62448079
0.00000000 0.24230902 0.62331236
0.10149874 0.24112375 0.62335169
0.24356341 0.23912243 0.62341771
0.37749682 0.23598147 0.62352035
0.50894692 0.23157941 0.62366221
0.63931021 0.22578603 0.62384536
0.76910362 0.21844943 0.62407155
0.89856253 0.20938190 0.62434230
1.00000000 0.19834071 0.62465892
0.00000000 0.37360626 0.62358987
0.08386438 0.37281088 0.62362918
0.23475144 0.37147185 0.62369517
0.37165836 0.36938047 0.62379776
0.50462568 0.36647055 0.62393955
0.63590754 0.36267928 0.62412262
0.76631437 0.35794218 0.62434871
0.89621032 0.35218952 0.62461933
1.00000000 0.34534285 0.62493580
0.00000000 0.50292126 0.62397326
0.05739013 0.50232969 0.62401255
0.22208028 0.50133492 0.62407850
0.36343882 0.49978413 0.62418102
0.49858927 0.49763230 0.62432272
0.63117195 0.49483918 0.62450567
0.76244051 0.49136611 0.62473161
0.89294755 0.48717411 0.62500206
1.00000000 0.48222239 0.62531833
0.00000000 0.63136210 0.62446804
0.02349449 0.63089517 0.62450729
0.20475088 0.63011043 0.62457318
0.35255176 0.62888819 0.62467563
0.49068143 0.62719451 0.62481720
0.62500000 0.62500000 0.62500000
0.75740583 0.62227754 0.62522575
0.88871428 0.61900089 0.62549597
1.00000000 0.61514378 0.62581198
0.00000000 0.75934300 0.62507873
0.00000000 0.75895974 0.62511794
0.18151159 0.75831582 0.62518377
0.33864166 0.75731342 0.62528611
0.48072910 0.75592540 0.62542754
0.61728498 0.75412874 0.62561015
0.75113538 0.75190266 0.62583567
0.88345352 0.74922762 0.62610561
1.00000000 0.74608461 0.62642129
0.00000000 0.88705343 0.62580919
0.00000000 0.88672996 0.62584835
0.15014016 0.88618660 0.62591410
0.32123893 0.88534100 0.62601631
0.46852975 0.88417064 0.62615757
0.60791078 0.88265663 0.62633995
0.74355159 0.88078222 0.62656519
0.87710832 0.87853190 0.62683480
1.00000000 0.87589090 0.62715010
0.00000000 1.00000000 0.62666270
0.00000000 1.00000000 0.62670180
0.10583567 1.00000000 0.62676745
0.29968765 1.00000000 0.62686952
0.45383641 1.00000000 0.62701057
0.59674615 1.00000000 0.62719269
0.73457108 1.00000000 0.62741762
0.86961968 1.00000000 0.62768684
1.00000000 1.00000000 0.62800168
0.00000000 0.00000000 0.74768688
0.11168067 0.00000000 0.74771926
0.24896667 0.00000000 0.74777364
0.38112461 0.00000000 0.74785817
0.51164569 0.00000000 0.74797501
0.64144058 0.00000000 0.74812587
0.77085235 0.00000000 0.74831220
0.90003851 0.00000000 0.74853527
1.00000000 0.00000000 0.74879616
0.00000000 0.09339482 0.74777444
0.10555310 0.09099327 0.74780682
0.24568810 0.08687577 0.74786118
0.37891909 0.07999921 0.74794571
0.51000372 0.07069838 0.74806253
0.64014396 0.05868669 0.74821337
0.76978779 0.04384698 0.74839968
0.89913987 0.02607700 0.74862272
1.00000000 0.00528571 0.74888358
0.00000000 0.23644439 0.74792141
0.09472836 0.23523364 0.74795379
0.24009646 0.23318883 0.74800814
0.37518808 0.22997843 0.74809265
0.50723487 0.22547649 0.74820944
0.63796084 0.21954692 0.74836025
0.76799694 0.21202962 0.74854653
0.89762896 0.20272504 0.74876951
1.00000000 0.19137253 0.74903032
0.00000000 0.36968791 0.74814988
0.07609382 0.36888438 0.74818225
0.23117095 0.36753155 0.74823658
0.36931438 0.36541846 0.74832106
0.50289859 0.36247795 0.74843782
0.63455051 0.35864618 0.74858858
0.76520332 0.35385742 0.74877479
0.89527405 0.34804035 0.74899770
1.00000000 0.34111458 0.74925843
0.00000000 0.50001188 0.74846558
0.04984790 0.49941679 0.74849793
0.21832410 0.49841608 0.74855224
0.36104352 0.49685600 0.74863668
0.49684076 0.49469119 0.74875339
0.62980413 0.49188106 0.74890408
0.76132334 0.48838659 0.74909021
0.89200750 0.48416838 0.74931302
1.00000000 0.47918514 0.74957362
0.00000000 0.62906761 0.74887308
0.01595227 0.62859888 0.74890541
0.20072732 0.62781111 0.74895969
0.35008526 0.62658414 0.74904408
0.48890412 0.62488386 0.74916072
0.62361789 0.62268076 0.74931132
0.75628061 0.61994756 0.74949734
0.88776931 0.61665786 0.74972002
1.00000000 0.61278521 0.74998047
0.00000000 0.75746053 0.74937619
0.00000000 0.75707623 0.74940850
0.17706989 0.75643059 0.74946274
0.33607839 0.75542548 0.74954707
0.47891430 0.75403370 0.74966362
0.61588461 0.75223216 0.74981412
0.75000000 0.75000000 0.75000000
0.88250235 0.74731761 0.75022252
1.00000000 0.74416589 0.75048279
0.00000000 0.88546508 0.74997817
0.00000000 0.88514097 0.75001045
0.14499027 0.88459654 0.75006465
0.31854442 0.88374926 0.75014890
0.46666699 0.88257658 0.75026535
0.60648763 0.88105956 0.75041572
0.74240369 0.87918141 0.75060144
0.87614957 0.87692657 0.75082377
1.00000000 0.87428025 0.75108381
0.00000000 1.00000000 0.75068184
0.00000000 1.00000000 0.75071409
0.09924663 1.00000000 0.75076823
0.29681265 1.00000000 0.75085240
0.45191272 1.00000000 0.75096873
0.59529498 1.00000000 0.75111894
0.73340802 1.00000000 0.75130447
0.86865186 1.00000000 0.75152658
1.00000000 1.00000000 0.75178636
0.00000000 0.00000000 0.87234631
0.10403779 0.00000000 0.87237369
0.24488980 0.00000000 0.87241966
0.37838405 0.00000000 0.87249114
0.50960598 0.00000000 0.87258993
0.63983009 0.00000000 0.87271749
0.76953020 0.00000000 0.87287506
0.89892249 0.00000000 0.87306370
1.00000000 0.00000000 0.87328436
0.00000000 0.07848889 0.87242034
0.09761704 0.07591145 0.87244772
0.24156314 0.07158427 0.87249369
0.37616296 0.06485592 0.87256515
0.50795727 0.05555509 0.87266393
0.63853001 0.04354340 0.87279149
0.76846365 0.02870369 0.87294904
0.89802262 0.01093371 0.87313767
1.00000000 0.00000000 0.87335831
0.00000000 0.22925251 0.87254461
0.08621989 0.22800913 0.87257199
0.23588706 0.22590858 0.87261794
0.37240525 0.22260905 0.87268940
0.50517694 0.21797867 0.87278816
0.63634104 0.21187352 0.87291570
0.76666946 0.20412243 0.87307323
0.89650963 0.19450963 0.87326182
1.00000000 0.18274970 0.87348243
0.00000000 0.36494251 0.87273780
0.06706230 0.36412890 0.87276517
0.22682001 0.36275902 0.87281111
0.36648854 0.36061906 0.87288255
0.50082246 0.35764072 0.87298129
0.63292147 0.35375880 0.87310880
0.76387058 0.34890603 0.87326629
0.89415147 0.34300911 0.87345484
1.00000000 0.33598515 0.87367539
0.00000000 0.49650512 0.87300477
0.04081639 0.49590574 0.87303213
0.21375347 0.49489780 0.87307806
0.35815503 0.49332638 0.87314948
0.49473871 0.49114573 0.87324819
0.62816209 0.48831484 0.87337564
0.75998324 0.48479425 0.87353308
0.89088040 0.48054403 0.87372157
1.00000000 0.47552231 0.87394205
0.00000000 0.62630837 0.87334943
0.00692075 0.62583745 0.87337677
0.19582068 0.62504602 0.87342269
0.34710977 0.62381330 0.87349407
0.48676719 0.62210503 0.87359273
0.62195860 0.61989151 0.87372014
0.75493083 0.61714529 0.87387751
0.88663628 0.61383977 0.87406592
1.00000000 0.60994829 0.87428630
0.00000000 0.75519966 0.87377502
0.00000000 0.75481413 0.87380235
0.17163343 0.75416639 0.87384824
0.33298448 0.75315802 0.87391958
0.47673194 0.75176170 0.87401820
0.61420330 0.74995426 0.87414553
0.74863798 0.74771476 0.87430282
0.88136188 0.74502348 0.87449113
1.00000000 0.74186125 0.87471139
0.00000000 0.88355895 0.87428435
0.00000000 0.88323407 0.87431167
0.13864311 0.88268835 0.87435752
0.31528961 0.88183906 0.87442882
0.46442649 0.88066358 0.87452737
0.60477884 0.87914294 0.87465463
0.74102659 0.87726027 0.87481182
0.87500000 0.87500000 0.87500000
1.00000000 0.87234726 0.87522012
0.00000000 1.00000000 0.87487987
0.00000000 1.00000000 0.87490716
0.09098618 1.00000000 0.87495299
0.29333601 1.00000000 0.87502423
0.44959833 1.00000000 0.87512271
0.59355236 1.00000000 0.87524987
0.73201269 1.00000000 0.87540694
0.86749137 1.00000000 0.87559498
1.00000000 1.00000000 0.87581494
0.00000000 0.00000000 0.99700575
0.09462331 0.00000000 0.99702937
0.24004347 0.00000000 0.99706903
0.37515292 0.00000000 0.99713070
0.50720882 0.00000000 0.99721594
0.63794033 0.00000000 0.99732602
0.76798012 0.00000000 0.99746198
0.89761477 0.00000000 0.99762478
1.00000000 0.00000000 0.99781521
0.00000000 0.06077089 0.99706962
0.08780375 0.05819344 0.99709324
0.23665796 0.05386627 0.99713290
0.37291321 0.04713792 0.99719457
0.50555212 0.03783708 0.99727980
0.63663616 0.02582540 0.99738987
0.76691124 0.01098568 0.99752583
0.89671346 0.00000000 0.99768860
1.00000000 0.00000000 0.99787902
0.00000000 0.22058543 0.99717684
0.07548189 0.21930054 0.99720046
0.23087837 0.21712900 0.99724012
0.36912357 0.21371578 0.99730178
0.50275820 0.20892120 0.99738700
0.63444027 0.20259077 0.99749705
0.76511310 0.19453831 0.99763299
0.89519803 0.18452564 0.99779575
1.00000000 0.17223242 0.99798615
0.00000000 0.35931386 0.99734354
0.05649522 0.35848799 0.99736716
0.22163741 0.35709737 0.99740680
0.36315540 0.35492473 0.99746845
0.49838213 0.35190032 0.99755366
0.63100982 0.34795733 0.99766369
0.76230805 0.34302650 0.99779961
0.89283606 0.33703212 0.99796234
1.00000000 0.32988813 0.99815270
0.00000000 0.49236983 0.99757392
0.03024930 0.49176531 0.99759753
0.20829988 0.49074872 0.99763717
0.35474686 0.48916373 0.99769880
0.49226764 0.48696412 0.99778398
0.62623509 0.48410839 0.99789399
0.75841203 0.48055652 0.99802987
0.88955967 0.47626798 0.99819256
1.00000000 0.47120014 0.99838287
0.00000000 0.62306361 0.99787136
0.00000000 0.62259011 0.99789496
0.18994999 0.62179431 0.99793458
0.34359728 0.62055478 0.99799619
0.48425477 0.61883703 0.99808135
0.62001125 0.61661115 0.99819132
0.75334823 0.61384946 0.99832716
0.88530858 0.61052516 0.99848979
1.00000000 0.60661131 0.99868004
0.00000000 0.75254509 0.99823869
0.00000000 0.75215808 0.99826228
0.16509818 0.75150787 0.99830189
0.32932980 0.75049563 0.99836348
0.47416563 0.74909396 0.99844860
0.61222996 0.74727955 0.99855852
0.74704098 0.74503137 0.99869430
0.88002543 0.74232960 0.99885687
1.00000000 0.73915493 0.99904704
0.00000000 0.88132299 0.99867836
0.00000000 0.88099721 0.99870194
0.13094323 0.88044996 0.99874153
0.31144129 0.87959830 0.99880308
0.46179115 0.87841952 0.99888816
0.60277305 0.87689460 0.99899803
0.73941186 0.87500662 0.99913375
0.87365286 0.87273994 0.99929624
1.00000000 0.87007964 0.99948631
0.00000000 1.00000000 0.99919251
0.00000000 1.00000000 0.99921607
0.08048010 1.00000000 0.99925564
0.28921985 1.00000000 0.99931716
0.44687520 1.00000000 0.99940219
0.59150664 1.00000000 0.99951200
0.73037647 1.00000000 0.99964764
0.86613141 1.00000000 0.99981003
1.00000000 1.00000000 1.00000000
