Processors/avs_plugins/LUTs/Linear_BT709_to_Linear_BT601_NTSC.cube
TITLE "BT709_to_BT601_NTSC"
LUT_3D_SIZE 33
# BT709 to BT601 NTSC by Francesco Bucciantini
0.00000000 0.00000000 0.00000000
0.03329309 0.00000000 0.00005100
0.06658619 0.00000000 0.00010200
0.09932216 0.00000000 0.00015344
0.13147556 0.00000000 0.00021426
0.16362896 0.00000000 0.00028641
0.19578236 0.00000000 0.00037021
0.22793576 0.00000000 0.00046598
0.26008916 0.00000000 0.00057398
0.29224256 0.00000000 0.00069448
0.32439596 0.00000000 0.00082772
0.35654935 0.00000000 0.00097393
0.38870275 0.00000000 0.00113331
0.42085615 0.00000000 0.00130607
0.45300955 0.00000000 0.00149240
0.48516295 0.00000000 0.00169248
0.51731635 0.00000000 0.00190648
0.54946975 0.00000000 0.00213458
0.58162315 0.00000000 0.00237694
0.61377654 0.00000000 0.00263370
0.64592994 0.00000000 0.00290501
0.67808334 0.00000000 0.00319103
0.71023674 0.00000000 0.00349188
0.74239014 0.00000000 0.00380771
0.77454354 0.00000000 0.00413864
0.80669694 0.00000000 0.00448479
0.83885034 0.00000000 0.00484630
0.87100374 0.00000000 0.00522328
0.90315713 0.00000000 0.00561585
0.93531053 0.00000000 0.00602412
0.96746393 0.00000000 0.00644820
0.99961733 0.00000000 0.00688820
1.00000000 0.00000000 0.00734423
0.00000000 0.03238635 0.00013789
0.03156182 0.03177283 0.00018889
0.06485491 0.03115931 0.00023989
0.09777221 0.03054056 0.00029133
0.13018740 0.02980890 0.00035215
0.16253179 0.02894103 0.00042430
0.19483018 0.02793293 0.00050810
0.22709709 0.02678095 0.00060386
0.25934156 0.02548173 0.00071187
0.29156950 0.02403217 0.00083237
0.32378494 0.02242937 0.00096561
0.35599070 0.02067063 0.00111181
0.38818883 0.01875337 0.00127119
0.42038085 0.01667518 0.00144395
0.45256790 0.01443376 0.00163028
0.48475085 0.01202691 0.00183036
0.51693039 0.00945254 0.00204437
0.54910706 0.00670864 0.00227247
0.58128130 0.00379328 0.00251482
0.61345346 0.00070462 0.00277158
0.64562383 0.00000000 0.00304290
0.67779264 0.00000000 0.00332892
0.70996010 0.00000000 0.00362977
0.74212637 0.00000000 0.00394560
0.77429159 0.00000000 0.00427652
0.80645588 0.00000000 0.00462268
0.83861934 0.00000000 0.00498419
0.87078207 0.00000000 0.00536117
0.90294413 0.00000000 0.00575374
0.93510560 0.00000000 0.00616201
0.96726652 0.00000000 0.00658609
0.99942696 0.00000000 0.00702609
1.00000000 0.00000000 0.00748212
0.00000000 0.06477269 0.00027577
0.02983054 0.06415918 0.00032677
0.06312364 0.06354566 0.00037778
0.09620719 0.06292691 0.00042921
0.12889032 0.06219525 0.00049004
0.16142896 0.06132738 0.00056218
0.19387422 0.06031927 0.00064599
0.22625578 0.05916729 0.00074175
0.25859205 0.05786807 0.00084975
0.29089503 0.05641852 0.00097025
0.32317284 0.05481572 0.00110350
0.35543120 0.05305697 0.00124970
0.38767425 0.05113972 0.00140908
0.41990502 0.04906153 0.00158184
0.45212581 0.04682010 0.00176817
0.48433839 0.04441326 0.00196825
0.51654413 0.04183889 0.00218226
0.54874412 0.03909499 0.00241036
0.58093924 0.03617963 0.00265271
0.61313020 0.03309096 0.00290947
0.64531756 0.02982720 0.00318079
0.67750181 0.02638661 0.00346680
0.70968335 0.02276753 0.00376766
0.74186250 0.01896835 0.00408348
0.77403955 0.01498749 0.00441441
0.80621475 0.01082343 0.00476057
0.83838828 0.00647470 0.00512208
0.87056034 0.00193986 0.00549906
0.90273107 0.00000000 0.00589163
0.93490061 0.00000000 0.00629990
0.96706907 0.00000000 0.00672398
0.99923655 0.00000000 0.00716398
1.00000000 0.00000000 0.00762000
0.00000000 0.09687308 0.00041484
0.02808449 0.09631711 0.00046584
0.06137758 0.09575920 0.00051684
0.09461312 0.09519455 0.00056828
0.12757297 0.09452425 0.00062910
0.16031091 0.09372548 0.00070125
0.19290622 0.09279253 0.00078505
0.22540459 0.09171958 0.00088081
0.25783420 0.09050058 0.00098882
0.29021334 0.08912911 0.00110932
0.32255441 0.08759829 0.00124256
0.35486608 0.08590067 0.00138876
0.38715460 0.08402807 0.00154814
0.41942458 0.08197148 0.00172090
0.45167951 0.07948289 0.00190723
0.48392204 0.07707604 0.00210731
0.51615427 0.07450167 0.00232132
0.54837784 0.07175777 0.00254942
0.58059405 0.06884241 0.00279177
0.61280399 0.06575375 0.00304853
0.64500852 0.06248998 0.00331985
0.67720836 0.05904940 0.00360587
0.70940411 0.05543032 0.00390672
0.74159627 0.05163113 0.00422255
0.77378527 0.04765027 0.00455347
0.80597147 0.04348621 0.00489963
0.83815518 0.03913748 0.00526114
0.87033666 0.03460264 0.00563812
0.90251614 0.02988029 0.00603069
0.93469383 0.02496906 0.00643896
0.96686989 0.01986763 0.00686304
0.99904448 0.01457470 0.00730304
1.00000000 0.00908900 0.00775907
0.00000000 0.12862942 0.00057928
0.02601982 0.12816695 0.00063028
0.05931292 0.12770333 0.00068128
0.09270723 0.12723457 0.00073272
0.12600305 0.12667875 0.00079354
0.15898119 0.12601727 0.00086568
0.19175650 0.12524591 0.00094949
0.22439454 0.12436047 0.00104525
0.25693551 0.12335668 0.00115326
0.28940539 0.12223016 0.00127376
0.32182171 0.12097634 0.00140700
0.35419672 0.11959039 0.00155320
0.38653925 0.11806720 0.00171258
0.41885577 0.11640125 0.00188534
0.45115120 0.11458662 0.00207167
0.48342926 0.11261684 0.00227175
0.51569289 0.11048485 0.00248576
0.54794438 0.10818288 0.00271386
0.58018560 0.10570231 0.00295621
0.61241803 0.10303355 0.00321297
0.64464289 0.10016587 0.00348429
0.67686119 0.09708715 0.00377031
0.70907377 0.09378362 0.00407116
0.74128133 0.09023957 0.00438698
0.77348448 0.08643686 0.00471791
0.80568370 0.08235440 0.00506407
0.83787945 0.07776035 0.00542558
0.87007208 0.07322551 0.00580256
0.90226192 0.06850316 0.00619513
0.93444924 0.06359193 0.00660340
0.96663430 0.05849050 0.00702748
0.99881730 0.05319757 0.00746748
1.00000000 0.04771187 0.00792351
0.00000000 0.16038576 0.00077433
0.02357079 0.15999164 0.00082533
0.05686388 0.15959679 0.00087633
0.09041606 0.15919782 0.00092777
0.12412334 0.15872508 0.00098859
0.15739299 0.15816295 0.00106074
0.19038549 0.15750810 0.00114454
0.22319143 0.15675727 0.00124030
0.25586591 0.15590724 0.00134831
0.28844435 0.15495473 0.00146881
0.32095057 0.15389642 0.00160205
0.35340119 0.15272888 0.00174825
0.38580810 0.15144853 0.00190764
0.41818009 0.15005160 0.00208039
0.45052373 0.14853414 0.00226672
0.48284408 0.14689192 0.00246680
0.51514506 0.14512043 0.00268081
0.54742978 0.14321483 0.00290891
0.57970072 0.14116986 0.00315127
0.61195988 0.13897985 0.00340803
0.64420890 0.13663860 0.00367934
0.67644914 0.13413932 0.00396536
0.70868172 0.13147455 0.00426621
0.74090758 0.12863603 0.00458204
0.77312752 0.12561461 0.00491297
0.80534222 0.12240006 0.00525912
0.83755226 0.11898089 0.00562063
0.86975813 0.11534415 0.00599761
0.90196026 0.11147509 0.00639018
0.93415903 0.10735685 0.00679845
0.96635477 0.10296997 0.00722253
0.99854776 0.09829179 0.00766253
1.00000000 0.09329568 0.00811856
0.00000000 0.19214209 0.00100090
0.02072604 0.19179993 0.00105190
0.05401914 0.19145728 0.00110290
0.08771142 0.19111121 0.00115434
0.12191531 0.19070133 0.00121516
0.15553293 0.19021422 0.00128731
0.18878292 0.18964715 0.00137111
0.22178700 0.18899746 0.00146687
0.25461851 0.18826259 0.00157488
0.28732435 0.18743996 0.00169538
0.31993590 0.18652699 0.00182862
0.35247495 0.18552107 0.00197482
0.38495712 0.18441951 0.00213420
0.41739386 0.18321954 0.00230696
0.44979377 0.18191829 0.00249329
0.48216343 0.18051276 0.00269337
0.51450796 0.17899977 0.00290738
0.54683139 0.17737599 0.00313548
0.57913695 0.17563787 0.00337783
0.61142725 0.17378163 0.00363459
0.64370440 0.17180324 0.00390591
0.67597017 0.16969836 0.00419193
0.70822602 0.16746230 0.00449278
0.74047317 0.16509003 0.00480860
0.77271266 0.16257604 0.00513953
0.80494536 0.15991437 0.00548569
0.83717202 0.15709848 0.00584720
0.86939329 0.15412120 0.00622418
0.90160972 0.15097463 0.00661675
0.93382181 0.14765001 0.00702502
0.96602996 0.14413763 0.00744910
0.99823456 0.14042661 0.00788910
1.00000000 0.13650476 0.00834513
0.00000000 0.22389843 0.00125980
0.01747528 0.22359698 0.00131080
0.05076837 0.22329519 0.00136181
0.08456093 0.22299047 0.00141324
0.11935865 0.22262970 0.00147406
0.15338685 0.22220111 0.00154621
0.18693817 0.22170240 0.00163001
0.22017286 0.22113135 0.00172578
0.25318646 0.22048581 0.00183378
0.28603962 0.21976368 0.00195428
0.31877271 0.21896289 0.00208752
0.35141367 0.21808133 0.00223373
0.38398244 0.21711689 0.00239311
0.41649363 0.21606742 0.00256587
0.44895818 0.21493070 0.00275220
0.48138445 0.21370447 0.00295228
0.51377895 0.21238635 0.00316629
0.54614677 0.21097388 0.00339439
0.57849202 0.20946448 0.00363674
0.61081800 0.20785543 0.00389350
0.64312738 0.20614389 0.00416482
0.67542240 0.20432682 0.00445083
0.70770491 0.20240102 0.00475168
0.73997643 0.20036306 0.00506751
0.77223830 0.19820930 0.00539844
0.80449160 0.19593582 0.00574460
0.83673729 0.19353842 0.00610611
0.86897618 0.19101257 0.00648309
0.90120897 0.18835338 0.00687565
0.93343629 0.18555555 0.00728392
0.96565865 0.18261331 0.00770801
0.99787653 0.17952038 0.00814801
1.00000000 0.17626986 0.00860403
0.00000000 0.25565477 0.00155180
0.01380903 0.25538600 0.00160280
0.04710212 0.25511699 0.00165380
0.08067939 0.25484542 0.00170524
0.11643060 0.25452398 0.00176606
0.15093939 0.25414223 0.00183821
0.18484003 0.25369816 0.00192201
0.21834036 0.25318987 0.00201777
0.25156279 0.25261555 0.00212578
0.28458437 0.25197340 0.00224628
0.31745609 0.25126170 0.00237952
0.35021307 0.25047871 0.00252572
0.38288029 0.24962270 0.00268511
0.41547602 0.24869193 0.00285787
0.44801391 0.24768462 0.00304419
0.48050437 0.24659898 0.00324428
0.51295548 0.24543313 0.00345828
0.54537359 0.24418518 0.00368638
0.57776377 0.24285315 0.00392874
0.61013011 0.24143497 0.00418550
0.64247596 0.23992851 0.00445681
0.67480405 0.23833151 0.00474283
0.70711669 0.23664164 0.00504368
0.73941577 0.23485641 0.00535951
0.77170292 0.23297320 0.00569044
0.80397950 0.23098925 0.00603659
0.83624669 0.22890164 0.00639810
0.86850549 0.22670724 0.00677508
0.90075677 0.22440273 0.00716765
0.93300128 0.22198457 0.00757592
0.96523968 0.21944895 0.00800000
0.99747256 0.21679179 0.00844000
1.00000000 0.21400871 0.00889603
0.00000000 0.28741110 0.00187758
0.00971853 0.28716910 0.00192859
0.04301163 0.28692692 0.00197959
0.07658890 0.28668247 0.00203102
0.11310523 0.28639318 0.00209185
0.14817369 0.28604969 0.00216399
0.18247649 0.28565023 0.00224780
0.21628042 0.28519313 0.00234356
0.24974032 0.28467682 0.00245156
0.28295273 0.28409975 0.00257207
0.31598109 0.28346044 0.00270531
0.34886889 0.28275741 0.00285151
0.38164696 0.28198922 0.00301089
0.41433775 0.28115441 0.00318365
0.44695802 0.28025150 0.00336998
0.47952052 0.27927902 0.00357006
0.51203512 0.27823546 0.00378407
0.54450959 0.27711928 0.00401217
0.57695010 0.27592891 0.00425452
0.60936166 0.27466270 0.00451128
0.64174832 0.27331900 0.00478260
0.67411344 0.27189604 0.00506861
0.70645979 0.27039203 0.00536947
0.73878969 0.26880508 0.00568529
0.77110512 0.26713321 0.00601622
0.80340773 0.26537436 0.00636238
0.83569895 0.26352636 0.00672389
0.86798000 0.26158693 0.00710087
0.90025194 0.25955366 0.00749344
0.93251567 0.25742401 0.00790171
0.96477200 0.25519529 0.00832579
0.99702164 0.25286464 0.00876579
1.00000000 0.25042902 0.00922181
0.00000000 0.31916744 0.00223781
0.00519562 0.31894772 0.00228881
0.03848872 0.31872786 0.00233981
0.07206599 0.31850598 0.00239125
0.10935254 0.31824343 0.00245207
0.14507090 0.31793173 0.00252422
0.17983455 0.31756932 0.00260802
0.21398340 0.31715471 0.00270378
0.24771155 0.31668650 0.00281179
0.28113862 0.31616334 0.00293229
0.31434266 0.31558395 0.00306553
0.34737685 0.31494703 0.00321173
0.38027873 0.31425135 0.00337112
0.41307555 0.31349565 0.00354388
0.44578760 0.31267870 0.00373020
0.47843028 0.31179924 0.00393029
0.51101549 0.31085601 0.00414429
0.54355260 0.30984773 0.00437239
0.57604903 0.30877312 0.00461475
0.60851079 0.30763083 0.00487151
0.64094275 0.30641951 0.00514282
0.67334894 0.30513775 0.00542884
0.70573268 0.30378411 0.00572969
0.73809676 0.30235710 0.00604552
0.77044354 0.30085517 0.00637645
0.80277501 0.29927670 0.00672260
0.83509286 0.29762003 0.00708411
0.86739856 0.29588340 0.00746109
0.89969338 0.29406499 0.00785366
0.93197840 0.29216288 0.00826193
0.96425459 0.29017506 0.00868601
0.99652278 0.28809941 0.00912601
1.00000000 0.28593371 0.00958204
0.00000000 0.35092377 0.00263308
0.00023264 0.35072287 0.00268408
0.03352573 0.35052185 0.00273509
0.06710300 0.35031901 0.00278652
0.10513729 0.35007901 0.00284735
0.14160978 0.34979413 0.00291949
0.17689988 0.34946293 0.00300329
0.21143894 0.34908410 0.00309906
0.24546855 0.34865639 0.00320706
0.27913575 0.34817858 0.00332756
0.31253563 0.34764954 0.00346080
0.34573260 0.34706815 0.00360701
0.37877186 0.34643329 0.00376639
0.41168615 0.34574390 0.00393915
0.44449975 0.34499889 0.00412548
0.47723105 0.34419719 0.00432556
0.50989425 0.34333772 0.00453957
0.54250048 0.34241940 0.00476767
0.57505859 0.34144114 0.00501002
0.60757568 0.34040181 0.00526678
0.64005756 0.33930029 0.00553810
0.67250899 0.33813542 0.00582411
0.70493390 0.33690601 0.00612497
0.73733560 0.33561083 0.00644079
0.76971688 0.33424864 0.00677172
0.80208009 0.33281815 0.00711788
0.83442724 0.33131800 0.00747939
0.86676005 0.32974681 0.00785637
0.89908003 0.32810314 0.00824894
0.93138846 0.32638548 0.00865720
0.96368648 0.32459229 0.00908129
0.99597506 0.32272192 0.00952129
1.00000000 0.32077267 0.00997731
0.00000000 0.38268011 0.00306398
0.00000000 0.38249528 0.00311498
0.02811545 0.38231036 0.00316599
0.06169272 0.38212378 0.00321742
0.10041749 0.38190303 0.00327824
0.13776604 0.38164103 0.00335039
0.17365663 0.38133648 0.00343419
0.20863579 0.38098817 0.00352996
0.24300287 0.38059497 0.00363796
0.27693749 0.38015581 0.00375846
0.31055463 0.37966964 0.00389170
0.34393164 0.37913548 0.00403791
0.37712253 0.37855235 0.00419729
0.41016624 0.37791928 0.00437005
0.44309156 0.37723533 0.00455638
0.47592026 0.37649957 0.00475646
0.50866908 0.37571105 0.00497047
0.54135114 0.37486884 0.00519857
0.57397685 0.37397199 0.00544092
0.60655458 0.37301956 0.00569768
0.63909112 0.37201057 0.00596900
0.67159206 0.37094405 0.00625501
0.70406202 0.36981900 0.00655586
0.73650488 0.36863440 0.00687169
0.76892388 0.36738920 0.00720262
0.80132179 0.36608234 0.00754878
0.83370096 0.36471271 0.00791029
0.86606341 0.36327918 0.00828727
0.89841088 0.36178058 0.00867983
0.93074488 0.36021569 0.00908810
0.96306674 0.35858327 0.00951219
0.99537760 0.35688201 0.00995219
1.00000000 0.35511056 0.01040821
0.00000000 0.41443645 0.00353105
0.00000000 0.41426550 0.00358205
0.02225103 0.41409448 0.00363305
0.05582830 0.41392193 0.00368449
0.09514228 0.41371780 0.00374531
0.13351162 0.41347554 0.00381746
0.17008703 0.41319396 0.00390126
0.20556167 0.41287196 0.00399703
0.24030546 0.41250851 0.00410503
0.27453682 0.41210263 0.00422553
0.30839403 0.41165338 0.00435877
0.34196935 0.41115987 0.00450498
0.37532684 0.41062121 0.00466436
0.40851247 0.41003655 0.00483712
0.44156011 0.40940504 0.00502345
0.47449530 0.40872586 0.00522353
0.50733764 0.40799817 0.00543753
0.54010247 0.40722116 0.00566563
0.57280191 0.40639399 0.00590799
0.60544571 0.40551584 0.00616475
0.63804180 0.40458588 0.00643606
0.67059665 0.40360325 0.00672208
0.70311565 0.40256710 0.00702293
0.73560328 0.40147657 0.00733876
0.76806332 0.40033077 0.00766969
0.80049896 0.39912878 0.00801585
0.83291294 0.39786970 0.00837735
0.86530759 0.39655256 0.00875434
0.89768494 0.39517640 0.00914690
0.93004673 0.39374021 0.00955517
0.96239448 0.39224296 0.00997925
0.99472954 0.39068359 0.01041925
1.00000000 0.38906099 0.01087528
0.00000000 0.44619278 0.00403481
0.00000000 0.44603393 0.00408581
0.01592598 0.44587501 0.00413681
0.04950325 0.44571469 0.00418825
0.08924898 0.44552503 0.00424907
0.12881373 0.44529996 0.00432121
0.16617103 0.44503838 0.00440502
0.20220299 0.44473928 0.00450078
0.23736649 0.44440171 0.00460879
0.27192628 0.44402478 0.00472929
0.30604792 0.44360762 0.00486253
0.33984090 0.44314943 0.00500873
0.37338074 0.44264940 0.00516811
0.40672138 0.44210676 0.00534087
0.43990240 0.44152075 0.00552720
0.47295355 0.44089062 0.00572728
0.50589761 0.44021564 0.00594129
0.53875236 0.43949507 0.00616939
0.57153186 0.43872819 0.00641174
0.60424736 0.43791425 0.00666850
0.63690801 0.43705253 0.00693982
0.66952130 0.43614228 0.00722583
0.70209341 0.43518277 0.00752669
0.73462953 0.43417323 0.00784251
0.76713399 0.43311291 0.00817344
0.79961047 0.43200102 0.00851960
0.83206211 0.43083677 0.00888111
0.86449160 0.42961936 0.00925809
0.89690126 0.42834796 0.00965066
0.92929308 0.42702171 0.01005893
0.96166884 0.42563977 0.01048301
0.99403004 0.42420123 0.01092301
1.00000000 0.42270517 0.01137904
0.00000000 0.47794912 0.00457574
0.00000000 0.47780089 0.00462674
0.00913412 0.47765261 0.00467774
0.04271139 0.47750302 0.00472918
0.08265876 0.47732607 0.00479000
0.12363359 0.47711609 0.00486215
0.16188575 0.47687206 0.00494595
0.19854471 0.47659306 0.00504172
0.23417526 0.47627819 0.00514972
0.26909783 0.47592664 0.00527022
0.30351002 0.47553762 0.00540346
0.33754122 0.47511038 0.00554967
0.37128004 0.47464419 0.00570905
0.40478943 0.47413835 0.00588181
0.43811538 0.47359216 0.00606814
0.47129234 0.47300495 0.00626822
0.50434662 0.47237605 0.00648222
0.53729872 0.47170480 0.00671032
0.57016479 0.47099056 0.00695268
0.60295778 0.47023265 0.00720944
0.63568816 0.46943044 0.00748075
0.66836452 0.46858327 0.00776677
0.70099395 0.46769047 0.00806762
0.73358236 0.46675139 0.00838345
0.76613471 0.46576535 0.00871438
0.79865521 0.46473169 0.00906053
0.83114743 0.46364970 0.00942204
0.86361444 0.46251869 0.00979902
0.89605889 0.46133795 0.01019159
0.92848307 0.46010674 0.01059986
0.96088896 0.45882434 0.01102394
0.99327832 0.45748998 0.01146394
1.00000000 0.45610288 0.01191997
0.00000000 0.50970546 0.00515432
0.00000000 0.50956662 0.00520533
0.00186953 0.50942775 0.00525633
0.03544680 0.50928765 0.00530776
0.07515103 0.50912194 0.00536859
0.11792469 0.50892531 0.00544073
0.15720489 0.50869680 0.00552454
0.19456997 0.50843556 0.00562030
0.23072004 0.50814076 0.00572830
0.26604281 0.50781164 0.00584881
0.30077365 0.50744747 0.00598205
0.33506497 0.50704756 0.00612825
0.36902036 0.50661125 0.00628763
0.40271294 0.50613787 0.00646039
0.43619590 0.50562681 0.00664672
0.46950893 0.50507743 0.00684680
0.50268227 0.50448915 0.00706081
0.53573939 0.50386135 0.00728891
0.56869878 0.50319344 0.00753126
0.60157522 0.50248484 0.00778802
0.63438066 0.50173496 0.00805934
0.66712487 0.50094321 0.00834535
0.69981592 0.50010901 0.00864621
0.73246052 0.49923176 0.00896203
0.76506432 0.49831087 0.00929296
0.79763208 0.49734575 0.00963912
0.83016786 0.49633577 0.01000063
0.86267515 0.49528034 0.01037761
0.89515693 0.49417883 0.01077018
0.92761581 0.49303061 0.01117845
0.96005403 0.49183502 0.01160253
0.99247357 0.49059142 0.01204253
1.00000000 0.48929914 0.01249855
0.00000000 0.54146179 0.00577101
0.00000000 0.54133133 0.00582201
0.00000000 0.54120083 0.00587301
0.02770382 0.54106919 0.00592445
0.06740805 0.54091348 0.00598527
0.11163042 0.54072872 0.00605742
0.15209788 0.54051403 0.00614122
0.19025975 0.54026859 0.00623699
0.22698788 0.53999164 0.00634499
0.26275184 0.53968247 0.00646549
0.29783166 0.53934040 0.00659873
0.33240651 0.53896479 0.00674494
0.36659711 0.53855502 0.00690432
0.40048808 0.53811049 0.00707708
0.43414071 0.53763063 0.00726341
0.46760052 0.53711485 0.00746349
0.50090210 0.53656260 0.00767749
0.53407221 0.53597335 0.00790559
0.56713189 0.53534654 0.00814795
0.60009794 0.53468164 0.00840471
0.63298392 0.53397812 0.00867602
0.66580088 0.53323544 0.00896204
0.69855797 0.53245309 0.00926289
0.73126277 0.53163053 0.00957872
0.76392165 0.53076722 0.00990965
0.79654000 0.52986263 0.01025580
0.82912240 0.52891622 0.01061731
0.86167277 0.52792745 0.01099429
0.89419448 0.52689577 0.01138686
0.92669045 0.52582061 0.01179513
0.95916322 0.52470142 0.01221921
0.99161502 0.52353761 0.01265921
1.00000000 0.52232860 0.01311524
0.00000000 0.57321813 0.00642623
0.00000000 0.57309516 0.00647723
0.00000000 0.57297216 0.00652823
0.01947701 0.57284808 0.00657967
0.05918124 0.57270133 0.00664049
0.10468067 0.57252721 0.00671264
0.14652885 0.57232488 0.00679644
0.18559250 0.57209358 0.00689221
0.22296443 0.57183261 0.00700021
0.25921464 0.57154128 0.00712071
0.29467633 0.57121899 0.00725395
0.32955981 0.57086511 0.00740016
0.36400542 0.57047908 0.00755954
0.39811085 0.57006034 0.00773230
0.43194644 0.56960835 0.00791863
0.46556422 0.56912258 0.00811871
0.49900359 0.56860253 0.00833271
0.53229494 0.56804768 0.00856081
0.56546214 0.56745755 0.00880317
0.59852416 0.56683163 0.00905993
0.63149632 0.56616945 0.00933124
0.66439108 0.56547052 0.00961726
0.69721875 0.56473436 0.00991811
0.72998785 0.56396049 0.01023394
0.76270555 0.56314843 0.01056487
0.79537790 0.56229769 0.01091102
0.82801003 0.56140779 0.01127253
0.86060635 0.56047824 0.01164951
0.89317063 0.55950856 0.01204208
0.92570615 0.55849823 0.01245035
0.95821575 0.55744676 0.01287443
0.99070193 0.55635364 0.01331443
1.00000000 0.55521836 0.01377046
0.00000000 0.60497447 0.00712040
0.00000000 0.60485824 0.00717140
0.00000000 0.60474199 0.00722240
0.01076114 0.60462473 0.00727384
0.05046537 0.60448604 0.00733466
0.09698675 0.60432148 0.00740681
0.14045520 0.60413028 0.00749061
0.18054350 0.60391171 0.00758638
0.21863366 0.60366511 0.00769438
0.25542000 0.60338984 0.00781488
0.29129936 0.60308532 0.00794812
0.32651846 0.60275099 0.00809433
0.36124019 0.60238630 0.00825371
0.39557705 0.60199073 0.00842647
0.42960956 0.60156380 0.00861280
0.46339702 0.60110499 0.00881288
0.49698415 0.60061385 0.00902688
0.53040533 0.60008990 0.00925498
0.56368751 0.59953268 0.00949734
0.59685208 0.59894175 0.00975410
0.62991623 0.59831665 0.01002541
0.66289400 0.59765694 0.01031143
0.69579691 0.59696218 0.01061228
0.72863452 0.59623193 0.01092811
0.76141487 0.59546575 0.01125904
0.79414470 0.59466321 0.01160519
0.82682975 0.59382387 0.01196670
0.85947495 0.59294727 0.01234368
0.89208450 0.59203299 0.01273625
0.92466207 0.59108056 0.01314452
0.95721082 0.59008955 0.01356860
0.98973353 0.58905949 0.01400860
1.00000000 0.58798993 0.01446463
0.00000000 0.63673080 0.00785392
0.00000000 0.63662068 0.00790493
0.00000000 0.63651054 0.00795593
0.00155116 0.63639944 0.00800736
0.04125539 0.63626804 0.00806819
0.08843368 0.63611213 0.00814033
0.13382562 0.63593099 0.00822414
0.17508425 0.63572393 0.00831990
0.21397753 0.63549031 0.00842790
0.25135552 0.63522956 0.00854841
0.28769170 0.63494111 0.00868165
0.32327555 0.63462443 0.00882785
0.35829595 0.63427903 0.00898723
0.39288225 0.63390440 0.00915999
0.42712641 0.63350009 0.00934632
0.46109582 0.63306563 0.00954640
0.49484109 0.63260058 0.00976041
0.52840104 0.63210452 0.00998851
0.56180595 0.63157700 0.01023086
0.59507984 0.63101761 0.01048762
0.62824201 0.63042595 0.01075894
0.66130813 0.62980159 0.01104495
0.69429107 0.62914414 0.01134581
0.72720153 0.62845318 0.01166163
0.76004844 0.62772832 0.01199256
0.79283931 0.62696916 0.01233872
0.82558056 0.62617530 0.01270023
0.85827763 0.62534632 0.01307721
0.89093522 0.62448184 0.01346978
0.92355739 0.62358143 0.01387805
0.95614765 0.62264470 0.01430213
0.98870909 0.62167124 0.01474213
1.00000000 0.62066062 0.01519815
0.00000000 0.66848714 0.00862719
0.00000000 0.66838256 0.00867819
0.00000000 0.66827797 0.00872919
0.00000000 0.66817246 0.00878063
0.03154644 0.66804768 0.00884145
0.07864223 0.66789964 0.00891360
0.12657742 0.66772763 0.00899740
0.16918151 0.66753102 0.00909316
0.20897568 0.66730920 0.00920117
0.24700748 0.66706162 0.00932167
0.28384350 0.66678776 0.00945491
0.31982366 0.66648711 0.00960111
0.35516691 0.66615920 0.00976050
0.39002177 0.66580358 0.00993326
0.42449312 0.66541979 0.01011958
0.45865737 0.66500741 0.01031967
0.49257165 0.66456603 0.01053367
0.52627964 0.66409525 0.01076177
0.55981533 0.66359465 0.01100413
0.59320559 0.66306386 0.01126089
0.62647197 0.66250248 0.01153220
0.65963194 0.66191015 0.01181822
0.69269987 0.66128647 0.01211907
0.72568761 0.66063109 0.01243490
0.75860509 0.65994362 0.01276583
0.79146068 0.65922369 0.01311198
0.82426145 0.65847095 0.01347349
0.85701346 0.65768502 0.01385047
0.88972191 0.65686553 0.01424304
0.92239127 0.65601211 0.01465131
0.95502546 0.65512438 0.01507539
